;Generated with Cura_SteamEngine 14.09
G28
M104 S210
M190 S50
M109 S210
; BEGINNING OF HEAD MOVEMENT WARNING TONES
M120 S4 P10
G4 P40
M120 S4 P10
G4 P40
M120 S4 P10
G4 P40
M120 S4 P10
G4 P40
M120 S4 P10
G4 P40
M117 KEEP HANDS AWAY
G4 S3
; END OF HEAD WARNING TONES
;Layer count: 50
;LAYER:0
M107
G0 F9000 X-10.540 Y-18.179 Z0.300
;TYPE:SKIRT
G1 F1200 X-10.541 Y-20.179 E0.08955
G1 X-7.600 Y-20.179 E0.22124
G1 X-7.601 Y-22.179 E0.31079
G1 X-4.660 Y-22.179 E0.44248
G1 X-4.661 Y-24.179 E0.53203
G1 X-2.699 Y-24.179 E0.61989
G1 X-2.699 Y-26.179 E0.70944
G1 X-0.739 Y-26.179 E0.79720
G1 X-0.739 Y-28.179 E0.88675
G1 X28.179 Y-28.179 E2.18160
G1 X28.179 Y28.179 E4.70511
G1 X-28.179 Y28.179 E7.22862
G1 X-28.179 Y-8.178 E8.85656
G1 X-25.239 Y-8.178 E8.98820
G1 X-25.239 Y-10.178 E9.07776
G1 X-22.299 Y-10.178 E9.20940
G1 X-22.299 Y-12.178 E9.29895
G1 X-19.359 Y-12.178 E9.43059
G1 X-19.359 Y-14.178 E9.52015
G1 X-16.419 Y-14.178 E9.65179
G1 X-16.419 Y-16.178 E9.74134
G1 X-13.480 Y-16.178 E9.87294
G1 X-13.481 Y-18.179 E9.96254
G1 X-10.540 Y-18.179 E10.09423
G1 F2400 E2.09423
G0 F9000 X-2.804 Y-17.020
;TYPE:WALL-INNER
G1 F2400 E10.09423
G1 F1200 X-2.804 Y-17.385 E10.11057
G1 X0.095 Y-17.385 E10.24038
G1 X0.136 Y-19.020 E10.31361
G1 X0.136 Y-19.385 E10.32995
G1 X2.095 Y-19.385 E10.41767
G1 X2.095 Y-21.385 E10.50722
G1 X3.385 Y-21.385 E10.56498
G1 X3.385 Y-19.385 E10.65454
G1 X23.385 Y-19.385 E11.55007
G1 X23.385 Y-18.615 E11.58454
G1 X3.385 Y-18.615 E12.48007
G1 X3.385 Y-1.634 E13.24042
G1 X23.385 Y-1.634 E14.13595
G1 X23.385 Y3.385 E14.36068
G1 X19.385 Y3.385 E14.53979
G1 X19.385 Y23.385 E15.43532
G1 X18.615 Y23.385 E15.46980
G1 X18.615 Y3.385 E16.36533
G1 X1.635 Y3.385 E17.12563
G1 X1.635 Y23.385 E18.02116
G1 X-15.385 Y23.385 E18.78325
G1 X-15.385 Y21.615 E18.86251
G1 X-13.385 Y21.615 E18.95206
G1 X-13.385 Y18.615 E19.08639
G1 X-11.385 Y18.615 E19.17594
G1 X-11.385 Y15.615 E19.31027
G1 X-9.385 Y15.615 E19.39983
G1 X-9.385 Y12.615 E19.53416
G1 X-7.384 Y12.615 E19.62375
G1 X-7.384 Y9.615 E19.75808
G1 X-5.384 Y9.615 E19.84764
G1 X-5.384 Y6.615 E19.98196
G1 X-3.384 Y6.615 E20.07152
G1 X-3.384 Y3.615 E20.20585
G1 X-1.384 Y3.615 E20.29540
G1 X-1.384 Y0.616 E20.42968
G1 X0.616 Y0.616 E20.51924
G1 X0.616 Y-4.614 E20.75342
G1 X-3.447 Y-4.614 E20.93534
G1 X-2.947 Y-4.768 E20.95877
G1 X-2.189 Y-5.132 E20.99642
G1 X-1.496 Y-5.606 E21.03402
G1 X-0.880 Y-6.177 E21.07163
G1 X-0.357 Y-6.834 E21.10923
G1 X0.063 Y-7.561 E21.14682
G1 X0.370 Y-8.342 E21.18440
G1 X0.571 Y-9.221 E21.22477
G1 X0.571 Y-9.355 E21.23077
G1 X0.616 Y-9.937 E21.25691
G1 X0.616 Y-10.072 E21.26295
G1 X0.557 Y-10.839 E21.29740
G1 X0.370 Y-11.657 E21.33497
G1 X0.063 Y-12.438 E21.37255
G1 X-0.357 Y-13.165 E21.41014
G1 X-0.880 Y-13.822 E21.44774
G1 X-1.496 Y-14.393 E21.48535
G1 X-2.189 Y-14.867 E21.52294
G1 X-2.947 Y-15.231 E21.56060
G1 X-3.447 Y-15.385 E21.58402
G1 X-2.845 Y-15.385 E21.61098
G1 X-2.804 Y-17.020 E21.68421
G0 F9000 X-0.491 Y-10.679
G0 X-0.642 Y-8.655
G0 X-1.657 Y-6.898
G0 X-3.335 Y-5.755
G0 X-5.339 Y-5.453
G0 X-7.279 Y-6.050
G0 X-8.531 Y-5.632
G1 F1200 X-8.503 Y-5.606 E21.68592
G1 X-7.809 Y-5.132 E21.72355
G1 X-7.052 Y-4.768 E21.76116
G1 X-6.552 Y-4.614 E21.78459
G1 X-9.991 Y-4.614 E21.93857
G1 X-9.426 Y-4.868 E21.96631
G1 X-8.817 Y-5.315 E22.00014
G1 X-8.531 Y-5.632 E22.01926
G0 F9000 X-13.053 Y-4.857
G1 F1200 X-12.507 Y-4.614 E22.04602
G1 X-13.671 Y-4.614 E22.09814
G1 X-13.145 Y-4.923 E22.12545
G1 X-13.053 Y-4.857 E22.13052
G0 F9000 X-19.265 Y-4.791
G1 F1200 X-18.881 Y-4.614 E22.14945
G1 X-20.445 Y-4.614 E22.21948
G1 X-20.445 Y-5.384 E22.25396
G1 X-19.649 Y-5.384 E22.28960
G1 X-19.265 Y-4.791 E22.32124
G0 F9000 X-16.186 Y-4.808
G1 F1200 X-15.836 Y-5.013 E22.33940
G1 X-15.254 Y-4.787 E22.36736
G1 X-14.579 Y-4.735 E22.39767
G1 X-13.908 Y-4.891 E22.42852
G1 X-13.324 Y-5.234 E22.45884
G1 X-13.180 Y-5.391 E22.46838
G1 X-12.873 Y-5.169 E22.48534
G1 X-12.258 Y-4.896 E22.51547
G1 X-11.590 Y-4.754 E22.54605
G1 X-10.895 Y-4.755 E22.57717
G1 X-10.228 Y-4.901 E22.60774
G1 X-9.608 Y-5.180 E22.63819
G1 X-9.059 Y-5.582 E22.66866
G1 X-8.608 Y-6.083 E22.69884
G1 X-8.567 Y-6.155 E22.70255
G1 X-8.278 Y-5.887 E22.72020
G1 X-7.629 Y-5.444 E22.75538
G1 X-6.921 Y-5.103 E22.79057
G1 X-6.170 Y-4.872 E22.82575
G1 X-5.392 Y-4.755 E22.86098
G1 X-4.607 Y-4.755 E22.89613
G1 X-3.829 Y-4.872 E22.93136
G1 X-3.078 Y-5.103 E22.96654
G1 X-2.369 Y-5.444 E23.00176
G1 X-1.720 Y-5.888 E23.03697
G1 X-1.144 Y-6.422 E23.07214
G1 X-0.654 Y-7.037 E23.10735
G1 X-0.262 Y-7.717 E23.14250
G1 X0.026 Y-8.448 E23.17768
G1 X0.212 Y-9.262 E23.21507
G1 X0.212 Y-9.370 E23.21990
G1 X0.257 Y-9.951 E23.24600
G1 X0.257 Y-10.058 E23.25079
G1 X0.201 Y-10.785 E23.28344
G1 X0.026 Y-11.551 E23.31862
G1 X-0.262 Y-12.282 E23.35380
G1 X-0.654 Y-12.962 E23.38894
G1 X-1.144 Y-13.577 E23.42415
G1 X-1.720 Y-14.111 E23.45932
G1 X-2.369 Y-14.555 E23.49453
G1 X-3.078 Y-14.896 E23.52976
G1 X-3.829 Y-15.127 E23.56494
G1 X-4.607 Y-15.244 E23.60017
G1 X-5.392 Y-15.244 E23.63532
G1 X-6.103 Y-15.137 E23.66751
G1 X-6.103 Y-15.744 E23.69469
G1 X-3.195 Y-15.744 E23.82490
G1 X-3.163 Y-17.025 E23.88228
G1 X-3.163 Y-17.744 E23.91447
G1 X-0.255 Y-17.744 E24.04468
G1 X-0.223 Y-19.025 E24.10206
G1 X-0.223 Y-19.744 E24.13425
G1 X1.736 Y-19.744 E24.22197
G1 X1.736 Y-21.744 E24.31152
G1 X3.696 Y-21.744 E24.39929
G1 X3.696 Y-23.744 E24.48884
G1 X3.744 Y-23.744 E24.49099
G1 X3.744 Y-19.744 E24.67009
G1 X23.744 Y-19.744 E25.56562
G1 X23.744 Y-18.256 E25.63225
G1 X3.744 Y-18.256 E26.52778
G1 X3.744 Y-1.993 E27.25598
G1 X23.744 Y-1.993 E28.15151
G1 X23.744 Y3.744 E28.40839
G1 X19.744 Y3.744 E28.58750
G1 X19.744 Y23.744 E29.48303
G1 X18.256 Y23.744 E29.54965
G1 X18.256 Y3.744 E30.44518
G1 X1.994 Y3.744 E31.17334
G1 X1.994 Y23.744 E32.06887
G1 X-15.744 Y23.744 E32.86311
G1 X-15.744 Y21.256 E32.97451
G1 X-13.744 Y21.256 E33.06407
G1 X-13.744 Y18.256 E33.19840
G1 X-11.744 Y18.256 E33.28795
G1 X-11.744 Y15.256 E33.42228
G1 X-9.744 Y15.256 E33.51183
G1 X-9.744 Y12.256 E33.64616
G1 X-7.743 Y12.256 E33.73576
G1 X-7.743 Y9.256 E33.87009
G1 X-5.743 Y9.256 E33.95964
G1 X-5.743 Y6.256 E34.09397
G1 X-3.743 Y6.256 E34.18352
G1 X-3.743 Y3.256 E34.31785
G1 X-1.743 Y3.256 E34.40741
G1 X-1.743 Y0.257 E34.54169
G1 X0.257 Y0.257 E34.63124
G1 X0.257 Y-4.255 E34.83327
G1 X-20.804 Y-4.255 E35.77631
G1 X-20.804 Y-5.743 E35.84294
G1 X-19.453 Y-5.743 E35.90343
G1 X-19.020 Y-5.073 E35.93915
G1 X-18.221 Y-4.705 E35.97854
G1 X-17.348 Y-4.835 E36.01806
G1 X-17.328 Y-4.852 E36.01924
G1 X-16.930 Y-4.723 E36.03797
G1 X-16.186 Y-4.808 E36.07150
G0 F9000 X-17.285 Y-5.576
G0 X-18.539 Y-5.628
G0 X-18.791 Y-6.479
G0 X-18.117 Y-7.065
G0 X-16.421 Y-7.514
G0 X-15.102 Y-8.520
G0 X-14.584 Y-9.265
G1 F1200 X-14.924 Y-9.237 E36.08678
G1 X-14.924 Y-9.743 E36.10943
G1 X-13.990 Y-9.743 E36.15125
G1 X-14.234 Y-9.317 E36.17324
G1 X-14.274 Y-9.194 E36.17903
G1 X-14.584 Y-9.265 E36.19327
G0 F9000 X-11.604 Y-11.244
G1 F1200 X-11.984 Y-11.161 E36.21068
G1 X-11.984 Y-11.743 E36.23674
G1 X-9.949 Y-11.743 E36.32786
G1 X-10.025 Y-11.551 E36.33711
G1 X-10.138 Y-11.057 E36.35980
G1 X-10.240 Y-11.103 E36.36481
G1 X-10.909 Y-11.245 E36.39543
G1 X-11.604 Y-11.244 E36.42655
G0 F9000 X-9.811 Y-12.497
G0 X-8.855 Y-13.577
G1 F1200 X-9.043 Y-13.341 E36.44006
G1 X-9.043 Y-13.744 E36.45811
G1 X-8.675 Y-13.744 E36.47459
G1 X-8.855 Y-13.577 E36.48558
G0 F9000 X-9.402 Y-13.028
G1 F1200 X-9.403 Y-14.103 E36.53372
G1 X-7.654 Y-14.103 E36.61203
G1 X-8.054 Y-13.830 E36.63371
G1 X-8.591 Y-13.332 E36.66651
G1 X-9.047 Y-12.759 E36.69930
G1 X-9.413 Y-12.126 E36.73204
G1 X-9.681 Y-11.445 E36.76481
G1 X-9.852 Y-10.697 E36.79916
G1 X-9.858 Y-10.539 E36.80624
G1 X-10.352 Y-10.760 E36.83048
G1 X-10.947 Y-10.886 E36.85771
G1 X-11.565 Y-10.885 E36.88538
G1 X-12.157 Y-10.756 E36.91251
G1 X-12.343 Y-10.672 E36.92165
G1 X-12.343 Y-12.102 E36.98568
G1 X-9.425 Y-12.102 E37.11634
G1 X-9.402 Y-13.028 E37.15781
G0 F9000 X-6.871 Y-14.498
G0 X-6.462 Y-15.029
G1 F1200 X-6.463 Y-16.103 E37.20590
G1 X-3.545 Y-16.103 E37.33656
G1 X-3.522 Y-17.029 E37.37804
G1 X-3.523 Y-18.103 E37.42613
G1 X-0.605 Y-18.103 E37.55678
G1 X-0.582 Y-19.029 E37.59826
G1 X-0.583 Y-20.103 E37.64635
G1 X1.377 Y-20.103 E37.73411
G1 X1.377 Y-22.103 E37.82366
G1 X3.337 Y-22.103 E37.91143
G1 X3.337 Y-24.103 E38.00098
G1 X24.103 Y-24.103 E38.93081
G1 X24.103 Y24.103 E41.08930
G1 X-24.103 Y24.103 E43.24779
G1 X-24.103 Y-4.102 E44.51071
G1 X-21.163 Y-4.102 E44.64236
G1 X-21.163 Y-6.102 E44.73191
G1 X-19.134 Y-6.102 E44.82276
G1 X-19.133 Y-5.909 E44.83140
G1 X-18.775 Y-5.355 E44.86094
G1 X-18.168 Y-5.075 E44.89087
G1 X-17.504 Y-5.174 E44.92093
G1 X-17.410 Y-5.256 E44.92652
G1 X-16.893 Y-5.089 E44.95084
G1 X-16.302 Y-5.156 E44.97747
G1 X-15.818 Y-5.441 E45.00262
G1 X-15.695 Y-5.344 E45.00964
G1 X-15.173 Y-5.141 E45.03472
G1 X-14.606 Y-5.097 E45.06018
G1 X-14.042 Y-5.228 E45.08611
G1 X-13.552 Y-5.517 E45.11158
G1 X-13.222 Y-5.876 E45.13341
G1 X-13.190 Y-5.841 E45.13554
G1 X-12.693 Y-5.482 E45.16299
G1 X-12.147 Y-5.239 E45.18975
G1 X-11.552 Y-5.113 E45.21698
G1 X-10.934 Y-5.114 E45.24466
G1 X-10.341 Y-5.244 E45.27184
G1 X-9.790 Y-5.492 E45.29889
G1 X-9.301 Y-5.850 E45.32603
G1 X-8.900 Y-6.295 E45.35285
G1 X-8.647 Y-6.737 E45.37566
G1 X-8.591 Y-6.667 E45.37967
G1 X-8.054 Y-6.169 E45.41246
G1 X-7.449 Y-5.756 E45.44526
G1 X-6.789 Y-5.439 E45.47805
G1 X-6.090 Y-5.223 E45.51081
G1 X-5.365 Y-5.114 E45.54363
G1 X-4.634 Y-5.114 E45.57637
G1 X-3.909 Y-5.223 E45.60919
G1 X-3.210 Y-5.439 E45.64195
G1 X-2.549 Y-5.756 E45.67478
G1 X-1.945 Y-6.169 E45.70754
G1 X-1.408 Y-6.667 E45.74033
G1 X-0.952 Y-7.240 E45.77312
G1 X-0.586 Y-7.873 E45.80586
G1 X-0.318 Y-8.554 E45.83863
G1 X-0.147 Y-9.302 E45.87299
G1 X-0.147 Y-9.384 E45.87666
G1 X-0.102 Y-9.965 E45.90275
G1 X-0.102 Y-10.044 E45.90629
G1 X-0.155 Y-10.731 E45.93714
G1 X-0.318 Y-11.445 E45.96994
G1 X-0.586 Y-12.126 E46.00271
G1 X-0.952 Y-12.759 E46.03545
G1 X-1.408 Y-13.332 E46.06824
G1 X-1.945 Y-13.830 E46.10103
G1 X-2.549 Y-14.243 E46.13379
G1 X-3.210 Y-14.560 E46.16662
G1 X-3.909 Y-14.776 E46.19938
G1 X-4.634 Y-14.885 E46.23220
G1 X-5.365 Y-14.885 E46.26494
G1 X-6.090 Y-14.776 E46.29776
G1 X-6.471 Y-14.658 E46.31562
G1 X-6.462 Y-15.029 E46.33224
G0 F9000 X-13.240 Y-10.102
G1 F1200 X-13.599 Y-9.704 E46.35624
G1 X-13.904 Y-9.171 E46.38374
G1 X-14.036 Y-8.765 E46.40285
G1 X-14.052 Y-8.774 E46.40367
G1 X-14.610 Y-8.902 E46.42931
G1 X-15.181 Y-8.855 E46.45496
G1 X-15.283 Y-8.815 E46.45987
G1 X-15.283 Y-10.102 E46.51750
G1 X-13.240 Y-10.102 E46.60897
G0 F9000 X-16.899 Y-7.909
G1 F1200 X-17.466 Y-7.723 E46.63569
G1 X-17.845 Y-7.376 E46.65870
G1 X-18.170 Y-7.423 E46.67341
G1 X-18.223 Y-7.399 E46.67601
G1 X-18.223 Y-8.102 E46.70749
G1 X-16.280 Y-8.102 E46.79449
G1 X-16.443 Y-7.861 E46.80752
G1 X-16.899 Y-7.909 E46.82805
G0 F9000 X-18.586 Y-6.940
G0 X-18.620 Y-6.499
G0 X-21.560 Y-4.499
G0 X-23.897 Y-3.896
G1 F1200 X-23.897 Y23.897 E48.07252
G1 X-16.103 Y23.897 E48.42151
G1 X-16.103 Y20.897 E48.55584
G1 X-14.103 Y20.897 E48.64539
G1 X-14.103 Y17.897 E48.77972
G1 X-12.103 Y17.897 E48.86927
G1 X-12.103 Y14.897 E49.00360
G1 X-10.103 Y14.897 E49.09315
G1 X-10.103 Y11.897 E49.22748
G1 X-8.102 Y11.897 E49.31708
G1 X-8.102 Y8.897 E49.45141
G1 X-6.102 Y8.897 E49.54096
G1 X-6.102 Y5.897 E49.67529
G1 X-4.102 Y5.897 E49.76485
G1 X-4.102 Y2.897 E49.89918
G1 X-2.102 Y2.897 E49.98873
G1 X-2.102 Y-0.102 E50.12301
G1 X-0.102 Y-0.102 E50.21257
G1 X-0.102 Y-3.896 E50.38245
G1 X-23.897 Y-3.896 E51.44790
G0 F9000 X-0.499 Y-3.499
G0 X-0.499 Y-0.499
G0 X-2.499 Y2.500
G0 X2.353 Y4.103
G1 F1200 X2.353 Y23.897 E52.33421
G1 X13.897 Y23.897 E52.85111
G1 X13.897 Y4.103 E53.73741
G1 X2.353 Y4.103 E54.25431
G0 F9000 X14.103 Y4.103
G1 F1200 X14.103 Y23.897 E55.14062
G1 X17.897 Y23.897 E55.31050
G1 X17.897 Y4.103 E56.19681
G1 X14.103 Y4.103 E56.36669
G0 F9000 X20.103 Y4.103
G1 F1200 X20.103 Y23.897 E57.25299
G1 X23.897 Y23.897 E57.42287
G1 X23.897 Y4.103 E58.30918
G1 X20.103 Y4.103 E58.47906
G0 F9000 X23.897 Y-2.352
G1 F1200 X23.897 Y-13.896 E58.99596
G1 X4.103 Y-13.896 E59.88227
G1 X4.103 Y-2.352 E60.39917
G1 X23.897 Y-2.352 E61.28547
G0 F9000 X23.897 Y-14.103
G1 F1200 X23.897 Y-17.897 E61.45535
G1 X4.103 Y-17.897 E62.34166
G1 X4.103 Y-14.103 E62.51154
G1 X23.897 Y-14.103 E63.39784
G0 F9000 X23.897 Y-20.103
G1 F1200 X23.897 Y-23.897 E63.56773
G1 X4.103 Y-23.897 E64.45403
G1 X4.103 Y-20.103 E64.62391
G1 X23.897 Y-20.103 E65.51022
G0 F9000 X23.538 Y-20.462
G1 F1200 X23.538 Y-23.538 E65.64795
G1 X4.462 Y-23.538 E66.50211
G1 X4.462 Y-20.462 E66.63984
G1 X23.538 Y-20.462 E67.49400
G0 F9000 X23.538 Y-17.538
G1 F1200 X4.462 Y-17.538 E68.34815
G1 X4.462 Y-14.462 E68.48588
G1 X23.538 Y-14.462 E69.34004
G1 X23.538 Y-17.538 E69.47777
G0 F9000 X23.538 Y-13.537
G1 F1200 X4.462 Y-13.537 E70.33193
G1 X4.462 Y-2.711 E70.81668
G1 X23.538 Y-2.711 E71.67083
G1 X23.538 Y-13.537 E72.15558
G0 F9000 X24.462 Y-24.462
G1 F1200 X24.462 Y24.462 E74.34623
G1 X-24.462 Y24.462 E76.53687
G1 X-24.462 Y-4.461 E77.83194
G1 X-21.522 Y-4.461 E77.96358
G1 X-21.522 Y-6.461 E78.05313
G1 X-18.778 Y-6.461 E78.17600
G1 X-18.775 Y-6.017 E78.19588
G1 X-18.530 Y-5.638 E78.21609
G1 X-18.114 Y-5.446 E78.23660
G1 X-17.660 Y-5.514 E78.25716
G1 X-17.421 Y-5.721 E78.27132
G1 X-17.277 Y-5.590 E78.28003
G1 X-16.857 Y-5.454 E78.29980
G1 X-16.418 Y-5.504 E78.31959
G1 X-16.044 Y-5.724 E78.33901
G1 X-15.881 Y-5.948 E78.35142
G1 X-15.515 Y-5.659 E78.37230
G1 X-15.093 Y-5.495 E78.39257
G1 X-14.634 Y-5.459 E78.41319
G1 X-14.177 Y-5.566 E78.43420
G1 X-13.780 Y-5.799 E78.45482
G1 X-13.471 Y-6.136 E78.47529
G1 X-13.297 Y-6.496 E78.49319
G1 X-12.949 Y-6.110 E78.51646
G1 X-12.513 Y-5.795 E78.54055
G1 X-12.035 Y-5.583 E78.56396
G1 X-11.515 Y-5.472 E78.58777
G1 X-10.973 Y-5.473 E78.61204
G1 X-10.454 Y-5.586 E78.63582
G1 X-9.971 Y-5.804 E78.65955
G1 X-9.543 Y-6.118 E78.68332
G1 X-9.193 Y-6.507 E78.70675
G1 X-8.925 Y-6.974 E78.73086
G1 X-8.765 Y-7.468 E78.75411
G1 X-8.750 Y-7.442 E78.75545
G1 X-8.328 Y-6.912 E78.78579
G1 X-7.829 Y-6.450 E78.81624
G1 X-7.269 Y-6.068 E78.84659
G1 X-6.658 Y-5.774 E78.87695
G1 X-6.010 Y-5.574 E78.90732
G1 X-5.338 Y-5.473 E78.93775
G1 X-4.661 Y-5.473 E78.96806
G1 X-3.989 Y-5.574 E78.99849
G1 X-3.341 Y-5.774 E79.02885
G1 X-2.729 Y-6.068 E79.05925
G1 X-2.169 Y-6.450 E79.08961
G1 X-1.671 Y-6.912 E79.12002
G1 X-1.249 Y-7.442 E79.15036
G1 X-0.910 Y-8.030 E79.18075
G1 X-0.662 Y-8.661 E79.21111
G1 X-0.506 Y-9.342 E79.24239
G1 X-0.506 Y-9.399 E79.24494
G1 X-0.461 Y-9.978 E79.27095
G1 X-0.461 Y-10.031 E79.27332
G1 X-0.511 Y-10.677 E79.30233
G1 X-0.662 Y-11.338 E79.33269
G1 X-0.910 Y-11.969 E79.36305
G1 X-1.249 Y-12.557 E79.39344
G1 X-1.671 Y-13.087 E79.42377
G1 X-2.169 Y-13.549 E79.45419
G1 X-2.729 Y-13.931 E79.48454
G1 X-3.341 Y-14.225 E79.51495
G1 X-3.989 Y-14.425 E79.54531
G1 X-4.661 Y-14.526 E79.57574
G1 X-5.338 Y-14.526 E79.60605
G1 X-6.010 Y-14.425 E79.63648
G1 X-6.658 Y-14.225 E79.66685
G1 X-7.269 Y-13.931 E79.69721
G1 X-7.829 Y-13.549 E79.72756
G1 X-8.328 Y-13.087 E79.75801
G1 X-8.750 Y-12.557 E79.78835
G1 X-9.089 Y-11.969 E79.81874
G1 X-9.337 Y-11.338 E79.84909
G1 X-9.493 Y-10.657 E79.88038
G1 X-9.493 Y-10.599 E79.88297
G1 X-9.537 Y-10.019 E79.90902
G1 X-9.529 Y-9.866 E79.91588
G1 X-9.550 Y-9.889 E79.91727
G1 X-9.987 Y-10.204 E79.94139
G1 X-10.464 Y-10.416 E79.96477
G1 X-10.984 Y-10.527 E79.98858
G1 X-11.526 Y-10.526 E80.01284
G1 X-12.044 Y-10.413 E80.03658
G1 X-12.529 Y-10.195 E80.06039
G1 X-12.956 Y-9.881 E80.08413
G1 X-13.306 Y-9.492 E80.10756
G1 X-13.574 Y-9.025 E80.13167
G1 X-13.735 Y-8.528 E80.15506
G1 X-13.771 Y-8.190 E80.17028
G1 X-13.787 Y-8.207 E80.17132
G1 X-14.185 Y-8.436 E80.19188
G1 X-14.636 Y-8.540 E80.21261
G1 X-15.099 Y-8.502 E80.23341
G1 X-15.521 Y-8.338 E80.25368
G1 X-15.883 Y-8.049 E80.27442
G1 X-16.140 Y-7.668 E80.29500
G1 X-16.228 Y-7.384 E80.30831
G1 X-16.425 Y-7.498 E80.31851
G1 X-16.860 Y-7.544 E80.33809
G1 X-17.281 Y-7.406 E80.35793
G1 X-17.599 Y-7.115 E80.37723
G1 X-17.659 Y-6.982 E80.38376
G1 X-18.116 Y-7.052 E80.40447
G1 X-18.530 Y-6.861 E80.42488
G1 X-18.582 Y-6.780 E80.42919
G1 X-18.582 Y-8.461 E80.50446
G1 X-15.642 Y-8.461 E80.63610
G1 X-15.642 Y-10.461 E80.72566
