;Generated with Cura_SteamEngine 14.09
G28
M104 S210
M190 S50
M109 S210
; BEGINNING OF HEAD MOVEMENT WARNING TONES
M120 S4 P10
G4 P40
M120 S4 P10
G4 P40
M120 S4 P10
G4 P40
M120 S4 P10
G4 P40
M120 S4 P10
G4 P40
M117 KEEP HANDS AWAY
G4 S3
; END OF HEAD WARNING TONES
;Layer count: 50
;LAYER:0
M107
G0 F9000 X-10.540 Y-18.179 Z0.300
;TYPE:SKIRT
G1 F1200 X-10.541 Y-20.179 E0.08955 Z0.37 S1
G1 X-7.600 Y-20.179 E0.22124 Z0.365256291771 S1
G1 X-7.601 Y-22.179 E0.31079 Z0.365207879197 S1
G1 X-4.660 Y-22.179 E0.44248 Z0.364671220227 S1
G1 X-4.661 Y-24.179 E0.53203 Z0.37 S1
G1 X-2.699 Y-24.179 E0.61989 Z0.368853722857 S1
G1 X-2.699 Y-26.179 E0.70944 Z0.37 S1
G1 X-0.739 Y-26.179 E0.79720 Z0.36 S1
G1 X-0.739 Y-28.179 E0.88675 Z0.368290647867 S1
G1 X28.179 Y-28.179 E2.18160 Z0.355654197236 S1
G1 X28.179 Y28.179 E4.70511 Z0.36 S1
G1 X-28.179 Y28.179 E7.22862 Z0.334345802764 S1
G1 X-28.179 Y-8.178 E8.85656 Z0.345816063496 S1
G1 X-25.239 Y-8.178 E8.98820 Z0.34433456884 S1
G1 X-25.239 Y-10.178 E9.07776 Z0.344465743842 S1
G1 X-22.299 Y-10.178 E9.20940 Z0.345412651684 S1
G1 X-22.299 Y-12.178 E9.29895 Z0.355660530927 S1
G1 X-19.359 Y-12.178 E9.43059 Z0.354536583087 S1
G1 X-19.359 Y-14.178 E9.52015 Z0.354639115397 S1
G1 X-16.419 Y-14.178 E9.65179 Z0.355207536079 S1
G1 X-16.419 Y-16.178 E9.74134 Z0.355166886909 S1
G1 X-13.480 Y-16.178 E9.87294 Z0.36 S1
G1 X-13.481 Y-18.179 E9.96254 Z0.36 S1
G1 X-10.540 Y-18.179 E10.09423 Z0.36 S1
G1 F2400 E2.09423
G0 F9000 X-2.804 Y-17.020 Z0.37 S1
;TYPE:WALL-INNER
G1 F2400 E10.09423
G1 F1200 X-2.804 Y-17.385 E10.11057 Z0.37 S1
G1 X0.095 Y-17.385 E10.24038 Z0.36 S1
G1 X0.136 Y-19.020 E10.31361 Z0.363414505353 S1
G1 X0.136 Y-19.385 E10.32995 Z0.364619810321 S1
G1 X2.095 Y-19.385 E10.41767 Z0.37 S1
G1 X2.095 Y-21.385 E10.50722 Z0.37 S1
G1 X3.385 Y-21.385 E10.56498 Z0.36829193844 S1
G1 X3.385 Y-19.385 E10.65454 Z0.37 S1
G1 X23.385 Y-19.385 E11.55007 Z0.36 S1
G1 X23.385 Y-18.615 E11.58454 Z0.357390325379 S1
G1 X3.385 Y-18.615 E12.48007 Z0.37 S1
G1 X3.385 Y-1.634 E13.24042 Z0.37 S1
G1 X23.385 Y-1.634 E14.13595 Z0.34538200956 S1
G1 X23.385 Y3.385 E14.36068 Z0.35 S1
G1 X19.385 Y3.385 E14.53979 Z0.355359517813 S1
G1 X19.385 Y23.385 E15.43532 Z0.374672070242 S1
G1 X18.615 Y23.385 E15.46980 Z0.372609674621 S1
G1 X18.615 Y3.385 E16.36533 Z0.357690333177 S1
G1 X1.635 Y3.385 E17.12563 Z0.365421987618 S1
G1 X1.635 Y23.385 E18.02116 Z0.37 S1
G1 X-15.385 Y23.385 E18.78325 Z0.357690333177 S1
G1 X-15.385 Y21.615 E18.86251 Z0.352309666823 S1
G1 X-13.385 Y21.615 E18.95206 Z0.35 S1
G1 X-13.385 Y18.615 E19.08639 Z0.355327929758 S1
G1 X-11.385 Y18.615 E19.17594 Z0.36 S1
G1 X-11.385 Y15.615 E19.31027 Z0.36 S1
G1 X-9.385 Y15.615 E19.39983 Z0.36 S1
G1 X-9.385 Y12.615 E19.53416 Z0.352309666823 S1
G1 X-7.384 Y12.615 E19.62375 Z0.355330777103 S1
G1 X-7.384 Y9.615 E19.75808 Z0.355330777103 S1
G1 X-5.384 Y9.615 E19.84764 Z0.36 S1
G1 X-5.384 Y6.615 E19.98196 Z0.36 S1
G1 X-3.384 Y6.615 E20.07152 Z0.36 S1
G1 X-3.384 Y3.615 E20.20585 Z0.367691514171 S1
G1 X-1.384 Y3.615 E20.29540 Z0.364669222897 S1
G1 X-1.384 Y0.616 E20.42968 Z0.364669378317 S1
G1 X0.616 Y0.616 E20.51924 Z0.36261337232 S1
G1 X0.616 Y-4.614 E20.75342 Z0.37 S1
G1 X-3.447 Y-4.614 E20.93534 Z0.364651144879 S1
G1 X-2.947 Y-4.768 E20.95877 Z0.364107817187 S1
G1 X-2.189 Y-5.132 E20.99642 Z0.363424419467 S1
G1 X-1.496 Y-5.606 E21.03402 Z0.365012472783 S1
G1 X-0.880 Y-6.177 E21.07163 Z0.367032647815 S1
G1 X-0.357 Y-6.834 E21.10923 Z0.367075842762 S1
G1 X0.063 Y-7.561 E21.14682 Z0.364797025306 S1
G1 X0.370 Y-8.342 E21.18440 Z0.362414932066 S1
G1 X0.571 Y-9.221 E21.22477 Z0.362006601312 S1
G1 X0.571 Y-9.355 E21.23077 Z0.362150058982 S1
G1 X0.616 Y-9.937 E21.25691 Z0.36 S1
G1 X0.616 Y-10.072 E21.26295 Z0.36 S1
G1 X0.557 Y-10.839 E21.29740 Z0.36 S1
G1 X0.370 Y-11.657 E21.33497 Z0.36159822715 S1
G1 X0.063 Y-12.438 E21.37255 Z0.36 S1
G1 X-0.357 Y-13.165 E21.41014 Z0.36 S1
G1 X-0.880 Y-13.822 E21.44774 Z0.36 S1
G1 X-1.496 Y-14.393 E21.48535 Z0.364988542846 S1
G1 X-2.189 Y-14.867 E21.52294 Z0.367274067174 S1
G1 X-2.947 Y-15.231 E21.56060 Z0.37 S1
G1 X-3.447 Y-15.385 E21.58402 Z0.37 S1
G1 X-2.845 Y-15.385 E21.61098 Z0.37 S1
G1 X-2.804 Y-17.020 E21.68421 Z0.37 S1
G0 F9000 X-0.491 Y-10.679 Z0.36 S1
G0 X-0.642 Y-8.655 Z0.362342040664 S1
G0 X-1.657 Y-6.898 Z0.364615566211 S1
G0 X-3.335 Y-5.755 Z0.36 S1
G0 X-5.339 Y-5.453 Z0.36 S1
G0 X-7.279 Y-6.050 Z0.36 S1
G0 X-8.531 Y-5.632 Z0.36 S1
G1 F1200 X-8.503 Y-5.606 E21.68592 Z0.36 S1
G1 X-7.809 Y-5.132 E21.72355 Z0.36 S1
G1 X-7.052 Y-4.768 E21.76116 Z0.36 S1
G1 X-6.552 Y-4.614 E21.78459 Z0.36 S1
G1 X-9.991 Y-4.614 E21.93857 Z0.36 S1
G1 X-9.426 Y-4.868 E21.96631 Z0.36 S1
G1 X-8.817 Y-5.315 E22.00014 Z0.36 S1
G1 X-8.531 Y-5.632 E22.01926 Z0.36 S1
G0 F9000 X-13.053 Y-4.857 Z0.35 S1
G1 F1200 X-12.507 Y-4.614 E22.04602 Z0.35 S1
G1 X-13.671 Y-4.614 E22.09814 Z0.345212582567 S1
G1 X-13.145 Y-4.923 E22.12545 Z0.35 S1
G1 X-13.053 Y-4.857 E22.13052 Z0.35 S1
G0 F9000 X-19.265 Y-4.791 Z0.345472061248 S1
G1 F1200 X-18.881 Y-4.614 E22.14945 Z0.34528222433 S1
G1 X-20.445 Y-4.614 E22.21948 Z0.34 S1
G1 X-20.445 Y-5.384 E22.25396 Z0.34 S1
G1 X-19.649 Y-5.384 E22.28960 Z0.3445755281 S1
G1 X-19.265 Y-4.791 E22.32124 Z0.345472061248 S1
G0 F9000 X-16.186 Y-4.808 Z0.345625393641 S1
G1 F1200 X-15.836 Y-5.013 E22.33940 Z0.346275816037 S1
G1 X-15.254 Y-4.787 E22.36736 Z0.345929045449 S1
G1 X-14.579 Y-4.735 E22.39767 Z0.34572490283 S1
G1 X-13.908 Y-4.891 E22.42852 Z0.345838580846 S1
G1 X-13.324 Y-5.234 E22.45884 Z0.35 S1
G1 X-13.180 Y-5.391 E22.46838 Z0.35 S1
G1 X-12.873 Y-5.169 E22.48534 Z0.35 S1
G1 X-12.258 Y-4.896 E22.51547 Z0.35 S1
G1 X-11.590 Y-4.754 E22.54605 Z0.35 S1
G1 X-10.895 Y-4.755 E22.57717 Z0.35 S1
G1 X-10.228 Y-4.901 E22.60774 Z0.355585532943 S1
G1 X-9.608 Y-5.180 E22.63819 Z0.36 S1
G1 X-9.059 Y-5.582 E22.66866 Z0.36 S1
G1 X-8.608 Y-6.083 E22.69884 Z0.36 S1
G1 X-8.567 Y-6.155 E22.70255 Z0.36 S1
G1 X-8.278 Y-5.887 E22.72020 Z0.36 S1
G1 X-7.629 Y-5.444 E22.75538 Z0.36 S1
G1 X-6.921 Y-5.103 E22.79057 Z0.36 S1
G1 X-6.170 Y-4.872 E22.82575 Z0.36 S1
G1 X-5.392 Y-4.755 E22.86098 Z0.36 S1
G1 X-4.607 Y-4.755 E22.89613 Z0.36 S1
G1 X-3.829 Y-4.872 E22.93136 Z0.364060864555 S1
G1 X-3.078 Y-5.103 E22.96654 Z0.362996457837 S1
G1 X-2.369 Y-5.444 E23.00176 Z0.362568453401 S1
G1 X-1.720 Y-5.888 E23.03697 Z0.364270820775 S1
G1 X-1.144 Y-6.422 E23.07214 Z0.366095227485 S1
G1 X-0.654 Y-7.037 E23.10735 Z0.366279292344 S1
G1 X-0.262 Y-7.717 E23.14250 Z0.364298511363 S1
G1 X0.026 Y-8.448 E23.17768 Z0.361841579508 S1
G1 X0.212 Y-9.262 E23.21507 Z0.36 S1
G1 X0.212 Y-9.370 E23.21990 Z0.36 S1
G1 X0.257 Y-9.951 E23.24600 Z0.36 S1
G1 X0.257 Y-10.058 E23.25079 Z0.36 S1
G1 X0.201 Y-10.785 E23.28344 Z0.36 S1
G1 X0.026 Y-11.551 E23.31862 Z0.36 S1
G1 X-0.262 Y-12.282 E23.35380 Z0.36 S1
G1 X-0.654 Y-12.962 E23.38894 Z0.36 S1
G1 X-1.144 Y-13.577 E23.42415 Z0.36 S1
G1 X-1.720 Y-14.111 E23.45932 Z0.36554044285 S1
G1 X-2.369 Y-14.555 E23.49453 Z0.367573871492 S1
G1 X-3.078 Y-14.896 E23.52976 Z0.37 S1
G1 X-3.829 Y-15.127 E23.56494 Z0.37 S1
G1 X-4.607 Y-15.244 E23.60017 Z0.37 S1
G1 X-5.392 Y-15.244 E23.63532 Z0.37 S1
G1 X-6.103 Y-15.137 E23.66751 Z0.369435487897 S1
G1 X-6.103 Y-15.744 E23.69469 Z0.367504205478 S1
G1 X-3.195 Y-15.744 E23.82490 Z0.37 S1
G1 X-3.163 Y-17.025 E23.88228 Z0.37 S1
G1 X-3.163 Y-17.744 E23.91447 Z0.37 S1
G1 X-0.255 Y-17.744 E24.04468 Z0.36 S1
G1 X-0.223 Y-19.025 E24.10206 Z0.363454530384 S1
G1 X-0.223 Y-19.744 E24.13425 Z0.365795289165 S1
G1 X1.736 Y-19.744 E24.22197 Z0.37 S1
G1 X1.736 Y-21.744 E24.31152 Z0.37 S1
G1 X3.696 Y-21.744 E24.39929 Z0.366985552213 S1
G1 X3.696 Y-23.744 E24.48884 Z0.36 S1
G1 X3.744 Y-23.744 E24.49099 Z0.36 S1
G1 X3.744 Y-19.744 E24.67009 Z0.37 S1
G1 X23.744 Y-19.744 E25.56562 Z0.36 S1
G1 X23.744 Y-18.256 E25.63225 Z0.358838858383 S1
G1 X3.744 Y-18.256 E26.52778 Z0.37 S1
G1 X3.744 Y-1.993 E27.25598 Z0.37 S1
G1 X23.744 Y-1.993 E28.15151 Z0.346591559286 S1
G1 X23.744 Y3.744 E28.40839 Z0.35 S1
G1 X19.744 Y3.744 E28.58750 Z0.354350025218 S1
G1 X19.744 Y23.744 E29.48303 Z0.375789724374 S1
G1 X18.256 Y23.744 E29.54965 Z0.371161141617 S1
G1 X18.256 Y3.744 E30.44518 Z0.36 S1
G1 X1.994 Y3.744 E31.17334 Z0.366297601749 S1
G1 X1.994 Y23.744 E32.06887 Z0.37 S1
G1 X-15.744 Y23.744 E32.86311 Z0.357426441796 S1
G1 X-15.744 Y21.256 E32.97451 Z0.35 S1
G1 X-13.744 Y21.256 E33.06407 Z0.35 S1
G1 X-13.744 Y18.256 E33.19840 Z0.354210275626 S1
G1 X-11.744 Y18.256 E33.28795 Z0.358838858383 S1
G1 X-11.744 Y15.256 E33.42228 Z0.36 S1
G1 X-9.744 Y15.256 E33.51183 Z0.36 S1
G1 X-9.744 Y12.256 E33.64616 Z0.35 S1
G1 X-7.743 Y12.256 E33.73576 Z0.354213507282 S1
G1 X-7.743 Y9.256 E33.87009 Z0.354213507282 S1
G1 X-5.743 Y9.256 E33.95964 Z0.36 S1
G1 X-5.743 Y6.256 E34.09397 Z0.36 S1
G1 X-3.743 Y6.256 E34.18352 Z0.36 S1
G1 X-3.743 Y3.256 E34.31785 Z0.367429574919 S1
G1 X-1.743 Y3.256 E34.40741 Z0.365786492718 S1
G1 X-1.743 Y0.257 E34.54169 Z0.365786314226 S1
G1 X0.257 Y0.257 E34.63124 Z0.361165486075 S1
G1 X0.257 Y-4.255 E34.83327 Z0.37 S1
G1 X-20.804 Y-4.255 E35.77631 Z0.34 S1
G1 X-20.804 Y-5.743 E35.84294 Z0.34 S1
G1 X-19.453 Y-5.743 E35.90343 Z0.345152194709 S1
G1 X-19.020 Y-5.073 E35.93915 Z0.346133311364 S1
G1 X-18.221 Y-4.705 E35.97854 Z0.345668550895 S1
G1 X-17.348 Y-4.835 E36.01806 Z0.345932771595 S1
G1 X-17.328 Y-4.852 E36.01924 Z0.345969479402 S1
G1 X-16.930 Y-4.723 E36.03797 Z0.345490205525 S1
G1 X-16.186 Y-4.808 E36.07150 Z0.345625393641 S1
G0 F9000 X-17.285 Y-5.576 Z0.35 S1
G0 X-18.539 Y-5.628 Z0.347916868597 S1
G0 X-18.791 Y-6.479 Z0.347096674211 S1
G0 X-18.117 Y-7.065 Z0.35 S1
G0 X-16.421 Y-7.514 Z0.35 S1
G0 X-15.102 Y-8.520 Z0.35 S1
G0 X-14.584 Y-9.265 Z0.35 S1
G1 F1200 X-14.924 Y-9.237 E36.08678 Z0.35 S1
G1 X-14.924 Y-9.743 E36.10943 Z0.35 S1
G1 X-13.990 Y-9.743 E36.15125 Z0.35 S1
G1 X-14.234 Y-9.317 E36.17324 Z0.35 S1
G1 X-14.274 Y-9.194 E36.17903 Z0.35 S1
G1 X-14.584 Y-9.265 E36.19327 Z0.35 S1
G0 F9000 X-11.604 Y-11.244 Z0.357275205014 S1
G1 F1200 X-11.984 Y-11.161 E36.21068 Z0.357203022285 S1
G1 X-11.984 Y-11.743 E36.23674 Z0.35914183044 S1
G1 X-9.949 Y-11.743 E36.32786 Z0.36 S1
G1 X-10.025 Y-11.551 E36.33711 Z0.36 S1
G1 X-10.138 Y-11.057 E36.35980 Z0.36 S1
G1 X-10.240 Y-11.103 E36.36481 Z0.36 S1
G1 X-10.909 Y-11.245 E36.39543 Z0.36 S1
G1 X-11.604 Y-11.244 E36.42655 Z0.357275205014 S1
G0 F9000 X-9.811 Y-12.497 Z0.36 S1
G0 X-8.855 Y-13.577 Z0.36 S1
G1 F1200 X-9.043 Y-13.341 E36.44006 Z0.36 S1
G1 X-9.043 Y-13.744 E36.45811 Z0.36 S1
G1 X-8.675 Y-13.744 E36.47459 Z0.36 S1
G1 X-8.855 Y-13.577 E36.48558 Z0.36 S1
G0 F9000 X-9.402 Y-13.028 Z0.36 S1
G1 F1200 X-9.403 Y-14.103 E36.53372 Z0.36 S1
G1 X-7.654 Y-14.103 E36.61203 Z0.364622658997 S1
G1 X-8.054 Y-13.830 E36.63371 Z0.36 S1
G1 X-8.591 Y-13.332 E36.66651 Z0.36 S1
G1 X-9.047 Y-12.759 E36.69930 Z0.36 S1
G1 X-9.413 Y-12.126 E36.73204 Z0.36 S1
G1 X-9.681 Y-11.445 E36.76481 Z0.36 S1
G1 X-9.852 Y-10.697 E36.79916 Z0.355494897857 S1
G1 X-9.858 Y-10.539 E36.80624 Z0.355097939451 S1
G1 X-10.352 Y-10.760 E36.83048 Z0.36 S1
G1 X-10.947 Y-10.886 E36.85771 Z0.355849103381 S1
G1 X-11.565 Y-10.885 E36.88538 Z0.356177896949 S1
G1 X-12.157 Y-10.756 E36.91251 Z0.355843815099 S1
G1 X-12.343 Y-10.672 E36.92165 Z0.355544502141 S1
G1 X-12.343 Y-12.102 E36.98568 Z0.358813826924 S1
G1 X-9.425 Y-12.102 E37.11634 Z0.36 S1
G1 X-9.402 Y-13.028 E37.15781 Z0.36 S1
G0 F9000 X-6.871 Y-14.498 Z0.366851219748 S1
G0 X-6.462 Y-15.029 Z0.36845752177 S1
G1 F1200 X-6.463 Y-16.103 E37.20590 Z0.366201126026 S1
G1 X-3.545 Y-16.103 E37.33656 Z0.37 S1
G1 X-3.522 Y-17.029 E37.37804 Z0.37 S1
G1 X-3.523 Y-18.103 E37.42613 Z0.368230368681 S1
G1 X-0.605 Y-18.103 E37.55678 Z0.362038265238 S1
G1 X-0.582 Y-19.029 E37.59826 Z0.363651746798 S1
G1 X-0.583 Y-20.103 E37.64635 Z0.36671042322 S1
G1 X1.377 Y-20.103 E37.73411 Z0.37 S1
G1 X1.377 Y-22.103 E37.82366 Z0.37 S1
G1 X3.337 Y-22.103 E37.91143 Z0.366255453197 S1
G1 X3.337 Y-24.103 E38.00098 Z0.36 S1
G1 X24.103 Y-24.103 E38.93081 Z0.360478450525 S1
G1 X24.103 Y24.103 E41.08930 Z0.369521549475 S1
G1 X-24.103 Y24.103 E43.24779 Z0.339521549475 S1
G1 X-24.103 Y-4.102 E44.51071 Z0.343680025953 S1
G1 X-21.163 Y-4.102 E44.64236 Z0.34 S1
G1 X-21.163 Y-6.102 E44.73191 Z0.340634365697 S1
G1 X-19.134 Y-6.102 E44.82276 Z0.346214032786 S1
G1 X-19.133 Y-5.909 E44.83140 Z0.346218564094 S1
G1 X-18.775 Y-5.355 E44.86094 Z0.346967450064 S1
G1 X-18.168 Y-5.075 E44.89087 Z0.346888958926 S1
G1 X-17.504 Y-5.174 E44.92093 Z0.346982850959 S1
G1 X-17.410 Y-5.256 E44.92652 Z0.34710629721 S1
G1 X-16.893 Y-5.089 E44.95084 Z0.35 S1
G1 X-16.302 Y-5.156 E44.97747 Z0.35 S1
G1 X-15.818 Y-5.441 E45.00262 Z0.35 S1
G1 X-15.695 Y-5.344 E45.00964 Z0.35 S1
G1 X-15.173 Y-5.141 E45.03472 Z0.347102571899 S1
G1 X-14.606 Y-5.097 E45.06018 Z0.346841157828 S1
G1 X-14.042 Y-5.228 E45.08611 Z0.35 S1
G1 X-13.552 Y-5.517 E45.11158 Z0.35 S1
G1 X-13.222 Y-5.876 E45.13341 Z0.35 S1
G1 X-13.190 Y-5.841 E45.13554 Z0.35 S1
G1 X-12.693 Y-5.482 E45.16299 Z0.35 S1
G1 X-12.147 Y-5.239 E45.18975 Z0.35 S1
G1 X-11.552 Y-5.113 E45.21698 Z0.35 S1
G1 X-10.934 Y-5.114 E45.24466 Z0.35394524435 S1
G1 X-10.341 Y-5.244 E45.27184 Z0.355421870957 S1
G1 X-9.790 Y-5.492 E45.29889 Z0.357071175638 S1
G1 X-9.301 Y-5.850 E45.32603 Z0.35889354088 S1
G1 X-8.900 Y-6.295 E45.35285 Z0.358968013018 S1
G1 X-8.647 Y-6.737 E45.37566 Z0.357370344364 S1
G1 X-8.591 Y-6.667 E45.37967 Z0.357516931918 S1
G1 X-8.054 Y-6.169 E45.41246 Z0.36 S1
G1 X-7.449 Y-5.756 E45.44526 Z0.36 S1
G1 X-6.789 Y-5.439 E45.47805 Z0.36 S1
G1 X-6.090 Y-5.223 E45.51081 Z0.36 S1
G1 X-5.365 Y-5.114 E45.54363 Z0.36 S1
G1 X-4.634 Y-5.114 E45.57637 Z0.36 S1
G1 X-3.909 Y-5.223 E45.60919 Z0.36 S1
G1 X-3.210 Y-5.439 E45.64195 Z0.361965896667 S1
G1 X-2.549 Y-5.756 E45.67478 Z0.361668411447 S1
G1 X-1.945 Y-6.169 E45.70754 Z0.363537002903 S1
G1 X-1.408 Y-6.667 E45.74033 Z0.365255907195 S1
G1 X-0.952 Y-7.240 E45.77312 Z0.365613977185 S1
G1 X-0.586 Y-7.873 E45.80586 Z0.363929272934 S1
G1 X-0.318 Y-8.554 E45.83863 Z0.361754805577 S1
G1 X-0.147 Y-9.302 E45.87299 Z0.36 S1
G1 X-0.147 Y-9.384 E45.87666 Z0.36 S1
G1 X-0.102 Y-9.965 E45.90275 Z0.36 S1
G1 X-0.102 Y-10.044 E45.90629 Z0.36 S1
G1 X-0.155 Y-10.731 E45.93714 Z0.36 S1
G1 X-0.318 Y-11.445 E45.96994 Z0.36 S1
G1 X-0.586 Y-12.126 E46.00271 Z0.361986930014 S1
G1 X-0.952 Y-12.759 E46.03545 Z0.363579236863 S1
G1 X-1.408 Y-13.332 E46.06824 Z0.364828697407 S1
G1 X-1.945 Y-13.830 E46.10103 Z0.37 S1
G1 X-2.549 Y-14.243 E46.13379 Z0.37 S1
G1 X-3.210 Y-14.560 E46.16662 Z0.37 S1
G1 X-3.909 Y-14.776 E46.19938 Z0.37 S1
G1 X-4.634 Y-14.885 E46.23220 Z0.37 S1
G1 X-5.365 Y-14.885 E46.26494 Z0.37 S1
G1 X-6.090 Y-14.776 E46.29776 Z0.36920034714 S1
G1 X-6.471 Y-14.658 E46.31562 Z0.368142779243 S1
G1 X-6.462 Y-15.029 E46.33224 Z0.36845752177 S1
G0 F9000 X-13.240 Y-10.102 Z0.35 S1
G1 F1200 X-13.599 Y-9.704 E46.35624 Z0.35 S1
G1 X-13.904 Y-9.171 E46.38374 Z0.35 S1
G1 X-14.036 Y-8.765 E46.40285 Z0.35 S1
G1 X-14.052 Y-8.774 E46.40367 Z0.35 S1
G1 X-14.610 Y-8.902 E46.42931 Z0.35 S1
G1 X-15.181 Y-8.855 E46.45496 Z0.35 S1
G1 X-15.283 Y-8.815 E46.45987 Z0.35 S1
G1 X-15.283 Y-10.102 E46.51750 Z0.35 S1
G1 X-13.240 Y-10.102 E46.60897 Z0.35 S1
G0 F9000 X-16.899 Y-7.909 Z0.35 S1
G1 F1200 X-17.466 Y-7.723 E46.63569 Z0.35 S1
G1 X-17.845 Y-7.376 E46.65870 Z0.35 S1
G1 X-18.170 Y-7.423 E46.67341 Z0.35 S1
G1 X-18.223 Y-7.399 E46.67601 Z0.35 S1
G1 X-18.223 Y-8.102 E46.70749 Z0.35 S1
G1 X-16.280 Y-8.102 E46.79449 Z0.35 S1
G1 X-16.443 Y-7.861 E46.80752 Z0.35 S1
G1 X-16.899 Y-7.909 E46.82805 Z0.35 S1
G0 F9000 X-18.586 Y-6.940 Z0.35 S1
G0 X-18.620 Y-6.499 Z0.347534199985 S1
G0 X-21.560 Y-4.499 Z0.34 S1
G0 X-23.897 Y-3.896 Z0.342997921324 S1
G1 F1200 X-23.897 Y23.897 E48.07252 Z0.340478450525 S1
G1 X-16.103 Y23.897 E48.42151 Z0.356316660038 S1
G1 X-16.103 Y20.897 E48.55584 Z0.35 S1
G1 X-14.103 Y20.897 E48.64539 Z0.35 S1
G1 X-14.103 Y17.897 E48.77972 Z0.35300122893 S1
G1 X-12.103 Y17.897 E48.86927 Z0.36 S1
G1 X-12.103 Y14.897 E49.00360 Z0.359521549475 S1
G1 X-10.103 Y14.897 E49.09315 Z0.36 S1
G1 X-10.103 Y11.897 E49.22748 Z0.35 S1
G1 X-8.102 Y11.897 E49.31708 Z0.35300453658 S1
G1 X-8.102 Y8.897 E49.45141 Z0.35300453658 S1
