;Generated with Cura_SteamEngine 14.09
G28
M190 S50
; BEGINNING OF HEAD MOVEMENT WARNING TONES
M120 S4 P10
G4 P40
M120 S4 P10
G4 P40
M120 S4 P10
G4 P40
M120 S4 P10
G4 P40
M120 S4 P10
G4 P40
M117 KEEP HANDS AWAY
G4 S3
; END OF HEAD WARNING TONES
;Layer count: 7
;LAYER:0
M106 S127
G0 F9000 X6.305 Y54.138 Z0.150
G0 X5.863 Y54.197 Z0.228452045043 S1
;TYPE:SKIRT
G1 F1200 X3.781 Y54.376 E0.04678 Z0.234834888396 S1
G1 X1.467 Y54.489 E0.09865 Z0.25 S1
G1 X-1.145 Y54.502 E0.15713 Z0.25 S1
G1 X-3.251 Y54.412 E0.20432 Z0.25 S1
G1 X-5.560 Y54.224 E0.25619 Z0.246869429287 S1
G1 X-7.891 Y53.935 E0.30878 Z0.24 S1
G1 X-10.466 Y53.500 E0.36724 Z0.233337176673 S1
G1 X-12.523 Y53.051 E0.41438 Z0.225878556061 S1
G1 X-14.767 Y52.470 E0.46627 Z0.21156378055 S1
G1 X-17.013 Y51.786 E0.51884 Z0.21483657807 S1
G1 X-19.475 Y50.916 E0.57730 Z0.2 S1
G1 X-21.672 Y50.021 E0.63041 Z0.185349909237 S1
G1 X-23.802 Y49.042 E0.68289 Z0.17 S1
G1 X-25.657 Y48.093 E0.72954 Z0.168806318029 S1
G1 X-27.910 Y46.827 E0.78740 Z0.15410933375 S1
G1 X-29.919 Y45.569 E0.84047 Z0.146191915534 S1
G1 X-31.636 Y44.387 E0.88714 Z0.14 S1
G1 X-33.703 Y42.846 E0.94486 Z0.12 S1
G1 X-35.334 Y41.506 E0.99212 Z0.104610478271 S1
G1 X-37.266 Y39.786 E1.05003 Z0.09 S1
G1 X-38.959 Y38.129 E1.10307 Z0.08 S1
G1 X-40.249 Y36.753 E1.14529 Z0.06 S1
G1 X-40.563 Y36.417 E1.15559 Z0.06 S1
G1 X-42.093 Y34.640 E1.20809 Z0.06 S1
G1 X-43.545 Y32.795 E1.26065 Z0.05 S1
G1 X-44.760 Y31.107 E1.30722 Z0.04 S1
G1 X-46.190 Y28.952 E1.36512 Z0.03 S1
G1 X-47.269 Y27.142 E1.41229 Z0.0148777194551 S1
G1 X-48.507 Y24.876 E1.47010 Z0.0244269915294 S1
G1 X-49.543 Y22.740 E1.52325 Z0.01 S1
G1 X-50.370 Y20.830 E1.56985 Z0.00848003872482 S1
G1 X-51.306 Y18.423 E1.62767 Z-0.01 S1
G1 X-52.058 Y16.174 E1.68076 Z-0.0166840769482 S1
G1 X-52.632 Y14.174 E1.72735 Z-0.019017409494 S1
G1 X-53.251 Y11.665 E1.78520 Z-0.020011115637 S1
G1 X-53.657 Y9.595 E1.83243 Z-0.0283015038369 S1
G1 X-54.057 Y7.044 E1.89024 Z-0.0330532695646 S1
G1 X-54.312 Y4.683 E1.94341 Z-0.0423131272115 S1
G1 X-54.445 Y2.607 E1.98998 Z-0.03 S1
G1 X-54.514 Y0.027 E2.04776 Z-0.0234289261833 S1
G1 X-54.463 Y-2.343 E2.10083 Z-0.02 S1
G1 X-54.329 Y-4.423 E2.14750 Z-0.0122355841075 S1
G1 X-54.063 Y-6.993 E2.20534 Z-0.00339266000148 S1
G1 X-53.748 Y-9.077 E2.25253 Z0.00174057632522 S1
G1 X-53.262 Y-11.616 E2.31040 Z-0.00519014461764 S1
G1 X-52.706 Y-13.920 E2.36347 Z0.0129848024706 S1
G1 X-52.130 Y-15.923 E2.41013 Z0.0140803940778 S1
G1 X-51.323 Y-18.376 E2.46794 Z0.012976781509 S1
G1 X-50.476 Y-20.588 E2.52097 Z0.0315860686883 S1
G1 X-49.648 Y-22.500 E2.56762 Z0.0390133333333 S1
G1 X-48.530 Y-24.832 E2.62552 Z0.05 S1
G1 X-47.529 Y-26.685 E2.67267 Z0.0534492336408 S1
G1 X-46.216 Y-28.910 E2.73051 Z0.0530689840244 S1
G1 X-44.914 Y-30.893 E2.78362 Z0.0540594928802 S1
G1 X-43.698 Y-32.581 E2.83020 Z0.052966104487 S1
G1 X-42.109 Y-34.621 E2.88809 Z0.04 S1
G1 X-40.562 Y-36.419 E2.94119 Z0.0528118659276 S1
G1 X-39.277 Y-37.790 E2.98326 Z0.0675581436959 S1
G1 X-38.961 Y-38.128 E2.99362 Z0.0658110807313 S1
G1 X-37.284 Y-39.769 E3.04615 Z0.06 S1
G1 X-35.537 Y-41.338 E3.09872 Z0.07 S1
G1 X-33.723 Y-42.830 E3.15131 Z0.07 S1
G1 X-31.853 Y-44.238 E3.20371 Z0.08 S1
G1 X-29.919 Y-45.569 E3.25627 Z0.0838080844657 S1
G1 X-28.152 Y-46.675 E3.30294 Z0.0825053962656 S1
G1 X-25.914 Y-47.960 E3.36072 Z0.0972320638432 S1
G1 X-23.804 Y-49.041 E3.41380 Z0.0932026459946 S1
G1 X-21.672 Y-50.021 E3.46633 Z0.1 S1
G1 X-19.498 Y-50.907 E3.51889 Z0.109379866125 S1
G1 X-17.289 Y-51.699 E3.57143 Z0.11 S1
G1 X-15.050 Y-52.394 E3.62392 Z0.110775087017 S1
G1 X-13.038 Y-52.926 E3.67051 Z0.123590101092 S1
G1 X-10.516 Y-53.490 E3.72837 Z0.13 S1
G1 X-8.178 Y-53.896 E3.78149 Z0.14 S1
G1 X-5.852 Y-54.198 E3.83401 Z0.15 S1
G1 X-3.516 Y-54.399 E3.88650 Z0.162389299901 S1
G1 X-1.436 Y-54.489 E3.93311 Z0.163274281669 S1
G1 X1.147 Y-54.502 E3.99094 Z0.173669772509 S1
G1 X3.519 Y-54.399 E4.04409 Z0.196179889657 S1
G1 X5.850 Y-54.198 E4.09647 Z0.19159333235 S1
G1 X7.917 Y-53.931 E4.14314 Z0.21 S1
G1 X10.467 Y-53.500 E4.20103 Z0.223336954463 S1
G1 X12.785 Y-52.993 E4.25416 Z0.245162857558 S1
G1 X15.051 Y-52.393 E4.30664 Z0.249216295127 S1
G1 X17.289 Y-51.699 E4.35910 Z0.26 S1
G1 X19.498 Y-50.907 E4.41163 Z0.270620133875 S1
G1 X21.672 Y-50.020 E4.46420 Z0.294649652319 S1
G1 X23.566 Y-49.150 E4.51086 Z0.3 S1
G1 X25.869 Y-47.985 E4.56865 Z0.32 S1
G1 X27.930 Y-46.814 E4.62172 Z0.33 S1
G1 X29.920 Y-45.569 E4.67427 Z0.336192272933 S1
G1 X31.853 Y-44.238 E4.72681 Z0.345065489303 S1
G1 X33.513 Y-42.988 E4.77334 Z0.353946166077 S1
G1 X35.518 Y-41.355 E4.83123 Z0.37 S1
G1 X37.284 Y-39.769 E4.88437 Z0.365116959801 S1
G1 X38.959 Y-38.129 E4.93685 Z0.375804199337 S1
G1 X40.249 Y-36.753 E4.97908 Z0.374982014443 S1
G1 X40.563 Y-36.417 E4.98938 Z0.377200700262 S1
G1 X42.093 Y-34.640 E5.04187 Z0.381097628329 S1
G1 X43.545 Y-32.795 E5.09444 Z0.388606056048 S1
G1 X44.914 Y-30.893 E5.14690 Z0.39 S1
G1 X46.203 Y-28.931 E5.19946 Z0.386794552696 S1
G1 X47.404 Y-26.916 E5.25198 Z0.39 S1
G1 X48.518 Y-24.853 E5.30447 Z0.385462974033 S1
G1 X49.428 Y-22.979 E5.35111 Z0.39 S1
G1 X50.466 Y-20.613 E5.40895 Z0.38775811586 S1
G1 X51.314 Y-18.398 E5.46205 Z0.386932796206 S1
G1 X52.057 Y-16.176 E5.51451 Z0.38 S1
G1 X52.706 Y-13.921 E5.56704 Z0.38 S1
G1 X53.194 Y-11.896 E5.61368 Z0.370732504289 S1
G1 X53.704 Y-9.363 E5.67152 Z0.367149697204 S1
G1 X54.060 Y-7.018 E5.72463 Z0.353226332563 S1
G1 X54.312 Y-4.683 E5.77721 Z0.347686872788 S1
G1 X54.445 Y-2.607 E5.82378 Z0.333452686519 S1
G1 X54.514 Y-0.030 E5.88149 Z0.326570544849 S1
G1 X54.473 Y1.899 E5.92469 Z0.326403498818 S1
G1 X54.461 Y2.362 E5.93506 Z0.318921003913 S1
G1 X54.330 Y4.418 E5.98118 Z0.31 S1
G1 X54.093 Y6.726 E6.03313 Z0.295157574686 S1
G1 X53.753 Y9.047 E6.08565 Z0.29 S1
G1 X53.314 Y11.352 E6.13818 Z0.274756136945 S1
G1 X52.776 Y13.635 E6.19069 Z0.278003161847 S1
G1 X52.140 Y15.892 E6.24319 Z0.26 S1
G1 X51.409 Y18.121 E6.29571 Z0.25 S1
G1 X50.581 Y20.315 E6.34821 Z0.24 S1
G1 X49.660 Y22.475 E6.40078 Z0.238921953851 S1
G1 X48.529 Y24.832 E6.45931 Z0.224635916629 S1
G1 X47.404 Y26.915 E6.51231 Z0.21398691078 S1
G1 X46.338 Y28.705 E6.55895 Z0.20833192523 S1
G1 X44.928 Y30.873 E6.61685 Z0.2 S1
G1 X43.698 Y32.581 E6.66398 Z0.207033895513 S1
G1 X42.109 Y34.621 E6.72187 Z0.19 S1
G1 X40.733 Y36.220 E6.76910 Z0.19 S1
G1 X38.978 Y38.111 E6.82686 Z0.19 S1
G1 X37.532 Y39.526 E6.87215 Z0.19 S1
G1 X37.022 Y40.004 E6.88780 Z0.19 S1
G1 X35.536 Y41.339 E6.93252 Z0.184572118004 S1
G1 X33.925 Y42.663 E6.97921 Z0.19 S1
G1 X31.874 Y44.223 E7.03690 Z0.195144123744 S1
G1 X29.919 Y45.569 E7.09004 Z0.196191915534 S1
G1 X28.152 Y46.675 E7.13671 Z0.2 S1
G1 X25.911 Y47.962 E7.19457 Z0.197252738104 S1
G1 X24.041 Y48.919 E7.24160 Z0.2 S1
G1 X21.941 Y49.898 E7.29347 Z0.214017820553 S1
G1 X19.767 Y50.797 E7.34614 Z0.217883874629 S1
G1 X17.313 Y51.691 E7.40461 Z0.21521354939 S1
G1 X15.304 Y52.314 E7.45170 Z0.217725328274 S1
G1 X13.070 Y52.918 E7.50351 Z0.21 S1
G1 X10.776 Y53.433 E7.55615 Z0.223932508668 S1
G1 X8.202 Y53.893 E7.61469 Z0.22 S1
G1 X6.305 Y54.138 E7.65751 Z0.227822948905 S1
G1 X5.863 Y54.197 E7.66750 Z0.228452045043 S1
G0 F9000 X5.824 Y53.840 Z0.23 S1
G1 F1200 X3.756 Y54.018 E7.71397 Z0.234960023028 S1
G1 X1.457 Y54.130 E7.76550 Z0.25 S1
G1 X-1.138 Y54.143 E7.82360 Z0.25 S1
G1 X-3.229 Y54.053 E7.87046 Z0.248440420806 S1
G1 X-5.524 Y53.867 E7.92200 Z0.246763026552 S1
G1 X-7.839 Y53.580 E7.97423 Z0.24 S1
G1 X-10.397 Y53.147 E8.03231 Z0.235673720432 S1
G1 X-12.440 Y52.701 E8.07913 Z0.226904334615 S1
G1 X-14.670 Y52.124 E8.13070 Z0.212992586026 S1
G1 X-16.900 Y51.445 E8.18289 Z0.216534579937 S1
G1 X-19.348 Y50.580 E8.24102 Z0.2 S1
G1 X-21.529 Y49.691 E8.29375 Z0.186376201842 S1
G1 X-23.645 Y48.719 E8.34588 Z0.17 S1
G1 X-25.487 Y47.776 E8.39221 Z0.171495404322 S1
G1 X-27.727 Y46.518 E8.44972 Z0.155153244981 S1
G1 X-29.722 Y45.269 E8.50242 Z0.15 S1
G1 X-31.427 Y44.096 E8.54875 Z0.14 S1
G1 X-33.481 Y42.564 E8.60612 Z0.125867256264 S1
G1 X-35.100 Y41.233 E8.65304 Z0.115069097242 S1
G1 X-37.021 Y39.524 E8.71061 Z0.09 S1
G1 X-38.703 Y37.878 E8.76330 Z0.08 S1
G1 X-39.987 Y36.508 E8.80533 Z0.0678816047008 S1
G1 X-40.296 Y36.178 E8.81545 Z0.0634294588995 S1
G1 X-41.815 Y34.412 E8.86761 Z0.0626906061828 S1
G1 X-43.258 Y32.579 E8.91983 Z0.05 S1
G1 X-44.465 Y30.902 E8.96609 Z0.04 S1
G1 X-45.886 Y28.760 E9.02364 Z0.0341932135745 S1
G1 X-46.957 Y26.964 E9.07046 Z0.0169480392564 S1
G1 X-48.188 Y24.712 E9.12792 Z0.025238322386 S1
G1 X-49.217 Y22.591 E9.18069 Z0.0119587343382 S1
G1 X-50.038 Y20.694 E9.22697 Z0.0123983866467 S1
G1 X-50.968 Y18.301 E9.28445 Z-0.01 S1
G1 X-51.715 Y16.068 E9.33717 Z-0.0148248667938 S1
G1 X-52.286 Y14.081 E9.38345 Z-0.0179239806946 S1
G1 X-52.901 Y11.588 E9.44094 Z-0.0133147219284 S1
G1 X-53.303 Y9.532 E9.48784 Z-0.02 S1
G1 X-53.701 Y6.996 E9.54531 Z-0.0336042015452 S1
G1 X-53.954 Y4.652 E9.59810 Z-0.04 S1
G1 X-54.086 Y2.590 E9.64436 Z-0.0272299166449 S1
G1 X-54.155 Y0.026 E9.70178 Z-0.0210460846705 S1
G1 X-54.104 Y-2.327 E9.75447 Z-0.02 S1
G1 X-53.971 Y-4.393 E9.80082 Z-0.0107370234362 S1
G1 X-53.707 Y-6.948 E9.85833 Z-0.00386437491074 S1
G1 X-53.394 Y-9.016 E9.90515 Z0.00404045340681 S1
G1 X-52.911 Y-11.541 E9.96271 Z0.01 S1
G1 X-52.359 Y-13.829 E10.01540 Z0.0123282256344 S1
G1 X-51.787 Y-15.817 E10.06172 Z0.01 S1
G1 X-50.984 Y-18.255 E10.11918 Z0.0117026572029 S1
G1 X-50.143 Y-20.452 E10.17185 Z0.036388691003 S1
G1 X-49.321 Y-22.351 E10.21818 Z0.04 S1
G1 X-48.210 Y-24.669 E10.27573 Z0.05 S1
G1 X-47.216 Y-26.509 E10.32255 Z0.0551585962608 S1
G1 X-45.912 Y-28.720 E10.38002 Z0.05 S1
G1 X-44.618 Y-30.689 E10.43277 Z0.0553225494089 S1
G1 X-43.411 Y-32.366 E10.47902 Z0.0542376610202 S1
G1 X-41.831 Y-34.394 E10.53658 Z0.0412998701083 S1
G1 X-40.295 Y-36.179 E10.58930 Z0.0534461162863 S1
G1 X-39.017 Y-37.541 E10.63112 Z0.0697047877441 S1
G1 X-39.018 Y-37.542 E10.63115 Z0.0696961400183 S1
G1 X-38.704 Y-37.877 E10.64143 Z0.0670785311598 S1
G1 X-37.038 Y-39.507 E10.69361 Z0.06 S1
G1 X-35.303 Y-41.066 E10.74583 Z0.0747751384852 S1
G1 X-33.501 Y-42.547 E10.79805 Z0.0818417271022 S1
G1 X-31.643 Y-43.947 E10.85014 Z0.08 S1
G1 X-29.722 Y-45.269 E10.90234 Z0.0823615190672 S1
G1 X-27.967 Y-46.367 E10.94869 Z0.0836011958739 S1
G1 X-25.742 Y-47.645 E11.00614 Z0.1 S1
G1 X-23.647 Y-48.718 E11.05884 Z0.0951745975337 S1
G1 X-21.529 Y-49.691 E11.11102 Z0.1 S1
G1 X-19.369 Y-50.571 E11.16324 Z0.107063538588 S1
G1 X-17.175 Y-51.358 E11.21542 Z0.11 S1
G1 X-14.951 Y-52.049 E11.26756 Z0.11301672231 S1
G1 X-12.953 Y-52.577 E11.31383 Z0.123661872601 S1
G1 X-10.446 Y-53.138 E11.37134 Z0.13 S1
G1 X-8.124 Y-53.541 E11.42410 Z0.14 S1
G1 X-5.813 Y-53.841 E11.47628 Z0.15 S1
G1 X-3.493 Y-54.041 E11.52841 Z0.163415108181 S1
G1 X-1.428 Y-54.130 E11.57469 Z0.160977356825 S1
G1 X1.140 Y-54.143 E11.63218 Z0.17 S1
G1 X3.495 Y-54.041 E11.68495 Z0.196694277446 S1
G1 X5.812 Y-53.841 E11.73702 Z0.19 S1
G1 X7.864 Y-53.576 E11.78334 Z0.21 S1
G1 X10.398 Y-53.147 E11.84088 Z0.225673965882 S1
G1 X12.701 Y-52.644 E11.89366 Z0.24468499372 S1
G1 X14.952 Y-52.048 E11.94579 Z0.2469770592 S1
G1 X17.175 Y-51.358 E11.99790 Z0.26 S1
G1 X19.369 Y-50.571 E12.05008 Z0.272936461412 S1
G1 X21.530 Y-49.691 E12.10232 Z0.293629953803 S1
G1 X23.410 Y-48.827 E12.14865 Z0.304683691856 S1
G1 X25.699 Y-47.668 E12.20609 Z0.32 S1
G1 X27.746 Y-46.506 E12.25878 Z0.33 S1
G1 X29.722 Y-45.269 E12.31098 Z0.34 S1
G1 X31.643 Y-43.947 E12.36318 Z0.3469365403 S1
G1 X33.292 Y-42.705 E12.40940 Z0.3552604041 S1
G1 X35.285 Y-41.082 E12.46695 Z0.365145560843 S1
G1 X37.038 Y-39.507 E12.51971 Z0.363851047429 S1
G1 X38.703 Y-37.878 E12.57186 Z0.377071209487 S1
G1 X39.987 Y-36.508 E12.61389 Z0.38 S1
G1 X40.296 Y-36.178 E12.62402 Z0.38 S1
G1 X41.815 Y-34.412 E12.67617 Z0.378654696909 S1
G1 X43.258 Y-32.579 E12.72839 Z0.386948619177 S1
G1 X44.618 Y-30.690 E12.78051 Z0.39 S1
G1 X45.898 Y-28.740 E12.83273 Z0.385891993647 S1
G1 X47.092 Y-26.739 E12.88490 Z0.39 S1
G1 X48.199 Y-24.689 E12.93706 Z0.38462023561 S1
G1 X49.102 Y-22.828 E12.98337 Z0.39 S1
G1 X50.134 Y-20.477 E13.04085 Z0.391035123494 S1
G1 X50.976 Y-18.277 E13.09359 Z0.388147986912 S1
G1 X51.714 Y-16.069 E13.14571 Z0.38 S1
G1 X52.358 Y-13.829 E13.19789 Z0.38 S1
G1 X52.844 Y-11.818 E13.24421 Z0.375008668058 S1
G1 X53.350 Y-9.300 E13.30171 Z0.37 S1
G1 X53.704 Y-6.971 E13.35445 Z0.353738873675 S1
G1 X53.954 Y-4.652 E13.40667 Z0.351053388362 S1
G1 X54.086 Y-2.590 E13.45293 Z0.332770083355 S1
G1 X54.155 Y-0.029 E13.51029 Z0.328950836057 S1
G1 X54.114 Y1.890 E13.55326 Z0.324661265576 S1
G1 X54.103 Y2.346 E13.56347 Z0.318744074332 S1
G1 X53.972 Y4.388 E13.60928 Z0.31 S1
G1 X53.736 Y6.682 E13.66091 Z0.295403028813 S1
G1 X53.399 Y8.987 E13.71306 Z0.29 S1
G1 X52.963 Y11.277 E13.76525 Z0.28 S1
G1 X52.428 Y13.545 E13.81742 Z0.28 S1
G1 X51.797 Y15.787 E13.86957 Z0.26 S1
G1 X51.070 Y18.001 E13.92174 Z0.25 S1
G1 X50.248 Y20.181 E13.97390 Z0.24 S1
G1 X49.333 Y22.327 E14.02613 Z0.24 S1
G1 X48.209 Y24.669 E14.08429 Z0.225500693492 S1
G1 X47.092 Y26.738 E14.13693 Z0.215934604694 S1
G1 X46.033 Y28.515 E14.18324 Z0.21311421281 S1
G1 X44.632 Y30.670 E14.24079 Z0.2 S1
G1 X43.411 Y32.366 E14.28758 Z0.20576233898 S1
G1 X41.831 Y34.393 E14.34512 Z0.191302823725 S1
G1 X40.466 Y35.980 E14.39198 Z0.19026199935 S1
G1 X38.720 Y37.861 E14.44944 Z0.19 S1
G1 X37.284 Y39.267 E14.49443 Z0.19 S1
G1 X36.779 Y39.740 E14.50992 Z0.19 S1
G1 X35.302 Y41.067 E14.55438 Z0.19 S1
G1 X33.702 Y42.381 E14.60073 Z0.195254188877 S1
G1 X31.664 Y43.932 E14.65807 Z0.197004524487 S1
G1 X29.722 Y45.269 E14.71085 Z0.2 S1
G1 X27.967 Y46.367 E14.75720 Z0.2 S1
G1 X25.740 Y47.646 E14.81470 Z0.205350940919 S1
G1 X23.883 Y48.596 E14.86140 Z0.2 S1
G1 X21.797 Y49.570 E14.91294 Z0.21468938306 S1
G1 X19.637 Y50.463 E14.96527 Z0.22 S1
G1 X17.198 Y51.351 E15.02338 Z0.22 S1
G1 X15.204 Y51.969 E15.07012 Z0.223648552947 S1
G1 X12.983 Y52.570 E15.12163 Z0.21 S1
G1 X10.705 Y53.081 E15.17390 Z0.226044755157 S1
G1 X8.147 Y53.539 E15.23208 Z0.22 S1
G1 X6.287 Y53.778 E15.27406 Z0.227726547854 S1
G1 X6.287 Y53.779 E15.27408 Z0.227729251184 S1
G1 X5.824 Y53.840 E15.28454 Z0.23 S1
G1 F2400 E13.28454
G0 F9000 X2.962 Y42.249 Z0.26 S1
;TYPE:WALL-INNER
G1 F2400 E15.28454
G1 F1200 X1.142 Y42.337 E15.32533 Z0.27 S1
G1 X-0.906 Y42.348 E15.37118 Z0.27 S1
G1 X-2.503 Y42.279 E15.40697 Z0.27 S1
G1 X-4.321 Y42.132 E15.44781 Z0.26143489875 S1
G1 X-6.145 Y41.905 E15.48896 Z0.258868237075 S1
G1 X-8.145 Y41.567 E15.53437 Z0.25 S1
G1 X-9.691 Y41.230 E15.56979 Z0.25 S1
G1 X-11.482 Y40.766 E15.61121 Z0.246359894131 S1
G1 X-13.215 Y40.238 E15.65177 Z0.242374942913 S1
G1 X-15.155 Y39.553 E15.69783 Z0.226255903258 S1
G1 X-16.855 Y38.860 E15.73894 Z0.22 S1
G1 X-18.484 Y38.111 E15.77908 Z0.21435049548 S1
G1 X-19.910 Y37.382 E15.81493 Z0.197198689733 S1
G1 X-21.703 Y36.374 E15.86098 Z0.19 S1
G1 X-23.251 Y35.405 E15.90187 Z0.18499590846 S1
G1 X-24.554 Y34.508 E15.93729 Z0.18630650712 S1
G1 X-26.209 Y33.275 E15.98349 Z0.170481729767 S1
G1 X-27.434 Y32.267 E16.01901 Z0.164915105102 S1
G1 X-28.968 Y30.902 E16.06498 Z0.16 S1
G1 X-30.282 Y29.617 E16.10613 Z0.15 S1
G1 X-31.516 Y28.300 E16.14653 Z0.138663064076 S1
G1 X-32.701 Y26.923 E16.18720 Z0.12204173521 S1
G1 X-33.827 Y25.492 E16.22797 Z0.124486725688 S1
G1 X-34.765 Y24.188 E16.26393 Z0.115871859074 S1
G1 X-35.907 Y22.469 E16.31014 Z0.11 S1
G1 X-36.716 Y21.110 E16.34555 Z0.0952218840724 S1
G1 X-37.697 Y19.314 E16.39136 Z0.0882929470263 S1
G1 X-38.498 Y17.665 E16.43241 Z0.0836438828101 S1
G1 X-39.126 Y16.214 E16.46780 Z0.08 S1
G1 X-39.868 Y14.304 E16.51368 Z0.07 S1
G1 X-40.453 Y12.557 E16.55493 Z0.07 S1
G1 X-40.887 Y11.046 E16.59012 Z0.07 S1
G1 X-41.382 Y9.040 E16.63638 Z0.0641225753256 S1
G1 X-41.689 Y7.470 E16.67219 Z0.05 S1
G1 X-42.003 Y5.466 E16.71761 Z0.06 S1
G1 X-42.200 Y3.641 E16.75870 Z0.06 S1
G1 X-42.304 Y2.025 E16.79496 Z0.06 S1
G1 X-42.358 Y0.013 E16.84002 Z0.0576122536771 S1
G1 X-42.318 Y-1.824 E16.88116 Z0.0572851496698 S1
G1 X-42.215 Y-3.427 E16.91712 Z0.05 S1
G1 X-42.006 Y-5.443 E16.96250 Z0.05 S1
G1 X-41.765 Y-7.038 E16.99861 Z0.05 S1
G1 X-41.382 Y-9.039 E17.04422 Z0.05 S1
G1 X-40.952 Y-10.822 E17.08528 Z0.06 S1
