; generated by Slic3r 1.1.7 on 2015-02-03 at 01:39:06

; perimeters extrusion width = 0.45mm
; infill extrusion width = 0.45mm
; solid infill extrusion width = 0.45mm
; top infill extrusion width = 0.40mm

G21 ; set units to millimeters
M107
;M190 S60 ; wait for bed temperature to be reached
;M104 S50 ; set temperature
G28
; BEGINNING OF HEAD MOVEMENT WARNING TONES
M120 S4 P10
G4 P40
M120 S4 P10
G4 P40
M120 S4 P10
G4 P40
M120 S4 P10
G4 P40
M120 S4 P10
G4 P40
M117 KEEP HANDS AWAY
G4 S3
; END OF HEAD WARNING TONES
G1 X-65 Y35 Z0 F500
G1 X0 Y0 Z0 F500
;M109 S50 ; wait for temperature to be reached
G90 ; use absolute coordinates
G92 E0
M82 ; use absolute distances for extrusion
G1 F6000.000 E-5.40000
G1 Z0.500 F600.000
G92 E0
G1 X6.630 Y19.623 F600.000
G1 Z0.100 F600.000
G1 E5.50000 F6000.000
G1 X5.797 Y19.905 E5.52116 F600.000
G1 X4.651 Y20.203 E5.54965
G1 X4.088 Y20.325 E5.56350
G1 X2.919 Y20.525 E5.59201
G1 X2.350 Y20.598 E5.60581
G1 X0.594 Y20.723 E5.64816
G1 X-1.165 Y20.699 E5.69049
G1 X-2.917 Y20.525 E5.73281
G1 X-4.647 Y20.204 E5.77514
G1 X-6.343 Y19.737 E5.81747
G1 X-7.994 Y19.128 E5.85979
G1 X-9.586 Y18.382 E5.90208
G1 X-11.112 Y17.502 E5.94445
G1 X-12.556 Y16.497 E5.98678
G1 X-13.910 Y15.372 E6.02910
G1 X-15.164 Y14.137 E6.07143
G1 X-16.308 Y12.800 E6.11376
G1 X-17.012 Y11.848 E6.14225
G1 X-17.335 Y11.371 E6.15609
G1 X-17.956 Y10.362 E6.18458
G1 X-18.237 Y9.860 E6.19843
G1 X-19.007 Y8.278 E6.24075
G1 X-19.449 Y7.178 E6.26927
G1 X-19.641 Y6.636 E6.28309
G1 X-20.133 Y4.947 E6.32542
G1 X-20.480 Y3.222 E6.36774
G1 X-20.630 Y2.047 E6.39624
G1 X-20.679 Y1.469 E6.41018
G1 X-20.730 Y-0.286 E6.45240
G1 X-20.679 Y-1.470 E6.48092
G1 X-20.631 Y-2.043 E6.49474
G1 X-20.480 Y-3.218 E6.52325
G1 X-20.383 Y-3.785 E6.53707
G1 X-19.989 Y-5.500 E6.57940
G1 X-19.450 Y-7.175 E6.62173
G1 X-18.772 Y-8.799 E6.66406
G1 X-17.958 Y-10.359 E6.70638
G1 X-17.015 Y-11.845 E6.74871
G1 X-16.310 Y-12.797 E6.77720
G1 X-15.949 Y-13.245 E6.79104
G1 X-15.166 Y-14.134 E6.81952
G1 X-14.768 Y-14.550 E6.83338
G1 X-13.481 Y-15.750 E6.87571
G1 X-12.560 Y-16.494 E6.90419
G1 X-12.097 Y-16.836 E6.91804
G1 X-11.114 Y-17.501 E6.94656
G1 X-10.625 Y-17.802 E6.96038
G1 X-9.077 Y-18.639 E7.00270
G1 X-7.464 Y-19.341 E7.04503
G1 X-5.797 Y-19.905 E7.08736
G1 X-4.088 Y-20.325 E7.12968
G1 X-2.919 Y-20.525 E7.15820
G1 X-2.349 Y-20.598 E7.17202
G1 X-1.166 Y-20.699 E7.20059
G1 X-0.594 Y-20.723 E7.21435
G1 X1.165 Y-20.699 E7.25668
G1 X2.346 Y-20.598 E7.28518 F600.000
G1 X2.917 Y-20.525 E7.29902
G1 X4.085 Y-20.325 E7.32752
G1 X4.647 Y-20.204 E7.34135
G1 X5.795 Y-19.905 E7.36988
G1 X6.343 Y-19.737 E7.38369
G1 X7.994 Y-19.128 E7.42601
G1 X9.074 Y-18.640 E7.45451
G1 X9.588 Y-18.381 E7.46835
G1 X10.622 Y-17.803 E7.49685
G1 X11.112 Y-17.502 E7.51068
G1 X12.556 Y-16.497 E7.55301
G1 X13.910 Y-15.372 E7.59534
G1 X14.765 Y-14.553 E7.62382
G1 X15.164 Y-14.137 E7.63767
G1 X15.946 Y-13.248 E7.66616
G1 X16.308 Y-12.800 E7.68001
G1 X17.013 Y-11.848 E7.70851
G1 X17.335 Y-11.371 E7.72234
G1 X18.237 Y-9.860 E7.76467
G1 X18.770 Y-8.802 E7.79317
G1 X19.007 Y-8.278 E7.80700
G1 X19.641 Y-6.636 E7.84933
G1 X19.988 Y-5.503 E7.87784
G1 X20.133 Y-4.947 E7.89167
G1 X20.480 Y-3.222 E7.93399
G1 X20.679 Y-1.473 E7.97632
G1 X20.730 Y0.286 E8.01865
G1 X20.631 Y2.043 E8.06097
G1 X20.383 Y3.785 E8.10330
G1 X19.989 Y5.500 E8.14563
G1 X19.450 Y7.175 E8.18796
G1 X18.772 Y8.799 E8.23028
G1 X17.958 Y10.359 E8.27261
G1 X17.015 Y11.844 E8.31491
G1 X15.949 Y13.245 E8.35726
G1 X14.768 Y14.550 E8.39959
G1 X13.481 Y15.750 E8.44192
G1 X12.097 Y16.836 E8.48424
G1 X11.116 Y17.500 E8.51273
G1 X10.625 Y17.802 E8.52658
G1 X9.591 Y18.380 E8.55508
G1 X9.077 Y18.639 E8.56891
G1 X7.998 Y19.127 E8.59741
G1 X7.464 Y19.341 E8.61125
G1 X6.701 Y19.599 E8.63061
G1 X6.445 Y19.076 F600.000
G1 X5.651 Y19.345 E8.65077 F600.000
G1 X4.505 Y19.643 E8.67926
G1 X3.990 Y19.754 E8.69192
G1 X2.822 Y19.955 E8.72044
G1 X2.301 Y20.021 E8.73306
G1 X0.594 Y20.144 E8.77423
G1 X-1.116 Y20.122 E8.81537
G1 X-2.819 Y19.955 E8.85652
G1 X-4.501 Y19.644 E8.89766
G1 X-6.151 Y19.192 E8.93881
G1 X-7.756 Y18.601 E8.97996
G1 X-9.304 Y17.877 E9.02107
G1 X-10.788 Y17.023 E9.06225
G1 X-12.193 Y16.046 E9.10340
G1 X-13.510 Y14.955 E9.14454
G1 X-14.729 Y13.755 E9.18569
G1 X-15.843 Y12.456 E9.22683
G1 X-16.547 Y11.504 E9.25533
G1 X-16.842 Y11.068 E9.26799
G1 X-17.463 Y10.059 E9.29648
G1 X-17.720 Y9.600 E9.30914
G1 X-18.470 Y8.062 E9.35029
G1 X-18.912 Y6.962 E9.37880
G1 X-19.087 Y6.467 E9.39144
G1 X-19.567 Y4.825 E9.43259
G1 X-19.906 Y3.148 E9.47373
G1 X-20.056 Y1.973 E9.50223
G1 X-20.101 Y1.449 E9.51488
G1 X-20.152 Y-0.261 E9.55603
G1 X-20.101 Y-1.446 E9.58455
G1 X-20.057 Y-1.969 E9.59719
G1 X-19.906 Y-3.145 E9.62569
G1 X-19.818 Y-3.663 E9.63834
G1 X-19.435 Y-5.331 E9.67949
G1 X-18.913 Y-6.960 E9.72063
G1 X-18.255 Y-8.539 E9.76178
G1 X-17.465 Y-10.056 E9.80293
G1 X-16.549 Y-11.501 E9.84407
G1 X-15.845 Y-12.453 E9.87256
G1 X-15.514 Y-12.863 E9.88523
G1 X-14.732 Y-13.752 E9.91371
G1 X-14.368 Y-14.132 E9.92638
G1 X-13.117 Y-15.300 E9.96753
G1 X-12.196 Y-16.044 E9.99601
G1 X-11.773 Y-16.357 E10.00868
G1 X-10.790 Y-17.021 E10.03720
G1 X-10.343 Y-17.297 E10.04984
G1 X-8.839 Y-18.111 E10.09098
G1 X-7.271 Y-18.796 E10.13213
G1 X-5.651 Y-19.345 E10.17327
G1 X-3.990 Y-19.754 E10.21442
G1 X-2.822 Y-19.955 E10.24293
G1 X-2.300 Y-20.022 E10.25557
G1 X-1.117 Y-20.122 E10.28413
G1 X-0.594 Y-20.144 E10.29673
G1 X1.116 Y-20.122 E10.33787
G1 X2.297 Y-20.022 E10.36637 F600.000
G1 X2.819 Y-19.955 E10.37903
G1 X3.987 Y-19.755 E10.40753
G1 X4.501 Y-19.644 E10.42018
G1 X5.649 Y-19.345 E10.44871
G1 X6.151 Y-19.192 E10.46134
G1 X7.756 Y-18.601 E10.50248
G1 X8.835 Y-18.113 E10.53097
G1 X9.306 Y-17.876 E10.54364
G1 X10.340 Y-17.298 E10.57214
G1 X10.788 Y-17.023 E10.58479
G1 X12.193 Y-16.046 E10.62594
G1 X13.510 Y-14.955 E10.66708
G1 X14.365 Y-14.135 E10.69556
G1 X14.729 Y-13.755 E10.70824
G1 X15.512 Y-12.866 E10.73672
G1 X15.843 Y-12.456 E10.74939
G1 X16.547 Y-11.504 E10.77789
G1 X16.842 Y-11.068 E10.79054
G1 X17.720 Y-9.600 E10.83169
G1 X18.253 Y-8.542 E10.86019
G1 X18.470 Y-8.062 E10.87284
G1 X19.087 Y-6.467 E10.91399
G1 X19.434 Y-5.334 E10.94250
G1 X19.567 Y-4.825 E10.95515
G1 X19.906 Y-3.148 E10.99629
G1 X20.101 Y-1.449 E11.03744
G1 X20.152 Y0.261 E11.07858
G1 X20.057 Y1.969 E11.11973
G1 X19.818 Y3.663 E11.16088
G1 X19.435 Y5.331 E11.20202
G1 X18.913 Y6.960 E11.24317
G1 X18.255 Y8.539 E11.28431
G1 X17.465 Y10.056 E11.32546
G1 X16.550 Y11.500 E11.36658
G1 X15.514 Y12.863 E11.40775
G1 X14.368 Y14.132 E11.44890
G1 X13.117 Y15.300 E11.49005
G1 X11.773 Y16.357 E11.53119
G1 X10.792 Y17.020 E11.55967
G1 X10.343 Y17.297 E11.57235
G1 X9.309 Y17.875 E11.60085
G1 X8.839 Y18.111 E11.61350
G1 X7.759 Y18.599 E11.64200
G1 X7.271 Y18.796 E11.65465
G1 X6.516 Y19.052 E11.67383
G1 X6.259 Y18.529 F600.000
G1 X5.505 Y18.785 E11.69298 F600.000
G1 X4.359 Y19.083 E11.72147
G1 X3.892 Y19.184 E11.73296
G1 X2.724 Y19.384 E11.76147
G1 X2.252 Y19.445 E11.77291
G1 X0.594 Y19.566 E11.81289
G1 X-1.067 Y19.546 E11.85286
G1 X-2.721 Y19.385 E11.89283
G1 X-4.355 Y19.084 E11.93279
G1 X-5.958 Y18.646 E11.97276
G1 X-7.518 Y18.074 E12.01272
G1 X-9.022 Y17.372 E12.05266
G1 X-10.464 Y16.543 E12.09265
G1 X-11.829 Y15.596 E12.13262
G1 X-13.109 Y14.537 E12.17258
G1 X-14.295 Y13.373 E12.21255
G1 X-15.378 Y12.112 E12.25252
G1 X-16.082 Y11.160 E12.28101
G1 X-16.349 Y10.765 E12.29249
G1 X-16.970 Y9.756 E12.32098
G1 X-17.203 Y9.339 E12.33246
G1 X-17.933 Y7.847 E12.37243
G1 X-18.375 Y6.747 E12.40093
G1 X-18.534 Y6.297 E12.41240
G1 X-19.002 Y4.703 E12.45236
G1 X-19.332 Y3.075 E12.49233
G1 X-19.482 Y1.900 E12.52082
G1 X-19.523 Y1.420 E12.53241
G1 X-19.574 Y-0.237 E12.57227
G1 X-19.523 Y-1.421 E12.60078
G1 X-19.483 Y-1.896 E12.61224
G1 X-19.332 Y-3.071 E12.64074
G1 X-19.252 Y-3.541 E12.65221
G1 X-18.882 Y-5.161 E12.69218
G1 X-18.377 Y-6.744 E12.73214
G1 X-17.738 Y-8.278 E12.77211
G1 X-16.972 Y-9.753 E12.81208
G1 X-16.084 Y-11.157 E12.85204
G1 X-15.380 Y-12.109 E12.88053
G1 X-15.080 Y-12.481 E12.89201
G1 X-14.298 Y-13.369 E12.92049
G1 X-13.967 Y-13.715 E12.93199
G1 X-12.754 Y-14.850 E12.97195
G1 X-11.833 Y-15.594 E13.00043
G1 X-11.449 Y-15.878 E13.01193
G1 X-10.466 Y-16.542 E13.04044
G1 X-10.061 Y-16.792 E13.05190
G1 X-8.601 Y-17.584 E13.09186
G1 X-7.078 Y-18.250 E13.13183
G1 X-5.505 Y-18.785 E13.17179
G1 X-3.892 Y-19.184 E13.21176
G1 X-2.724 Y-19.384 E13.24027
G1 X-2.251 Y-19.445 E13.25173
G1 X-1.069 Y-19.546 E13.28028
G1 X-0.594 Y-19.566 E13.29171
G1 X1.067 Y-19.546 E13.33167
G1 X2.248 Y-19.445 E13.36017 F600.000
G1 X2.721 Y-19.385 E13.37164
G1 X3.889 Y-19.185 E13.40014
G1 X4.355 Y-19.084 E13.41162
G1 X5.503 Y-18.785 E13.44014
G1 X5.958 Y-18.646 E13.45159
G1 X7.518 Y-18.074 E13.49156
G1 X8.597 Y-17.586 E13.52005
G1 X9.023 Y-17.371 E13.53153
G1 X10.058 Y-16.793 E13.56003
G1 X10.464 Y-16.543 E13.57150
G1 X11.829 Y-15.596 E13.61147
G1 X13.109 Y-14.537 E13.65143
G1 X13.964 Y-13.718 E13.67991
G1 X14.295 Y-13.373 E13.69140
G1 X15.077 Y-12.484 E13.71989
G1 X15.378 Y-12.112 E13.73138
G1 X16.082 Y-11.160 E13.75988
G1 X16.349 Y-10.765 E13.77135
G1 X17.203 Y-9.339 E13.81132
G1 X17.737 Y-8.281 E13.83981
G1 X17.933 Y-7.847 E13.85129
G1 X18.534 Y-6.297 E13.89125
G1 X18.881 Y-5.164 E13.91976
G1 X19.002 Y-4.703 E13.93123
G1 X19.332 Y-3.075 E13.97119
G1 X19.523 Y-1.424 E14.01116
G1 X19.574 Y0.237 E14.05112
G1 X19.483 Y1.896 E14.09109
G1 X19.252 Y3.541 E14.13105
G1 X18.882 Y5.161 E14.17102
G1 X18.377 Y6.744 E14.21099
G1 X17.738 Y8.278 E14.25095
G1 X16.972 Y9.753 E14.29092
G1 X16.085 Y11.156 E14.33086
G1 X15.080 Y12.481 E14.37085
G1 X13.967 Y13.715 E14.41081
G1 X12.754 Y14.850 E14.45078
G1 X11.449 Y15.878 E14.49074
G1 X10.468 Y16.541 E14.51923
G1 X10.061 Y16.792 E14.53072
G1 X9.027 Y17.369 E14.55922
G1 X8.601 Y17.584 E14.57069
G1 X7.521 Y18.072 E14.59919
G1 X7.078 Y18.250 E14.61066
G1 X6.330 Y18.505 E14.62967
G1 F6000.000 E9.22967
G1 Z0.500 F600.000
G92 E0
G1 X-11.313 Y-1.720 F600.000
G1 Z0.100 F600.000
G1 E5.50000 F6000.000
G1 X-11.632 Y-1.720 E5.50767 F600.000
G1 X-10.400 Y-4.812 E5.58771
G1 X-9.819 Y-5.908 E5.61755
G1 X-9.123 Y-6.935 E5.64740
G1 X-8.319 Y-7.880 E5.67724
G1 X-7.419 Y-8.734 E5.70709
G1 X-6.431 Y-9.485 E5.73693
G1 X-5.368 Y-10.124 E5.76678
G1 X-4.241 Y-10.645 E5.79662
G1 X-3.066 Y-11.042 E5.82646
G1 X-1.854 Y-11.308 E5.85631
G1 X-0.620 Y-11.442 E5.88615
G1 X0.620 Y-11.442 E5.91600
G1 X1.854 Y-11.308 E5.94584
G1 X3.066 Y-11.042 E5.97569
G1 X4.241 Y-10.645 E6.00553
G1 X5.368 Y-10.124 E6.03537
G1 X6.431 Y-9.485 E6.06522
G1 X7.419 Y-8.734 E6.09506
G1 X8.319 Y-7.881 E6.12491
G1 X9.123 Y-6.935 E6.15475
G1 X9.819 Y-5.908 E6.18460
G1 X10.400 Y-4.812 E6.21444
G1 X10.859 Y-3.659 E6.24429
G1 X11.191 Y-2.463 E6.27413
G1 X11.392 Y-1.239 E6.30397
G1 X11.459 Y0.000 E6.33382
G1 X11.392 Y1.239 E6.36366
G1 X11.313 Y1.720 E6.37539
G1 X11.632 Y1.720 E6.38306
G1 X10.400 Y4.812 E6.46310
G1 X9.819 Y5.908 E6.49294
G1 X9.123 Y6.935 E6.52279
G1 X8.319 Y7.880 E6.55263
G1 X7.419 Y8.734 E6.58248
G1 X6.431 Y9.485 E6.61232
G1 X5.368 Y10.124 E6.64217
G1 X4.241 Y10.645 E6.67201
G1 X3.066 Y11.042 E6.70185
G1 X1.854 Y11.308 E6.73170
G1 X0.620 Y11.442 E6.76154
G1 X-0.620 Y11.442 E6.79139
G1 X-1.854 Y11.308 E6.82123
G1 X-3.066 Y11.042 E6.85108
G1 X-4.241 Y10.645 E6.88092
G1 X-5.368 Y10.124 E6.91076
G1 X-5.484 Y10.054 E6.91403
G1 X-6.431 Y9.485 E6.94061
G1 X-7.419 Y8.734 E6.97045
G1 X-8.319 Y7.881 E7.00030
G1 X-9.123 Y6.935 E7.03014
G1 X-9.819 Y5.908 E7.05999
G1 X-10.400 Y4.812 E7.08983
G1 X-10.859 Y3.659 E7.11967
G1 X-11.191 Y2.463 E7.14952
G1 X-11.392 Y1.239 E7.17936
G1 X-11.459 Y0.000 E7.20921
G1 X-11.392 Y-1.239 E7.23905
G1 X-11.325 Y-1.646 E7.24898
G1 X-10.742 Y-1.627 F600.000
G1 X-10.632 Y-2.299 E7.26536 F600.000
G1 X-10.779 Y-2.299 E7.26888
G1 X-9.874 Y-4.568 E7.32765
G1 X-9.322 Y-5.609 E7.35598
G1 X-8.661 Y-6.584 E7.38432
G1 X-7.899 Y-7.482 E7.41266
G1 X-7.043 Y-8.292 E7.44099
G1 X-6.106 Y-9.005 E7.46933
G1 X-5.096 Y-9.612 E7.49766
G1 X-4.027 Y-10.107 E7.52600
G1 X-2.911 Y-10.483 E7.55433
G1 X-1.760 Y-10.737 E7.58267
G1 X-0.589 Y-10.864 E7.61100
G1 X0.589 Y-10.864 E7.63934 F600.000
G1 X1.760 Y-10.737 E7.66767
G1 X2.911 Y-10.483 E7.69601
G1 X4.027 Y-10.107 E7.72434
G1 X5.096 Y-9.612 E7.75268
G1 X6.106 Y-9.005 E7.78101
G1 X7.043 Y-8.292 E7.80935
G1 X7.899 Y-7.482 E7.83769
G1 X8.661 Y-6.584 E7.86602
G1 X9.322 Y-5.609 E7.89436
G1 X9.874 Y-4.568 E7.92269
G1 X10.310 Y-3.474 E7.95103
G1 X10.625 Y-2.339 E7.97936
G1 X10.816 Y-1.176 E8.00770
G1 X10.880 Y0.000 E8.03603
G1 X10.816 Y1.176 E8.06437
G1 X10.632 Y2.299 E8.09172
G1 X10.779 Y2.299 E8.09525
G1 X9.874 Y4.568 E8.15401
G1 X9.322 Y5.609 E8.18235
G1 X8.661 Y6.584 E8.21069
G1 X7.899 Y7.482 E8.23902
G1 X7.043 Y8.292 E8.26736
G1 X6.106 Y9.005 E8.29569
G1 X5.096 Y9.612 E8.32403
G1 X4.027 Y10.107 E8.35236
G1 X2.911 Y10.483 E8.38070
G1 X1.760 Y10.737 E8.40903
G1 X0.589 Y10.864 E8.43737
G1 X-0.589 Y10.864 E8.46570
G1 X-1.862 Y10.714 E8.49653
G1 X-2.911 Y10.483 E8.52236
G1 X-4.027 Y10.107 E8.55070
G1 X-5.096 Y9.612 E8.57903
G1 X-6.106 Y9.005 E8.60737
G1 X-7.043 Y8.292 E8.63570
G1 X-7.899 Y7.482 E8.66404
G1 X-8.661 Y6.584 E8.69237
G1 X-9.322 Y5.609 E8.72071
G1 X-9.874 Y4.568 E8.74904
G1 X-10.338 Y3.374 E8.77987
G1 X-10.625 Y2.339 E8.80570
G1 X-10.816 Y1.176 E8.83404
G1 X-10.880 Y0.000 E8.86237
G1 X-10.816 Y-1.176 E8.89071
G1 X-10.754 Y-1.553 E8.89988
G1 X-10.171 Y-1.533 F600.000
G1 X-10.060 Y-2.214 E8.91648 F600.000
G1 X-9.876 Y-2.877 E8.93303
G1 X-9.925 Y-2.877 E8.93423
G1 X-9.348 Y-4.325 E8.97172
G1 X-8.826 Y-5.310 E8.99854
G1 X-8.200 Y-6.234 E9.02537
G1 X-7.478 Y-7.084 E9.05220
G1 X-6.668 Y-7.851 E9.07902
G1 X-5.780 Y-8.526 E9.10585
G1 X-4.825 Y-9.101 E9.13267
G1 X-3.813 Y-9.569 E9.15950
G1 X-2.756 Y-9.925 E9.18633
G1 X-1.666 Y-10.165 E9.21315
G1 X-0.558 Y-10.285 E9.23998
G1 X0.630 Y-10.277 E9.26855
G1 X1.666 Y-10.165 E9.29362 F600.000
G1 X2.756 Y-9.925 E9.32045
G1 X3.813 Y-9.569 E9.34728
G1 X4.911 Y-9.048 E9.37652
G1 X5.780 Y-8.526 E9.40092
G1 X6.668 Y-7.851 E9.42774
G1 X7.525 Y-7.028 E9.45631
G1 X8.200 Y-6.234 E9.48139
G1 X8.826 Y-5.310 E9.50821
G1 X9.348 Y-4.325 E9.53504
G1 X9.761 Y-3.289 E9.56186
G1 X10.060 Y-2.214 E9.58869
G1 X10.240 Y-1.114 E9.61552
G1 X10.300 Y0.000 E9.64234
G1 X10.240 Y1.114 E9.66917
G1 X10.060 Y2.214 E9.69600
G1 X9.876 Y2.877 E9.71254
G1 X9.925 Y2.877 E9.71374
G1 X9.348 Y4.325 E9.75123
G1 X8.826 Y5.310 E9.77805
G1 X8.200 Y6.234 E9.80488
G1 X7.478 Y7.084 E9.83171
G1 X6.668 Y7.851 E9.85853
G1 X5.780 Y8.526 E9.88536
G1 X4.825 Y9.101 E9.91219
G1 X3.813 Y9.569 E9.93901
G1 X2.756 Y9.925 E9.96584
G1 X1.666 Y10.165 E9.99267
G1 X0.558 Y10.285 E10.01949
G1 X-0.558 Y10.285 E10.04632
G1 X-1.738 Y10.149 E10.07489
G1 X-2.756 Y9.925 E10.09996
G1 X-3.813 Y9.569 E10.12679
G1 X-4.825 Y9.101 E10.15361
G1 X-5.780 Y8.526 E10.18044
G1 X-6.668 Y7.851 E10.20727
G1 X-7.478 Y7.084 E10.23409
G1 X-8.241 Y6.173 E10.26266
G1 X-8.826 Y5.310 E10.28774
G1 X-9.348 Y4.325 E10.31456
G1 X-9.781 Y3.219 E10.34313
G1 X-10.060 Y2.214 E10.36821
G1 X-10.240 Y1.114 E10.39503
G1 X-10.300 Y0.000 E10.42186
G1 X-10.240 Y-1.114 E10.44869
G1 X-10.183 Y-1.459 E10.45710
G1 F6000.000 E5.05710
G1 Z0.500 F600.000
G92 E0
G1 X0.807 Y-10.745 F600.000
G1 X-0.446 Y-0.056 F600.000
G1 Z0.100 F600.000
G1 E5.50000 F6000.000
G1 X-0.418 Y-0.165 E5.50271 F600.000
G1 X-0.364 Y-0.264 E5.50542
G1 X-0.286 Y-0.346 E5.50813
G1 X-0.191 Y-0.407 E5.51084
G1 X-0.084 Y-0.441 E5.51355
G1 X0.028 Y-0.449 E5.51626
G1 X0.139 Y-0.427 E5.51897
G1 X0.241 Y-0.379 E5.52168
G1 X0.328 Y-0.308 E5.52438
G1 X0.394 Y-0.216 E5.52709
G1 X0.435 Y-0.112 E5.52980
G1 X0.449 Y-0.000 E5.53251
G1 X0.435 Y0.112 E5.53522
G1 X0.394 Y0.216 E5.53793
G1 X0.328 Y0.308 E5.54064
G1 X0.241 Y0.379 E5.54335
G1 X0.139 Y0.427 E5.54606
G1 X0.028 Y0.448 E5.54877
G1 X-0.084 Y0.441 E5.55148
G1 X-0.191 Y0.407 E5.55419
G1 X-0.286 Y0.346 E5.55690
G1 X-0.364 Y0.264 E5.55961
G1 X-0.418 Y0.165 E5.56232
G1 X-0.446 Y0.019 E5.56591
G1 X-1.006 Y-0.200 F600.000
G1 X-0.960 Y-0.380 E5.57038 F600.000
G1 X-0.835 Y-0.607 E5.57660
G1 X-0.658 Y-0.796 E5.58283
G1 X-0.440 Y-0.934 E5.58905
G1 X-0.193 Y-1.014 E5.59528
G1 X0.065 Y-1.030 E5.60150 F600.000
G1 X0.319 Y-0.982 E5.60773
G1 X0.553 Y-0.872 E5.61395
