;Generated with Cura_SteamEngine 14.09
G28
; BEGINNING OF HEAD MOVEMENT WARNING TONES
M120 S4 P10
G4 P40
M120 S4 P10
G4 P40
M120 S4 P10
G4 P40
M120 S4 P10
G4 P40
M120 S4 P10
G4 P40
M117 KEEP HANDS AWAY
G4 S3
; END OF HEAD WARNING TONES
;Layer count: 38
;LAYER:0
M107
;G0 F9000 X9.386 Y14.883 Z0.300
;G0 X7.952 Y15.702
;TYPE:SKIRT
G1 F1200 X6.596 Y16.318 E0.07430
G1 X5.158 Y16.830 E0.15046
G1 X3.738 Y17.200 E0.22367
G1 X2.271 Y17.454 E0.29795
G1 X0.751 Y17.587 E0.37407
G1 X-0.631 Y17.587 E0.44302
G1 X-0.840 Y17.579 E0.45345
G1 X-2.236 Y17.460 E0.52335
G1 X-3.676 Y17.213 E0.59624
G1 X-5.120 Y16.840 E0.67065
G1 X-6.560 Y16.335 E0.74678
G1 X-7.894 Y15.731 E0.81984
G1 X-9.226 Y14.991 E0.89586
G1 X-10.337 Y14.240 E0.96276
G1 X-10.484 Y14.138 E0.97169
G1 X-11.604 Y13.235 E1.04346
G1 X-12.706 Y12.183 E1.11947
G1 X-13.674 Y11.082 E1.19261
G1 X-14.563 Y9.886 E1.26696
G1 X-15.349 Y8.614 E1.34156
G1 X-16.025 Y7.281 E1.41612
G1 X-16.584 Y5.896 E1.49064
G1 X-17.024 Y4.469 E1.56514
G1 X-17.349 Y2.979 E1.64122
G1 X-17.535 Y1.525 E1.71435
G1 X-17.603 Y0.005 E1.79026
G1 X-17.541 Y-1.461 E1.86347
G1 X-17.354 Y-2.941 E1.93789
G1 X-17.036 Y-4.431 E2.01390
G1 X-16.608 Y-5.832 E2.08699
G1 X-16.054 Y-7.218 E2.16146
G1 X-15.384 Y-8.553 E2.23598
G1 X-14.603 Y-9.827 E2.31053
G1 X-13.717 Y-11.030 E2.38507
G1 X-12.732 Y-12.154 E2.45963
G1 X-11.631 Y-13.213 E2.53584
G1 X-10.491 Y-14.132 E2.60890
G1 X-9.386 Y-14.883 E2.67555
G1 X-9.249 Y-14.978 E2.68387
G1 X-7.952 Y-15.702 E2.75798
G1 X-6.596 Y-16.318 E2.83228
G1 X-5.158 Y-16.830 E2.90844
G1 X-3.738 Y-17.200 E2.98165
G1 X-2.271 Y-17.454 E3.05592
G1 X-0.783 Y-17.584 E3.13044
G1 X0.561 Y-17.587 E3.19750
G1 X0.746 Y-17.587 E3.20672
G1 X2.204 Y-17.463 E3.27973
G1 X3.674 Y-17.214 E3.35411
G1 X5.120 Y-16.841 E3.42861
G1 X6.529 Y-16.346 E3.50312
G1 X7.892 Y-15.733 E3.57768
G1 X9.198 Y-15.007 E3.65223
G1 X10.334 Y-14.242 E3.72056
G1 X10.485 Y-14.137 E3.72973
G1 X11.628 Y-13.215 E3.80300
G1 X12.686 Y-12.203 E3.87604
G1 X13.672 Y-11.084 E3.95045
G1 X14.563 Y-9.886 E4.02493
G1 X15.349 Y-8.614 E4.09953
G1 X16.025 Y-7.281 E4.17410
G1 X16.584 Y-5.896 E4.24861
G1 X17.024 Y-4.470 E4.32307
G1 X17.342 Y-3.011 E4.39756
G1 X17.539 Y-1.497 E4.47374
G1 X17.603 Y-0.001 E4.54844
G1 X17.541 Y1.462 E4.62149
G1 X17.350 Y2.972 E4.69743
G1 X17.042 Y4.402 E4.77041
G1 X16.609 Y5.829 E4.84481
G1 X16.042 Y7.247 E4.92100
G1 X15.383 Y8.556 E4.99411
G1 X14.603 Y9.827 E5.06851
G1 X13.698 Y11.056 E5.14466
G1 X12.729 Y12.157 E5.21783
G1 X11.653 Y13.191 E5.29228
G1 X10.495 Y14.129 E5.36663
G1 X9.386 Y14.883 E5.43353
G1 X9.249 Y14.978 E5.44185
G1 X7.952 Y15.702 E5.51596
G0 F9000 X6.446 Y15.947
G1 F1200 X5.040 Y16.448 E5.59042
G1 X3.653 Y16.808 E5.66191
G1 X2.220 Y17.057 E5.73448
G1 X0.734 Y17.187 E5.80890
G1 X-0.624 Y17.187 E5.87665
G1 X-0.816 Y17.180 E5.88623
G1 X-2.186 Y17.063 E5.95483
G1 X-3.592 Y16.822 E6.02600
G1 X-5.004 Y16.457 E6.09876
G1 X-6.411 Y15.963 E6.17316
G1 X-7.715 Y15.373 E6.24456
G1 X-9.017 Y14.650 E6.31886
G1 X-10.111 Y13.910 E6.38476
G1 X-10.244 Y13.817 E6.39285
G1 X-11.340 Y12.934 E6.46307
G1 X-12.418 Y11.905 E6.53742
G1 X-13.363 Y10.830 E6.60883
G1 X-14.232 Y9.661 E6.68150
G1 X-15.000 Y8.418 E6.75440
G1 X-15.660 Y7.116 E6.82722
G1 X-16.207 Y5.762 E6.90008
G1 X-16.637 Y4.368 E6.97286
G1 X-16.954 Y2.911 E7.04725
G1 X-17.136 Y1.491 E7.11867
G1 X-17.203 Y0.005 E7.19289
G1 X-17.143 Y-1.428 E7.26444
G1 X-16.960 Y-2.874 E7.33716
G1 X-16.649 Y-4.330 E7.41144
G1 X-16.230 Y-5.699 E7.48286
G1 X-15.689 Y-7.054 E7.55565
G1 X-15.034 Y-8.359 E7.62850
G1 X-14.271 Y-9.603 E7.70131
G1 X-13.405 Y-10.779 E7.77417
G1 X-12.443 Y-11.878 E7.84704
G1 X-11.366 Y-12.913 E7.92156
G1 X-10.253 Y-13.810 E7.99288
G1 X-9.162 Y-14.552 E8.05870
G1 X-9.037 Y-14.638 E8.06627
G1 X-7.771 Y-15.345 E8.13861
G1 X-6.446 Y-15.947 E8.21122
G1 X-5.040 Y-16.448 E8.28569
G1 X-3.653 Y-16.808 E8.35718
G1 X-2.219 Y-17.057 E8.42979
G1 X-0.765 Y-17.184 E8.50261
G1 X0.562 Y-17.187 E8.56881
G1 X0.729 Y-17.187 E8.57714
G1 X2.154 Y-17.066 E8.64849
G1 X3.590 Y-16.822 E8.72116
G1 X5.003 Y-16.458 E8.79396
G1 X6.381 Y-15.974 E8.86682
G1 X7.712 Y-15.375 E8.93964
G1 X8.989 Y-14.666 E9.01251
G1 X10.109 Y-13.912 E9.07987
G1 X10.245 Y-13.817 E9.08815
G1 X11.363 Y-12.915 E9.15982
G1 X12.397 Y-11.925 E9.23124
G1 X13.361 Y-10.832 E9.30394
G1 X14.232 Y-9.661 E9.37675
G1 X15.000 Y-8.418 E9.44965
G1 X15.660 Y-7.116 E9.52248
G1 X16.207 Y-5.762 E9.59533
G1 X16.637 Y-4.368 E9.66811
G1 X16.948 Y-2.942 E9.74093
G1 X17.140 Y-1.463 E9.81533
G1 X17.203 Y-0.001 E9.88834
G1 X17.142 Y1.428 E9.95970
G1 X16.955 Y2.905 E10.03398
G1 X16.654 Y4.302 E10.10527
G1 X16.231 Y5.697 E10.17800
G1 X15.677 Y7.083 E10.25247
G1 X15.033 Y8.361 E10.32386
G1 X14.271 Y9.603 E10.39656
G1 X13.386 Y10.804 E10.47099
G1 X12.440 Y11.881 E10.54250
G1 X11.388 Y12.890 E10.61523
G1 X10.256 Y13.808 E10.68794
G1 X9.162 Y14.552 E10.75394
G1 X9.037 Y14.638 E10.76151
G1 X7.771 Y15.345 E10.83386
G1 X6.446 Y15.947 E10.90646
G1 F2400 E6.90646
G0 F9000 X1.664 Y5.132
;TYPE:WALL-INNER
G1 F2400 E10.90646
G1 F1200 X0.757 Y5.304 E10.95252
G1 X0.340 Y5.384 E10.97371
G1 X-1.010 Y5.299 E11.04119
G1 X-2.297 Y4.880 E11.10872
G1 X-3.439 Y4.157 E11.17615
G1 X-4.365 Y3.170 E11.24367
G1 X-5.016 Y1.984 E11.31117
G1 X-5.352 Y0.675 E11.37859
G1 X-5.352 Y-0.677 E11.44604
G1 X-5.015 Y-1.987 E11.51353
G1 X-4.364 Y-3.171 E11.58094
G1 X-3.439 Y-4.156 E11.64835
G1 X-2.295 Y-4.881 E11.71592
G1 X-1.011 Y-5.299 E11.78329
G1 X0.341 Y-5.384 E11.85087
G1 X1.664 Y-5.132 E11.91806
G1 X2.890 Y-4.554 E11.98569
G1 X3.933 Y-3.692 E12.05319
G1 X4.726 Y-2.600 E12.12052
G1 X5.226 Y-1.340 E12.18815
G1 X5.396 Y0.000 E12.25554
G1 X5.280 Y0.917 E12.30166
G1 X5.226 Y1.340 E12.32293
G1 X4.885 Y2.202 E12.36918
G1 X4.728 Y2.597 E12.39039
G1 X3.932 Y3.693 E12.45796
G1 X2.891 Y4.554 E12.52536
G1 X1.664 Y5.132 E12.59303
G0 F9000 X0.367 Y5.787
;TYPE:WALL-OUTER
G1 F1200 X-1.088 Y5.694 E12.66577
G1 X-2.468 Y5.246 E12.73815
G1 X-3.695 Y4.468 E12.81064
G1 X-4.692 Y3.406 E12.88331
G1 X-5.390 Y2.136 E12.95561
G1 X-5.752 Y0.725 E13.02828
G1 X-5.752 Y-0.725 E13.10063
G1 X-5.390 Y-2.136 E13.17330
G1 X-4.692 Y-3.406 E13.24560
G1 X-3.695 Y-4.468 E13.31827
G1 X-2.468 Y-5.246 E13.39076
G1 X-1.088 Y-5.695 E13.46316
G1 X0.367 Y-5.787 E13.53589
G1 X1.790 Y-5.515 E13.60817
G1 X3.107 Y-4.894 E13.68082
G1 X4.224 Y-3.971 E13.75311
G1 X5.081 Y-2.792 E13.82582
G1 X5.616 Y-1.439 E13.89841
G1 X5.799 Y0.000 E13.97078
G1 X5.616 Y1.439 E14.04315
G1 X5.080 Y2.794 E14.11585
G1 X4.227 Y3.968 E14.18825
G1 X3.105 Y4.895 E14.26086
G1 X1.790 Y5.515 E14.33339
G1 X0.367 Y5.787 E14.40567
G0 F9000 X0.417 Y5.226
;TYPE:FILL
G1 F1200 X-5.211 Y-0.403 E14.80279
G0 F9000 X-5.148 Y-0.905
G1 F1200 X0.893 Y5.135 E15.22898
G0 F9000 X1.368 Y5.045
G1 F1200 X-5.032 Y-1.355 E15.68054
G0 F9000 X-4.916 Y-1.805
G1 F1200 X1.801 Y4.912 E16.15446
G0 F9000 X2.184 Y4.730
G1 F1200 X-4.741 Y-2.195 E16.64305
G0 F9000 X-4.540 Y-2.560
G1 F1200 X2.569 Y4.549 E17.14463
G0 F9000 X2.926 Y4.340
G1 F1200 X-4.339 Y-2.925 E17.65722
G0 F9000 X-4.098 Y-3.249
G1 F1200 X3.236 Y4.084 E18.17463
G0 F9000 X3.546 Y3.828
G1 F1200 X-3.824 Y-3.541 E18.69459
G0 F9000 X-3.550 Y-3.833
G1 F1200 X3.849 Y3.566 E19.21663
G0 F9000 X4.087 Y3.239
G1 F1200 X-3.256 Y-4.105 E19.73476
G0 F9000 X-2.910 Y-4.324
G1 F1200 X4.326 Y2.911 E20.24526
G0 F9000 X4.563 Y2.583
G1 F1200 X-2.563 Y-4.543 E20.74804
G0 F9000 X-2.213 Y-4.759
G1 F1200 X4.737 Y2.192 E21.23843
G0 F9000 X4.898 Y1.786
G1 F1200 X-1.786 Y-4.898 E21.71002
G0 F9000 X-1.359 Y-5.036
G1 F1200 X5.057 Y1.380 E22.16271
G0 F9000 X5.140 Y0.898
G1 F1200 X-0.919 Y-5.161 E22.59020
G0 F9000 X-0.387 Y-5.195
G1 F1200 X5.204 Y0.395 E22.98464
G0 F9000 X5.236 Y-0.137
G1 F1200 X0.144 Y-5.229 E23.34391
G0 F9000 X0.782 Y-5.156
G1 F1200 X5.154 Y-0.784 E23.65238
G0 F9000 X5.014 Y-1.491
G1 F1200 X1.481 Y-5.023 E23.90162
G0 F9000 X2.479 Y-4.591
G1 F1200 X4.643 Y-2.427 E24.05430
G0 F9000 X-0.163 Y5.210
G1 F1200 X-5.211 Y0.162 E24.41046
G0 F9000 X-5.186 Y0.753
G1 F1200 X-0.767 Y5.171 E24.72221
G0 F9000 X-1.520 Y4.984
G1 F1200 X-4.990 Y1.514 E24.96704
G0 F9000 X-4.574 Y2.496
G1 F1200 X-2.460 Y4.611 E25.11623
G1 F2400 E21.11623
G0 F9000 X3.473 Y6.746
;TYPE:WALL-INNER
G1 F2400 E25.11623
G1 F1200 X3.721 Y6.445 E25.13569
G1 X4.097 Y6.378 E25.15474
G1 X4.426 Y6.568 E25.17369
G1 X4.559 Y6.929 E25.19289
G1 X4.431 Y7.281 E25.21157
G1 X4.091 Y7.478 E25.23118
G1 X3.729 Y7.415 E25.24951
G1 X3.474 Y7.116 E25.26912
G1 X3.473 Y6.746 E25.28757
G0 F9000 X4.170 Y5.960
;TYPE:WALL-OUTER
G1 F1200 X4.751 Y6.293 E25.32098
G1 X4.981 Y6.919 E25.35426
G1 X4.981 Y6.937 E25.35515
G1 X4.759 Y7.550 E25.38768
G1 X4.168 Y7.895 E25.42182
G1 X3.519 Y7.784 E25.45467
G1 X3.074 Y7.264 E25.48882
G1 X3.073 Y6.603 E25.52179
G1 X3.506 Y6.076 E25.55582
G1 X4.159 Y5.960 E25.58891
G1 X4.170 Y5.960 E25.58946
G0 F9000 X3.993 Y6.538
;TYPE:FILL
G1 F1200 X4.087 Y6.774 E25.61832
G1 X3.986 Y6.955 E25.65746
G1 X4.162 Y7.274 E25.67564
G1 F2400 E21.67564
G0 F9000 X-3.474 Y7.117
;TYPE:WALL-INNER
G1 F2400 E25.67564
G1 F1200 X-3.721 Y7.412 E25.69484
G1 X-4.100 Y7.480 E25.71405
G1 X-4.427 Y7.292 E25.73287
G1 X-4.557 Y6.938 E25.75168
G1 X-4.426 Y6.568 E25.77126
G1 X-4.098 Y6.378 E25.79017
G1 X-3.722 Y6.444 E25.80922
G1 X-3.479 Y6.732 E25.82802
G1 X-3.474 Y7.117 E25.84723
G0 F9000 X-4.178 Y5.961
;TYPE:WALL-OUTER
G1 F1200 X-3.509 Y6.075 E25.88109
G1 X-3.082 Y6.582 E25.91416
G1 X-3.073 Y7.262 E25.94808
G1 X-3.494 Y7.765 E25.98081
G1 X-3.510 Y7.781 E25.98194
G1 X-4.159 Y7.896 E26.01482
G1 X-4.472 Y7.737 E26.03234
G1 X-4.757 Y7.553 E26.04926
G1 X-4.982 Y6.939 E26.08188
G1 X-4.754 Y6.296 E26.11592
G1 X-4.178 Y5.961 E26.14916
G0 F9000 X-3.912 Y6.552
;TYPE:FILL
G1 F1200 X-3.972 Y7.001 E26.17001
G1 X-4.049 Y6.652 E26.20911
G1 X-3.773 Y7.257 E26.24228
G1 F2400 E22.24228
G0 F9000 X-7.901 Y0.549
;TYPE:WALL-INNER
G1 F2400 E26.24228
G1 F1200 X-8.281 Y0.483 E26.26152
G1 X-8.528 Y0.189 E26.28068
G1 X-8.537 Y-0.002 E26.29022
G1 X-8.529 Y-0.186 E26.29941
G1 X-8.281 Y-0.482 E26.31867
G1 X-7.902 Y-0.549 E26.33788
G1 X-7.579 Y-0.363 E26.35647
G1 X-7.441 Y0.001 E26.37589
G1 X-7.569 Y0.351 E26.39449
G1 X-7.901 Y0.549 E26.41377
G0 F9000 X-7.907 Y-0.669
G0 X-7.829 Y-0.969
;TYPE:WALL-OUTER
G1 F1200 X-7.255 Y-0.639 E26.44680
G1 X-7.015 Y-0.001 E26.48081
G1 X-7.241 Y0.621 E26.51383
G1 X-7.629 Y0.854 E26.53641
G1 X-7.827 Y0.968 E26.54781
G1 X-8.485 Y0.853 E26.58113
G1 X-8.495 Y0.849 E26.58167
G1 X-8.919 Y0.345 E26.61453
G1 X-8.937 Y0.000 E26.63176
G1 X-8.919 Y-0.344 E26.64895
G1 X-8.499 Y-0.846 E26.68160
G1 X-8.484 Y-0.852 E26.68241
G1 X-7.829 Y-0.969 E26.71560
G0 F9000 X-8.021 Y-0.384
;TYPE:FILL
G1 F1200 X-7.984 Y-0.065 E26.74508
G1 X-8.119 Y0.130 E26.78162
G1 X-8.253 Y-0.137 E26.80099
G1 X-8.115 Y0.369 E26.82716
G1 F2400 E22.82716
G0 F9000 X-4.426 Y-6.568
;TYPE:WALL-INNER
G1 F2400 E26.82716
G1 F1200 X-4.559 Y-6.929 E26.84635
G1 X-4.431 Y-7.281 E26.86504
G1 X-4.091 Y-7.478 E26.88464
G1 X-3.729 Y-7.415 E26.90298
G1 X-3.474 Y-7.116 E26.92258
G1 X-3.473 Y-6.746 E26.94104
G1 X-3.721 Y-6.445 E26.96050
G1 X-4.097 Y-6.378 E26.97955
G1 X-4.426 Y-6.568 E26.99851
G0 F9000 X-4.981 Y-6.937
;TYPE:WALL-OUTER
G1 F1200 X-4.759 Y-7.550 E27.03103
G1 X-4.168 Y-7.895 E27.06517
G1 X-3.519 Y-7.784 E27.09802
G1 X-3.074 Y-7.264 E27.13217
G1 X-3.073 Y-6.603 E27.16515
G1 X-3.506 Y-6.076 E27.19917
G1 X-4.159 Y-5.960 E27.23226
G1 X-4.179 Y-5.964 E27.23328
G1 X-4.751 Y-6.293 E27.26620
G1 X-4.982 Y-6.923 E27.29968
G1 X-4.981 Y-6.937 E27.30038
G0 F9000 X-4.403 Y-6.948
;TYPE:FILL
G1 F1200 X-4.160 Y-6.846 E27.32930
G1 X-3.967 Y-6.937 E27.36848
G1 X-3.645 Y-6.756 E27.38691
G1 F2400 E23.38691
G0 F9000 X-2.836 Y-10.214
;TYPE:WALL-INNER
G1 F2400 E27.38691
G1 F1200 X-3.923 Y-9.847 E27.44415
G1 X-4.966 Y-9.366 E27.50145
G1 X-5.948 Y-8.773 E27.55868
G1 X-6.862 Y-8.079 E27.61594
G1 X-7.695 Y-7.289 E27.67321
G1 X-8.438 Y-6.415 E27.73044
G1 X-9.083 Y-5.465 E27.78773
G1 X-9.435 Y-4.799 E27.82531
G1 X-9.620 Y-4.451 E27.84497
G1 X-10.045 Y-3.385 E27.90223
G1 X-10.353 Y-2.278 E27.95956
G1 X-10.474 Y-1.536 E27.99706
G1 X-10.538 Y-1.146 E28.01678
G1 X-10.601 Y0.000 E28.07404
G1 X-10.538 Y1.146 E28.13130
G1 X-10.417 Y1.889 E28.16886
G1 X-10.353 Y2.279 E28.18858
G1 X-10.045 Y3.385 E28.24585
G1 X-9.620 Y4.450 E28.30306
G1 X-9.268 Y5.116 E28.34064
G1 X-9.083 Y5.465 E28.36035
G1 X-8.438 Y6.415 E28.41764
G1 X-7.695 Y7.289 E28.47487
G1 X-6.862 Y8.079 E28.53214
G1 X-5.948 Y8.773 E28.58940
G1 X-4.966 Y9.366 E28.64663
G1 X-3.923 Y9.847 E28.70393
G1 X-2.836 Y10.214 E28.76117
G1 X-1.714 Y10.461 E28.81849
G1 X-0.965 Y10.542 E28.85607
G1 X-0.574 Y10.585 E28.87570
G1 X0.573 Y10.585 E28.93292
G1 X1.322 Y10.504 E28.97051
G1 X1.715 Y10.461 E28.99023
G1 X2.836 Y10.214 E29.04750
G1 X3.923 Y9.847 E29.10474
G1 X4.966 Y9.366 E29.16204
G1 X5.948 Y8.773 E29.21927
G1 X6.862 Y8.079 E29.27653
G1 X7.695 Y7.289 E29.33380
G1 X8.438 Y6.415 E29.39104
G1 X9.083 Y5.465 E29.44832
G1 X9.435 Y4.799 E29.48591
G1 X9.620 Y4.451 E29.50557
G1 X10.045 Y3.385 E29.56282
G1 X10.353 Y2.278 E29.62015
G1 X10.474 Y1.536 E29.65766
G1 X10.538 Y1.146 E29.67737
G1 X10.601 Y0.000 E29.73463
G1 X10.538 Y-1.146 E29.79189
G1 X10.417 Y-1.889 E29.82945
G1 X10.353 Y-2.279 E29.84917
G1 X10.045 Y-3.385 E29.90645
G1 X9.620 Y-4.450 E29.96365
G1 X9.268 Y-5.116 E30.00124
G1 X9.083 Y-5.465 E30.02094
G1 X8.438 Y-6.415 E30.07823
G1 X7.695 Y-7.289 E30.13546
G1 X6.862 Y-8.079 E30.19274
G1 X5.948 Y-8.773 E30.24999
G1 X4.966 Y-9.366 E30.30722
G1 X3.923 Y-9.847 E30.36453
G1 X2.836 Y-10.214 E30.42176
G1 X1.714 Y-10.461 E30.47908
G1 X0.965 Y-10.542 E30.51667
G1 X0.574 Y-10.585 E30.53629
G1 X-0.573 Y-10.585 E30.59352
G1 X-1.322 Y-10.504 E30.63110
G1 X-1.715 Y-10.461 E30.65083
G1 X-2.836 Y-10.214 E30.70809
G0 F9000 X-1.733 Y-13.285
G1 F1200 X-0.592 Y-13.384 E30.76523
G1 X0.567 Y-13.387 E30.82306
G1 X1.670 Y-13.293 E30.87828
G1 X2.801 Y-13.101 E30.93552
G1 X3.898 Y-12.818 E30.99204
G1 X4.971 Y-12.442 E31.04876
G1 X6.002 Y-11.978 E31.10517
G1 X7.002 Y-11.422 E31.16225
G1 X7.958 Y-10.778 E31.21976
G1 X8.856 Y-10.055 E31.27728
G1 X9.651 Y-9.294 E31.33218
G1 X10.404 Y-8.441 E31.38895
G1 X11.092 Y-7.515 E31.44650
G1 X11.682 Y-6.560 E31.50251
G1 X12.197 Y-5.544 E31.55933
G1 X12.624 Y-4.487 E31.61621
G1 X12.958 Y-3.403 E31.67280
G1 X13.200 Y-2.293 E31.72948
G1 X13.351 Y-1.134 E31.78779
G1 X13.400 Y0.000 E31.84442
G1 X13.353 Y1.106 E31.89964
G1 X13.207 Y2.257 E31.95753
G1 X12.971 Y3.355 E32.01356
G1 X12.643 Y4.435 E32.06987
G1 X12.210 Y5.517 E32.12801
G1 X11.713 Y6.505 E32.18319
G1 X11.112 Y7.485 E32.24054
G1 X10.425 Y8.417 E32.29831
G1 X9.694 Y9.248 E32.35353
G1 X8.868 Y10.042 E32.41069
G1 X7.984 Y10.758 E32.46744
G1 X7.023 Y11.411 E32.52541
G1 X6.054 Y11.951 E32.58075
G1 X5.020 Y12.422 E32.63744
G1 X3.929 Y12.810 E32.69521
G1 X2.844 Y13.092 E32.75114
G1 X1.733 Y13.285 E32.80739
G1 X0.565 Y13.387 E32.86589
G1 X-0.544 Y13.387 E32.92122
G1 X-1.709 Y13.290 E32.97954
G1 X-2.789 Y13.104 E33.03421
G1 X-3.898 Y12.818 E33.09135
G1 X-4.993 Y12.433 E33.14926
G1 X-6.005 Y11.976 E33.20466
G1 X-7.029 Y11.407 E33.26310
G1 X-7.958 Y10.778 E33.31908
G1 X-8.834 Y10.073 E33.37518
G1 X-9.671 Y9.274 E33.43291
G1 X-10.405 Y8.439 E33.48837
G1 X-11.092 Y7.515 E33.54581
G1 X-11.682 Y6.560 E33.60182
G1 X-12.197 Y5.543 E33.65869
G1 X-12.624 Y4.487 E33.71552
G1 X-12.958 Y3.403 E33.77211
G1 X-13.206 Y2.264 E33.83027
G1 X-13.347 Y1.159 E33.88584
G1 X-13.400 Y-0.002 E33.94382
G1 X-13.353 Y-1.110 E33.99915
G1 X-13.211 Y-2.232 E34.05558
G1 X-12.966 Y-3.377 E34.11399
G1 X-12.642 Y-4.438 E34.16934
G1 X-12.219 Y-5.497 E34.22623
G1 X-11.715 Y-6.501 E34.28228
G1 X-11.112 Y-7.485 E34.33986
G1 X-10.437 Y-8.400 E34.39658
G1 X-9.699 Y-9.243 E34.45248
G1 X-8.850 Y-10.060 E34.51126
G1 X-7.983 Y-10.758 E34.56679
G1 X-7.023 Y-11.411 E34.62472
G1 X-6.054 Y-11.951 E34.68006
G1 X-5.020 Y-12.422 E34.73675
G1 X-3.929 Y-12.810 E34.79452
G1 X-2.844 Y-13.092 E34.85045
G1 X-1.733 Y-13.285 E34.90671
G0 F9000 X-0.616 Y-13.784
;TYPE:WALL-OUTER
G1 F1200 X0.589 Y-13.787 E34.96682
G1 X1.723 Y-13.691 E35.02360
G1 X2.874 Y-13.495 E35.08185
G1 X4.015 Y-13.201 E35.14064
G1 X5.126 Y-12.811 E35.19938
G1 X6.181 Y-12.336 E35.25710
G1 X7.209 Y-11.765 E35.31577
G1 X8.189 Y-11.105 E35.37472
