;Generated with Cura_SteamEngine 14.09
G28
M104 S210
M190 S50
M109 S210
; BEGINNING OF HEAD MOVEMENT WARNING TONES
M120 S4 P10
G4 P40
M120 S4 P10
G4 P40
M120 S4 P10
G4 P40
M120 S4 P10
G4 P40
M120 S4 P10
G4 P40
M117 KEEP HANDS AWAY
G4 S3
; END OF HEAD WARNING TONES
;Layer count: 50
;LAYER:0
M107
G0 F9000 X-32.692 Y0.223 Z0.300
G0 X-32.702 Y0.046
;TYPE:SKIRT
G1 F1200 X-32.644 Y-1.935 E0.14831
G1 X-32.475 Y-3.831 E0.29076
G1 X-32.186 Y-5.782 E0.43836
G1 X-31.795 Y-7.643 E0.58067
G1 X-31.287 Y-9.512 E0.72561
G1 X-30.668 Y-11.349 E0.87068
G1 X-29.941 Y-13.147 E1.01581
G1 X-29.109 Y-14.897 E1.16082
G1 X-28.176 Y-16.594 E1.30575
G1 X-27.123 Y-18.267 E1.45368
G1 X-26.014 Y-19.813 E1.59607
G1 X-24.796 Y-21.316 E1.74084
G1 X-23.490 Y-22.748 E1.88588
G1 X-22.100 Y-24.100 E2.03099
G1 X-20.635 Y-25.367 E2.17594
G1 X-19.065 Y-26.568 E2.32386
G1 X-17.487 Y-27.631 E2.46625
G1 X-15.822 Y-28.617 E2.61106
G1 X-14.098 Y-29.505 E2.75618
G1 X-12.325 Y-30.287 E2.90120
G1 X-10.475 Y-30.978 E3.04899
G1 X-8.654 Y-31.533 E3.19145
G1 X-6.772 Y-31.990 E3.33638
G1 X-4.866 Y-32.335 E3.48134
G1 X-2.943 Y-32.566 E3.62628
G1 X-0.972 Y-32.687 E3.77406
G1 X0.969 Y-32.687 E3.91931
G1 X2.866 Y-32.575 E4.06152
G1 X4.789 Y-32.348 E4.20643
G1 X6.733 Y-32.000 E4.35422
G1 X8.583 Y-31.554 E4.49663
G1 X10.436 Y-30.991 E4.64156
G1 X12.288 Y-30.304 E4.78939
G1 X14.029 Y-29.538 E4.93173
G1 X15.753 Y-28.655 E5.07668
G1 X17.423 Y-27.672 E5.22170
G1 X19.062 Y-26.571 E5.36946
G1 X20.575 Y-25.416 E5.51191
G1 X22.043 Y-24.153 E5.65683
G1 X23.462 Y-22.779 E5.80464
G1 X24.746 Y-21.375 E5.94702
G1 X25.991 Y-19.844 E6.09470
G1 X27.100 Y-18.299 E6.23702
G1 X28.136 Y-16.662 E6.38200
G1 X29.073 Y-14.966 E6.52700
G1 X29.925 Y-13.184 E6.67482
G1 X30.640 Y-11.421 E6.81719
G1 X31.262 Y-9.588 E6.96204
G1 X31.786 Y-7.682 E7.10997
G1 X32.177 Y-5.820 E7.25235
G1 X32.465 Y-3.907 E7.39713
G1 X32.644 Y-1.938 E7.54509
G1 X32.695 Y-0.176 E7.67700
G1 X32.702 Y-0.047 E7.68667
G1 X32.646 Y1.898 E7.83228
G1 X32.476 Y3.829 E7.97735
G1 X32.192 Y5.746 E8.12237
G1 X31.786 Y7.679 E8.27019
G1 X31.276 Y9.549 E8.41524
G1 X30.667 Y11.351 E8.55759
G1 X29.927 Y13.181 E8.70531
G1 X29.092 Y14.932 E8.85048
G1 X28.157 Y16.628 E8.99541
G1 X27.122 Y18.268 E9.14054
G1 X26.050 Y19.762 E9.27815
G1 X25.949 Y19.897 E9.29076
G1 X24.771 Y21.348 E9.43063
G1 X23.463 Y22.777 E9.57560
G1 X22.072 Y24.128 E9.72072
G1 X20.604 Y25.393 E9.86574
G1 X19.064 Y26.569 E10.01074
G1 X17.456 Y27.652 E10.15583
G1 X15.788 Y28.637 E10.30079
G1 X14.096 Y29.506 E10.44314
G1 X12.291 Y30.303 E10.59079
G1 X10.473 Y30.978 E10.73592
G1 X8.619 Y31.545 E10.88101
G1 X6.734 Y32.000 E11.02612
G1 X4.864 Y32.335 E11.16829
G1 X2.906 Y32.571 E11.31588
G1 X0.970 Y32.687 E11.46102
G1 X-0.970 Y32.687 E11.60620
G1 X-2.903 Y32.571 E11.75112
G1 X-4.790 Y32.348 E11.89332
G1 X-6.733 Y32.000 E12.04104
G1 X-8.619 Y31.545 E12.18622
G1 X-10.473 Y30.978 E12.33131
G1 X-12.289 Y30.304 E12.47627
G1 X-14.029 Y29.538 E12.61854
G1 X-15.753 Y28.655 E12.76350
G1 X-17.422 Y27.672 E12.90845
G1 X-19.032 Y26.592 E13.05353
G1 X-20.574 Y25.417 E13.19861
G1 X-22.042 Y24.154 E13.34354
G1 X-23.436 Y22.805 E13.48871
G1 X-24.744 Y21.376 E13.63368
G1 X-25.967 Y19.874 E13.77863
G1 X-27.121 Y18.270 E13.92650
G1 X-28.137 Y16.660 E14.06897
G1 X-29.073 Y14.967 E14.21374
G1 X-29.910 Y13.218 E14.35885
G1 X-30.640 Y11.423 E14.50386
G1 X-31.262 Y9.588 E14.64886
G1 X-31.786 Y7.682 E14.79679
G1 X-32.177 Y5.821 E14.93909
G1 X-32.471 Y3.869 E15.08682
G1 X-32.640 Y1.972 E15.22935
G1 X-32.692 Y0.223 E15.36029
G1 X-32.702 Y0.046 E15.37356
G1 F2400 E7.37356
G0 F9000 X-27.850 Y-1.648
;TYPE:WALL-INNER
G1 F2400 E15.37356
G1 F1200 X-27.707 Y-3.260 E15.49467
G1 X-27.459 Y-4.936 E15.62146
G1 X-27.127 Y-6.515 E15.74220
G1 X-26.692 Y-8.113 E15.86614
G1 X-26.163 Y-9.686 E15.99034
G1 X-25.542 Y-11.221 E16.11425
G1 X-24.837 Y-12.702 E16.23700
G1 X-24.040 Y-14.154 E16.36096
G1 X-23.139 Y-15.585 E16.48750
G1 X-22.185 Y-16.914 E16.60993
G1 X-21.160 Y-18.179 E16.73177
G1 X-20.039 Y-19.409 E16.85631
G1 X-18.858 Y-20.558 E16.97962
G1 X-17.602 Y-21.643 E17.10383
G1 X-16.262 Y-22.670 E17.23017
G1 X-14.932 Y-23.565 E17.35014
G1 X-13.483 Y-24.423 E17.47616
G1 X-12.026 Y-25.173 E17.59879
G1 X-10.522 Y-25.837 E17.72183
G1 X-8.941 Y-26.427 E17.84811
G1 X-7.387 Y-26.901 E17.96970
G1 X-5.772 Y-27.293 E18.09406
G1 X-4.148 Y-27.587 E18.21757
G1 X-2.511 Y-27.784 E18.34096
G1 X-2.113 Y-27.808 E18.37080
G1 X-2.250 Y-27.721 E18.38295
G1 X-2.857 Y-27.076 E18.44923
G1 X-3.284 Y-26.300 E18.51551
G1 X-3.504 Y-25.443 E18.58172
G1 X-3.504 Y-24.556 E18.64810
G1 X-3.284 Y-23.699 E18.71432
G1 X-2.857 Y-22.923 E18.78060
G1 X-2.250 Y-22.278 E18.84688
G1 X-1.504 Y-21.804 E18.91302
G1 X-0.662 Y-21.530 E18.97929
G1 X0.221 Y-21.474 E19.04550
G1 X1.092 Y-21.640 E19.11186
G1 X1.893 Y-22.018 E19.17814
G1 X2.574 Y-22.582 E19.24431
G1 X3.095 Y-23.297 E19.31052
G1 X3.421 Y-24.122 E19.37690
G1 X3.531 Y-25.000 E19.44312
G1 X3.421 Y-25.877 E19.50926
G1 X3.095 Y-26.702 E19.57565
G1 X2.574 Y-27.417 E19.64185
G1 X2.097 Y-27.812 E19.68820
G1 X4.084 Y-27.597 E19.83777
G1 X5.759 Y-27.298 E19.96510
G1 X7.314 Y-26.923 E20.08480
G1 X8.897 Y-26.441 E20.20864
G1 X10.492 Y-25.850 E20.33593
G1 X11.966 Y-25.202 E20.45642
G1 X13.434 Y-24.449 E20.57989
G1 X14.866 Y-23.607 E20.70421
G1 X16.272 Y-22.662 E20.83098
G1 X17.550 Y-21.687 E20.95128
G1 X18.803 Y-20.609 E21.07497
G1 X20.019 Y-19.431 E21.20167
G1 X21.102 Y-18.247 E21.32175
G1 X22.176 Y-16.927 E21.44910
G1 X23.120 Y-15.611 E21.57030
G1 X24.003 Y-14.215 E21.69392
G1 X24.809 Y-12.759 E21.81846
G1 X25.530 Y-11.250 E21.94361
G1 X26.143 Y-9.739 E22.06564
G1 X26.672 Y-8.179 E22.18891
G1 X27.116 Y-6.562 E22.31440
G1 X27.453 Y-4.961 E22.43684
G1 X27.696 Y-3.341 E22.55943
G1 X27.851 Y-1.643 E22.68703
G1 X27.898 Y0.025 E22.81190
G1 X27.852 Y1.615 E22.93094
G1 X27.708 Y3.253 E23.05399
G1 X27.464 Y4.905 E23.17896
G1 X27.118 Y6.553 E23.30498
G1 X26.682 Y8.149 E23.42879
G1 X26.164 Y9.684 E23.55003
G1 X25.536 Y11.236 E23.67532
G1 X25.140 Y12.068 E23.74428
G1 X25.133 Y11.910 E23.75611
G1 X24.876 Y11.063 E23.82235
G1 X24.418 Y10.306 E23.88856
G1 X23.786 Y9.687 E23.95477
G1 X23.020 Y9.243 E24.02102
G1 X22.165 Y9.005 E24.08744
G1 X21.281 Y8.988 E24.15361
G1 X20.419 Y9.189 E24.21984
G1 X19.633 Y9.600 E24.28622
G1 X18.976 Y10.192 E24.35240
G1 X18.487 Y10.928 E24.41853
G1 X18.195 Y11.766 E24.48494
G1 X18.122 Y12.647 E24.55110
G1 X18.268 Y13.519 E24.61726
G1 X18.629 Y14.329 E24.68363
G1 X19.179 Y15.023 E24.74989
G1 X19.884 Y15.559 E24.81617
G1 X20.701 Y15.901 E24.88245
G1 X21.577 Y16.031 E24.94872
G1 X22.456 Y15.938 E25.01487
G1 X23.042 Y15.721 E25.06164
G1 X22.170 Y16.935 E25.17349
G1 X21.133 Y18.213 E25.29666
G1 X20.018 Y19.432 E25.42029
G1 X18.838 Y20.578 E25.54338
G1 X17.576 Y21.665 E25.66803
G1 X16.259 Y22.671 E25.79205
G1 X14.902 Y23.585 E25.91449
G1 X13.456 Y24.439 E26.04016
G1 X12.033 Y25.170 E26.15988
G1 X10.483 Y25.854 E26.28667
G1 X8.944 Y26.426 E26.40954
G1 X7.346 Y26.914 E26.53458
G1 X5.742 Y27.302 E26.65808
G1 X4.157 Y27.586 E26.77858
G1 X2.473 Y27.789 E26.90551
G1 X0.831 Y27.887 E27.02861
G1 X-0.831 Y27.887 E27.15299
G1 X-2.464 Y27.789 E27.27542
G1 X-4.086 Y27.597 E27.39765
G1 X-5.755 Y27.298 E27.52453
G1 X-7.346 Y26.914 E27.64702
G1 X-8.944 Y26.426 E27.77205
G1 X-10.482 Y25.855 E27.89483
G1 X-11.966 Y25.202 E28.01616
G1 X-13.434 Y24.449 E28.13963
G1 X-14.875 Y23.602 E28.26471
G1 X-16.234 Y22.689 E28.38723
G1 X-17.553 Y21.684 E28.51133
G1 X-18.803 Y20.609 E28.63471
G1 X-19.995 Y19.455 E28.75887
G1 X-21.111 Y18.237 E28.88249
G1 X-22.149 Y16.961 E29.00559
G1 X-23.036 Y15.729 E29.11919
G1 X-22.881 Y15.810 E29.13228
G1 X-22.019 Y16.011 E29.19852
G1 X-21.135 Y15.994 E29.26469
G1 X-20.280 Y15.756 E29.33110
G1 X-19.514 Y15.312 E29.39736
G1 X-18.882 Y14.693 E29.46356
G1 X-18.424 Y13.936 E29.52978
G1 X-18.167 Y13.089 E29.59601
G1 X-18.130 Y12.203 E29.66238
G1 X-18.314 Y11.337 E29.72863
G1 X-18.709 Y10.546 E29.79480
G1 X-19.285 Y9.875 E29.86097
G1 X-20.014 Y9.369 E29.92738
G1 X-20.844 Y9.061 E29.99363
G1 X-21.723 Y8.968 E30.05978
G1 X-22.599 Y9.098 E30.12606
G1 X-23.416 Y9.440 E30.19234
G1 X-24.121 Y9.976 E30.25861
G1 X-24.671 Y10.670 E30.32488
G1 X-25.032 Y11.480 E30.39124
G1 X-25.133 Y12.081 E30.43685
G1 X-25.519 Y11.273 E30.50386
G1 X-26.140 Y9.747 E30.62716
G1 X-26.672 Y8.179 E30.75107
G1 X-27.116 Y6.562 E30.87656
G1 X-27.452 Y4.963 E30.99883
G1 X-27.703 Y3.300 E31.12469
G1 X-27.846 Y1.684 E31.24610
G1 X-27.898 Y-0.031 E31.37450
G1 X-27.850 Y-1.648 E31.49556
G0 F9000 X-6.401 Y-0.809
G1 F1200 X-6.401 Y0.809 E31.61664
G1 X-5.999 Y2.375 E31.73764
G1 X-5.325 Y3.599 E31.84220
G1 X-5.221 Y3.790 E31.85848
G1 X-4.131 Y4.949 E31.97754
G1 X-2.751 Y5.836 E32.10031
G1 X-1.209 Y6.337 E32.22164
G1 X0.405 Y6.439 E32.34267
G1 X1.994 Y6.136 E32.46372
G1 X3.456 Y5.446 E32.58471
G1 X4.703 Y4.416 E32.70574
G1 X5.653 Y3.107 E32.82678
G1 X6.159 Y1.829 E32.92965
G1 X6.247 Y1.617 E32.94682
G1 X6.421 Y0.238 E33.05084
G1 X6.455 Y0.025 E33.06698
G1 X6.273 Y-1.416 E33.17568
G1 X6.239 Y-1.627 E33.19167
G1 X5.728 Y-2.919 E33.29564
G1 X5.645 Y-3.118 E33.31178
G1 X4.837 Y-4.232 E33.41477
G1 X4.708 Y-4.412 E33.43134
G1 X3.456 Y-5.446 E33.55285
G1 X2.188 Y-6.044 E33.65777
G1 X1.998 Y-6.135 E33.67353
G1 X0.629 Y-6.396 E33.77783
G1 X0.412 Y-6.439 E33.79438
G1 X-1.209 Y-6.337 E33.91593
G1 X-2.719 Y-5.846 E34.03476
G1 X-4.109 Y-4.974 E34.15755
G1 X-5.199 Y-3.814 E34.27667
G1 X-5.998 Y-2.378 E34.39965
G1 X-6.401 Y-0.809 E34.52088
G0 F9000 X-5.436 Y-2.154
G1 F1200 X-5.801 Y-0.733 E34.63067
G1 X-5.801 Y0.733 E34.74038
G1 X-5.436 Y2.152 E34.85003
G1 X-4.798 Y3.312 E34.94910
G1 X-4.731 Y3.435 E34.95958
G1 X-3.745 Y4.484 E35.06732
G1 X-2.492 Y5.289 E35.17877
G1 X-1.095 Y5.743 E35.28870
G1 X0.367 Y5.835 E35.39833
G1 X1.807 Y5.561 E35.50802
G1 X3.132 Y4.936 E35.61766
G1 X4.262 Y4.002 E35.72737
G1 X5.123 Y2.816 E35.83704
G1 X5.605 Y1.598 E35.93507
G1 X5.662 Y1.462 E35.94611
G1 X5.825 Y0.167 E36.04378
G1 X5.849 Y0.015 E36.05530
G1 X5.679 Y-1.331 E36.15683
G1 X5.657 Y-1.468 E36.16721
G1 X5.172 Y-2.694 E36.26588
G1 X5.118 Y-2.822 E36.27627
G1 X4.344 Y-3.889 E36.37492
G1 X4.265 Y-4.000 E36.38511
G1 X3.132 Y-4.936 E36.49509
G1 X1.933 Y-5.501 E36.59429
G1 X1.809 Y-5.560 E36.60456
G1 X0.512 Y-5.807 E36.70337
G1 X0.371 Y-5.836 E36.71414
G1 X-1.095 Y-5.743 E36.82407
G1 X-2.463 Y-5.299 E36.93170
G1 X-3.724 Y-4.507 E37.04314
G1 X-4.711 Y-3.457 E37.15098
G1 X-5.436 Y-2.154 E37.26257
G0 F9000 X-19.213 Y10.880
G1 F1200 X-19.690 Y10.324 E37.31739
G1 X-20.294 Y9.905 E37.37240
G1 X-20.982 Y9.650 E37.42731
G1 X-21.711 Y9.573 E37.48217
G1 X-22.437 Y9.680 E37.53709
G1 X-23.113 Y9.964 E37.59196
G1 X-23.698 Y10.408 E37.64692
G1 X-24.154 Y10.983 E37.70184
G1 X-24.453 Y11.654 E37.75681
G1 X-24.574 Y12.377 E37.81167
G1 X-24.513 Y13.107 E37.86649
G1 X-24.271 Y13.802 E37.92156
G1 X-23.866 Y14.412 E37.97636
G1 X-23.321 Y14.903 E38.03126
G1 X-22.670 Y15.243 E38.08622
G1 X-21.956 Y15.410 E38.14109
G1 X-21.223 Y15.396 E38.19596
G1 X-20.515 Y15.198 E38.25097
G1 X-19.880 Y14.830 E38.30590
G1 X-19.356 Y14.318 E38.36072
G1 X-18.976 Y13.690 E38.41565
G1 X-18.764 Y12.988 E38.47053
G1 X-18.733 Y12.254 E38.52551
G1 X-18.885 Y11.536 E38.58043
G1 X-19.213 Y10.880 E38.63532
G0 F9000 X-21.006 Y9.750
G0 X-23.061 Y10.053
G0 X-24.354 Y11.684
G0 X-25.339 Y13.040
G1 F1200 X-26.069 Y11.513 E38.76198
G1 X-26.706 Y9.946 E38.88856
G1 X-27.244 Y8.362 E39.01375
G1 X-27.701 Y6.696 E39.14303
G1 X-28.042 Y5.072 E39.26722
G1 X-28.300 Y3.362 E39.39663
G1 X-28.444 Y1.737 E39.51872
G1 X-28.498 Y-0.004 E39.64907
G1 X-28.448 Y-1.702 E39.77619
G1 X-28.304 Y-3.333 E39.89872
G1 X-28.051 Y-5.033 E40.02735
G1 X-27.710 Y-6.655 E40.15138
G1 X-27.264 Y-8.298 E40.27879
G1 X-26.725 Y-9.898 E40.40513
G1 X-26.101 Y-11.442 E40.52976
G1 X-25.365 Y-12.988 E40.65790
G1 X-24.555 Y-14.462 E40.78376
G1 X-23.636 Y-15.922 E40.91286
G1 X-22.674 Y-17.263 E41.03637
G1 X-21.605 Y-18.582 E41.16343
G1 X-20.477 Y-19.819 E41.28871
G1 X-19.254 Y-21.009 E41.41641
G1 X-17.989 Y-22.102 E41.54151
G1 X-16.618 Y-23.152 E41.67075
G1 X-15.232 Y-24.085 E41.79578
G1 X-13.788 Y-24.940 E41.92136
G1 X-12.282 Y-25.716 E42.04815
G1 X-10.749 Y-26.392 E42.17353
G1 X-9.131 Y-26.996 E42.30277
G1 X-7.546 Y-27.480 E42.42679
G1 X-5.903 Y-27.879 E42.55332
G1 X-4.242 Y-28.179 E42.67964
G1 X-2.552 Y-28.382 E42.80702
G1 X-0.849 Y-28.487 E42.93470
G1 X0.852 Y-28.487 E43.06200
G1 X2.486 Y-28.390 E43.18449
G1 X4.176 Y-28.191 E43.31184
G1 X5.868 Y-27.888 E43.44047
G1 X7.480 Y-27.500 E43.56455
G1 X9.090 Y-27.010 E43.69050
G1 X10.714 Y-26.408 E43.82011
G1 X12.220 Y-25.746 E43.94322
G1 X13.731 Y-24.971 E44.07030
G1 X15.185 Y-24.115 E44.19657
G1 X16.620 Y-23.152 E44.32590
G1 X17.927 Y-22.154 E44.44896
G1 X19.214 Y-21.047 E44.57600
G1 X20.448 Y-19.852 E44.70455
G1 X21.561 Y-18.634 E44.82803
G1 X22.652 Y-17.293 E44.95740
G1 X23.614 Y-15.953 E45.08084
G1 X24.522 Y-14.519 E45.20786
G1 X25.339 Y-13.040 E45.33431
G1 X26.082 Y-11.487 E45.46314
G1 X26.704 Y-9.953 E45.58702
G1 X27.244 Y-8.362 E45.71275
G1 X27.701 Y-6.696 E45.84203
G1 X28.042 Y-5.072 E45.96621
G1 X28.294 Y-3.398 E46.09290
G1 X28.448 Y-1.699 E46.22057
G1 X28.498 Y-0.004 E46.34747
G1 X28.451 Y1.652 E46.47144
G1 X28.302 Y3.343 E46.59848
G1 X28.057 Y4.999 E46.72376
G1 X27.700 Y6.701 E46.85390
G1 X27.259 Y8.315 E46.97911
G1 X26.725 Y9.897 E47.10406
G1 X26.079 Y11.494 E47.23298
G1 X25.355 Y13.011 E47.35877
G1 X24.540 Y14.491 E47.48521
G1 X23.640 Y15.917 E47.61140
G1 X22.669 Y17.270 E47.73603
G1 X21.584 Y18.610 E47.86506
G1 X20.455 Y19.844 E47.99023
G1 X19.231 Y21.032 E48.11788
G1 X17.954 Y22.132 E48.24401
G1 X16.627 Y23.146 E48.36899
G1 X15.208 Y24.101 E48.49699
G1 X13.760 Y24.957 E48.62287
G1 X12.281 Y25.716 E48.74727
G1 X10.714 Y26.408 E48.87547
G1 X9.128 Y26.997 E49.00208
G1 X7.509 Y27.492 E49.12877
G1 X5.871 Y27.887 E49.25486
G1 X4.248 Y28.178 E49.37826
G1 X2.515 Y28.387 E49.50889
G1 X0.850 Y28.487 E49.63371
G1 X-0.850 Y28.487 E49.76093
G1 X-2.519 Y28.387 E49.88606
G1 X-4.177 Y28.191 E50.01100
G1 X-5.868 Y27.888 E50.13956
G1 X-7.509 Y27.492 E50.26589
G1 X-9.128 Y26.997 E50.39259
G1 X-10.713 Y26.408 E50.51912
G1 X-12.220 Y25.746 E50.64230
G1 X-13.731 Y24.971 E50.76939
G1 X-15.189 Y24.113 E50.89599
G1 X-16.590 Y23.172 E51.02228
G1 X-17.935 Y22.147 E51.14883
G1 X-19.205 Y21.055 E51.27418
G1 X-20.423 Y19.875 E51.40109
G1 X-21.569 Y18.624 E51.52805
G1 X-22.626 Y17.326 E51.65332
G1 X-23.645 Y15.909 E51.78393
G1 X-24.517 Y14.527 E51.90622
G1 X-25.339 Y13.040 E52.03337
G0 F9000 X-1.865 Y-22.744
G1 F1200 X-1.247 Y-22.351 E52.08818
G1 X-0.549 Y-22.124 E52.14311
G1 X0.183 Y-22.078 E52.19800
G1 X0.905 Y-22.215 E52.25299
G1 X1.569 Y-22.528 E52.30793
G1 X2.133 Y-22.996 E52.36277
G1 X2.565 Y-23.589 E52.41768
G1 X2.835 Y-24.272 E52.47264
G1 X2.926 Y-25.000 E52.52754
G1 X2.835 Y-25.727 E52.58237
G1 X2.565 Y-26.410 E52.63733
G1 X2.133 Y-27.003 E52.69224
G1 X1.569 Y-27.471 E52.74708
G1 X0.905 Y-27.784 E52.80202
G1 X0.183 Y-27.921 E52.85701
G1 X-0.549 Y-27.875 E52.91190
G1 X-1.247 Y-27.648 E52.96683
G1 X-1.865 Y-27.255 E53.02164
G1 X-2.368 Y-26.720 E53.07659
G1 X-2.721 Y-26.077 E53.13148
G1 X-2.904 Y-25.367 E53.18635
G1 X-2.904 Y-24.632 E53.24136
G1 X-2.721 Y-23.922 E53.29623
G1 X-2.368 Y-23.279 E53.35112
G1 X-1.865 Y-22.744 E53.40607
G0 F9000 X19.979 Y10.096
G1 F1200 X19.434 Y10.587 E53.46097
G1 X19.029 Y11.197 E53.51576
G1 X18.787 Y11.892 E53.57084
G1 X18.726 Y12.622 E53.62566
G1 X18.847 Y13.345 E53.68052
G1 X19.146 Y14.016 E53.73549
G1 X19.602 Y14.591 E53.79041
G1 X20.187 Y15.035 E53.84537
G1 X20.863 Y15.319 E53.90024
G1 X21.589 Y15.426 E53.95516
G1 X22.318 Y15.349 E54.01002
G1 X23.006 Y15.094 E54.06493
G1 X23.609 Y14.675 E54.11988
G1 X24.089 Y14.119 E54.17484
G1 X24.415 Y13.462 E54.22973
G1 X24.567 Y12.745 E54.28458
G1 X24.536 Y12.011 E54.33956
G1 X24.324 Y11.309 E54.39444
G1 X23.944 Y10.681 E54.44937
G1 X23.420 Y10.169 E54.50419
G1 X22.785 Y9.801 E54.55912
G1 X22.077 Y9.603 E54.61413
G1 X21.344 Y9.589 E54.66900
G1 X20.630 Y9.756 E54.72387
G1 X19.979 Y10.096 E54.77883
G0 F9000 X20.841 Y10.323
;TYPE:WALL-OUTER
G1 F1200 X20.324 Y10.593 E54.82248
G1 X19.892 Y10.982 E54.86599
G1 X19.570 Y11.466 E54.90949
G1 X19.378 Y12.017 E54.95315
