;Generated with Cura_SteamEngine 14.09
G28
M190 S50
; BEGINNING OF HEAD MOVEMENT WARNING TONES
M120 S4 P10
G4 P40
M120 S4 P10
G4 P40
M120 S4 P10
G4 P40
M120 S4 P10
G4 P40
M120 S4 P10
G4 P40
M117 KEEP HANDS AWAY
G4 S3
; END OF HEAD WARNING TONES
;Layer count: 7
;LAYER:0
M106 S127
G0 F9000 X6.305 Y54.138 Z0.150
G0 X5.863 Y54.197
;TYPE:SKIRT
G1 F1200 X3.781 Y54.376 E0.04678
G1 X1.467 Y54.489 E0.09865
G1 X-1.145 Y54.502 E0.15713
G1 X-3.251 Y54.412 E0.20432
G1 X-5.560 Y54.224 E0.25619
G1 X-7.891 Y53.935 E0.30878
G1 X-10.466 Y53.500 E0.36724
G1 X-12.523 Y53.051 E0.41438
G1 X-14.767 Y52.470 E0.46627
G1 X-17.013 Y51.786 E0.51884
G1 X-19.475 Y50.916 E0.57730
G1 X-21.672 Y50.021 E0.63041
G1 X-23.802 Y49.042 E0.68289
G1 X-25.657 Y48.093 E0.72954
G1 X-27.910 Y46.827 E0.78740
G1 X-29.919 Y45.569 E0.84047
G1 X-31.636 Y44.387 E0.88714
G1 X-33.703 Y42.846 E0.94486
G1 X-35.334 Y41.506 E0.99212
G1 X-37.266 Y39.786 E1.05003
G1 X-38.959 Y38.129 E1.10307
G1 X-40.249 Y36.753 E1.14529
G1 X-40.563 Y36.417 E1.15559
G1 X-42.093 Y34.640 E1.20809
G1 X-43.545 Y32.795 E1.26065
G1 X-44.760 Y31.107 E1.30722
G1 X-46.190 Y28.952 E1.36512
G1 X-47.269 Y27.142 E1.41229
G1 X-48.507 Y24.876 E1.47010
G1 X-49.543 Y22.740 E1.52325
G1 X-50.370 Y20.830 E1.56985
G1 X-51.306 Y18.423 E1.62767
G1 X-52.058 Y16.174 E1.68076
G1 X-52.632 Y14.174 E1.72735
G1 X-53.251 Y11.665 E1.78520
G1 X-53.657 Y9.595 E1.83243
G1 X-54.057 Y7.044 E1.89024
G1 X-54.312 Y4.683 E1.94341
G1 X-54.445 Y2.607 E1.98998
G1 X-54.514 Y0.027 E2.04776
G1 X-54.463 Y-2.343 E2.10083
G1 X-54.329 Y-4.423 E2.14750
G1 X-54.063 Y-6.993 E2.20534
G1 X-53.748 Y-9.077 E2.25253
G1 X-53.262 Y-11.616 E2.31040
G1 X-52.706 Y-13.920 E2.36347
G1 X-52.130 Y-15.923 E2.41013
G1 X-51.323 Y-18.376 E2.46794
G1 X-50.476 Y-20.588 E2.52097
G1 X-49.648 Y-22.500 E2.56762
G1 X-48.530 Y-24.832 E2.62552
G1 X-47.529 Y-26.685 E2.67267
G1 X-46.216 Y-28.910 E2.73051
G1 X-44.914 Y-30.893 E2.78362
G1 X-43.698 Y-32.581 E2.83020
G1 X-42.109 Y-34.621 E2.88809
G1 X-40.562 Y-36.419 E2.94119
G1 X-39.277 Y-37.790 E2.98326
G1 X-38.961 Y-38.128 E2.99362
G1 X-37.284 Y-39.769 E3.04615
G1 X-35.537 Y-41.338 E3.09872
G1 X-33.723 Y-42.830 E3.15131
G1 X-31.853 Y-44.238 E3.20371
G1 X-29.919 Y-45.569 E3.25627
G1 X-28.152 Y-46.675 E3.30294
G1 X-25.914 Y-47.960 E3.36072
G1 X-23.804 Y-49.041 E3.41380
G1 X-21.672 Y-50.021 E3.46633
G1 X-19.498 Y-50.907 E3.51889
G1 X-17.289 Y-51.699 E3.57143
G1 X-15.050 Y-52.394 E3.62392
G1 X-13.038 Y-52.926 E3.67051
G1 X-10.516 Y-53.490 E3.72837
G1 X-8.178 Y-53.896 E3.78149
G1 X-5.852 Y-54.198 E3.83401
G1 X-3.516 Y-54.399 E3.88650
G1 X-1.436 Y-54.489 E3.93311
G1 X1.147 Y-54.502 E3.99094
G1 X3.519 Y-54.399 E4.04409
G1 X5.850 Y-54.198 E4.09647
G1 X7.917 Y-53.931 E4.14314
G1 X10.467 Y-53.500 E4.20103
G1 X12.785 Y-52.993 E4.25416
G1 X15.051 Y-52.393 E4.30664
G1 X17.289 Y-51.699 E4.35910
G1 X19.498 Y-50.907 E4.41163
G1 X21.672 Y-50.020 E4.46420
G1 X23.566 Y-49.150 E4.51086
G1 X25.869 Y-47.985 E4.56865
G1 X27.930 Y-46.814 E4.62172
G1 X29.920 Y-45.569 E4.67427
G1 X31.853 Y-44.238 E4.72681
G1 X33.513 Y-42.988 E4.77334
G1 X35.518 Y-41.355 E4.83123
G1 X37.284 Y-39.769 E4.88437
G1 X38.959 Y-38.129 E4.93685
G1 X40.249 Y-36.753 E4.97908
G1 X40.563 Y-36.417 E4.98938
G1 X42.093 Y-34.640 E5.04187
G1 X43.545 Y-32.795 E5.09444
G1 X44.914 Y-30.893 E5.14690
G1 X46.203 Y-28.931 E5.19946
G1 X47.404 Y-26.916 E5.25198
G1 X48.518 Y-24.853 E5.30447
G1 X49.428 Y-22.979 E5.35111
G1 X50.466 Y-20.613 E5.40895
G1 X51.314 Y-18.398 E5.46205
G1 X52.057 Y-16.176 E5.51451
G1 X52.706 Y-13.921 E5.56704
G1 X53.194 Y-11.896 E5.61368
G1 X53.704 Y-9.363 E5.67152
G1 X54.060 Y-7.018 E5.72463
G1 X54.312 Y-4.683 E5.77721
G1 X54.445 Y-2.607 E5.82378
G1 X54.514 Y-0.030 E5.88149
G1 X54.473 Y1.899 E5.92469
G1 X54.461 Y2.362 E5.93506
G1 X54.330 Y4.418 E5.98118
G1 X54.093 Y6.726 E6.03313
G1 X53.753 Y9.047 E6.08565
G1 X53.314 Y11.352 E6.13818
G1 X52.776 Y13.635 E6.19069
G1 X52.140 Y15.892 E6.24319
G1 X51.409 Y18.121 E6.29571
G1 X50.581 Y20.315 E6.34821
G1 X49.660 Y22.475 E6.40078
G1 X48.529 Y24.832 E6.45931
G1 X47.404 Y26.915 E6.51231
G1 X46.338 Y28.705 E6.55895
G1 X44.928 Y30.873 E6.61685
G1 X43.698 Y32.581 E6.66398
G1 X42.109 Y34.621 E6.72187
G1 X40.733 Y36.220 E6.76910
G1 X38.978 Y38.111 E6.82686
G1 X37.532 Y39.526 E6.87215
G1 X37.022 Y40.004 E6.88780
G1 X35.536 Y41.339 E6.93252
G1 X33.925 Y42.663 E6.97921
G1 X31.874 Y44.223 E7.03690
G1 X29.919 Y45.569 E7.09004
G1 X28.152 Y46.675 E7.13671
G1 X25.911 Y47.962 E7.19457
G1 X24.041 Y48.919 E7.24160
G1 X21.941 Y49.898 E7.29347
G1 X19.767 Y50.797 E7.34614
G1 X17.313 Y51.691 E7.40461
G1 X15.304 Y52.314 E7.45170
G1 X13.070 Y52.918 E7.50351
G1 X10.776 Y53.433 E7.55615
G1 X8.202 Y53.893 E7.61469
G1 X6.305 Y54.138 E7.65751
G1 X5.863 Y54.197 E7.66750
G0 F9000 X5.824 Y53.840
G1 F1200 X3.756 Y54.018 E7.71397
G1 X1.457 Y54.130 E7.76550
G1 X-1.138 Y54.143 E7.82360
G1 X-3.229 Y54.053 E7.87046
G1 X-5.524 Y53.867 E7.92200
G1 X-7.839 Y53.580 E7.97423
G1 X-10.397 Y53.147 E8.03231
G1 X-12.440 Y52.701 E8.07913
G1 X-14.670 Y52.124 E8.13070
G1 X-16.900 Y51.445 E8.18289
G1 X-19.348 Y50.580 E8.24102
G1 X-21.529 Y49.691 E8.29375
G1 X-23.645 Y48.719 E8.34588
G1 X-25.487 Y47.776 E8.39221
G1 X-27.727 Y46.518 E8.44972
G1 X-29.722 Y45.269 E8.50242
G1 X-31.427 Y44.096 E8.54875
G1 X-33.481 Y42.564 E8.60612
G1 X-35.100 Y41.233 E8.65304
G1 X-37.021 Y39.524 E8.71061
G1 X-38.703 Y37.878 E8.76330
G1 X-39.987 Y36.508 E8.80533
G1 X-40.296 Y36.178 E8.81545
G1 X-41.815 Y34.412 E8.86761
G1 X-43.258 Y32.579 E8.91983
G1 X-44.465 Y30.902 E8.96609
G1 X-45.886 Y28.760 E9.02364
G1 X-46.957 Y26.964 E9.07046
G1 X-48.188 Y24.712 E9.12792
G1 X-49.217 Y22.591 E9.18069
G1 X-50.038 Y20.694 E9.22697
G1 X-50.968 Y18.301 E9.28445
G1 X-51.715 Y16.068 E9.33717
G1 X-52.286 Y14.081 E9.38345
G1 X-52.901 Y11.588 E9.44094
G1 X-53.303 Y9.532 E9.48784
G1 X-53.701 Y6.996 E9.54531
G1 X-53.954 Y4.652 E9.59810
G1 X-54.086 Y2.590 E9.64436
G1 X-54.155 Y0.026 E9.70178
G1 X-54.104 Y-2.327 E9.75447
G1 X-53.971 Y-4.393 E9.80082
G1 X-53.707 Y-6.948 E9.85833
G1 X-53.394 Y-9.016 E9.90515
G1 X-52.911 Y-11.541 E9.96271
G1 X-52.359 Y-13.829 E10.01540
G1 X-51.787 Y-15.817 E10.06172
G1 X-50.984 Y-18.255 E10.11918
G1 X-50.143 Y-20.452 E10.17185
G1 X-49.321 Y-22.351 E10.21818
G1 X-48.210 Y-24.669 E10.27573
G1 X-47.216 Y-26.509 E10.32255
G1 X-45.912 Y-28.720 E10.38002
G1 X-44.618 Y-30.689 E10.43277
G1 X-43.411 Y-32.366 E10.47902
G1 X-41.831 Y-34.394 E10.53658
G1 X-40.295 Y-36.179 E10.58930
G1 X-39.017 Y-37.541 E10.63112
G1 X-39.018 Y-37.542 E10.63115
G1 X-38.704 Y-37.877 E10.64143
G1 X-37.038 Y-39.507 E10.69361
G1 X-35.303 Y-41.066 E10.74583
G1 X-33.501 Y-42.547 E10.79805
G1 X-31.643 Y-43.947 E10.85014
G1 X-29.722 Y-45.269 E10.90234
G1 X-27.967 Y-46.367 E10.94869
G1 X-25.742 Y-47.645 E11.00614
G1 X-23.647 Y-48.718 E11.05884
G1 X-21.529 Y-49.691 E11.11102
G1 X-19.369 Y-50.571 E11.16324
G1 X-17.175 Y-51.358 E11.21542
G1 X-14.951 Y-52.049 E11.26756
G1 X-12.953 Y-52.577 E11.31383
G1 X-10.446 Y-53.138 E11.37134
G1 X-8.124 Y-53.541 E11.42410
G1 X-5.813 Y-53.841 E11.47628
G1 X-3.493 Y-54.041 E11.52841
G1 X-1.428 Y-54.130 E11.57469
G1 X1.140 Y-54.143 E11.63218
G1 X3.495 Y-54.041 E11.68495
G1 X5.812 Y-53.841 E11.73702
G1 X7.864 Y-53.576 E11.78334
G1 X10.398 Y-53.147 E11.84088
G1 X12.701 Y-52.644 E11.89366
G1 X14.952 Y-52.048 E11.94579
G1 X17.175 Y-51.358 E11.99790
G1 X19.369 Y-50.571 E12.05008
G1 X21.530 Y-49.691 E12.10232
G1 X23.410 Y-48.827 E12.14865
G1 X25.699 Y-47.668 E12.20609
G1 X27.746 Y-46.506 E12.25878
G1 X29.722 Y-45.269 E12.31098
G1 X31.643 Y-43.947 E12.36318
G1 X33.292 Y-42.705 E12.40940
G1 X35.285 Y-41.082 E12.46695
G1 X37.038 Y-39.507 E12.51971
G1 X38.703 Y-37.878 E12.57186
G1 X39.987 Y-36.508 E12.61389
G1 X40.296 Y-36.178 E12.62402
G1 X41.815 Y-34.412 E12.67617
G1 X43.258 Y-32.579 E12.72839
G1 X44.618 Y-30.690 E12.78051
G1 X45.898 Y-28.740 E12.83273
G1 X47.092 Y-26.739 E12.88490
G1 X48.199 Y-24.689 E12.93706
G1 X49.102 Y-22.828 E12.98337
G1 X50.134 Y-20.477 E13.04085
G1 X50.976 Y-18.277 E13.09359
G1 X51.714 Y-16.069 E13.14571
G1 X52.358 Y-13.829 E13.19789
G1 X52.844 Y-11.818 E13.24421
G1 X53.350 Y-9.300 E13.30171
G1 X53.704 Y-6.971 E13.35445
G1 X53.954 Y-4.652 E13.40667
G1 X54.086 Y-2.590 E13.45293
G1 X54.155 Y-0.029 E13.51029
G1 X54.114 Y1.890 E13.55326
G1 X54.103 Y2.346 E13.56347
G1 X53.972 Y4.388 E13.60928
G1 X53.736 Y6.682 E13.66091
G1 X53.399 Y8.987 E13.71306
G1 X52.963 Y11.277 E13.76525
G1 X52.428 Y13.545 E13.81742
G1 X51.797 Y15.787 E13.86957
G1 X51.070 Y18.001 E13.92174
G1 X50.248 Y20.181 E13.97390
G1 X49.333 Y22.327 E14.02613
G1 X48.209 Y24.669 E14.08429
G1 X47.092 Y26.738 E14.13693
G1 X46.033 Y28.515 E14.18324
G1 X44.632 Y30.670 E14.24079
G1 X43.411 Y32.366 E14.28758
G1 X41.831 Y34.393 E14.34512
G1 X40.466 Y35.980 E14.39198
G1 X38.720 Y37.861 E14.44944
G1 X37.284 Y39.267 E14.49443
G1 X36.779 Y39.740 E14.50992
G1 X35.302 Y41.067 E14.55438
G1 X33.702 Y42.381 E14.60073
G1 X31.664 Y43.932 E14.65807
G1 X29.722 Y45.269 E14.71085
G1 X27.967 Y46.367 E14.75720
G1 X25.740 Y47.646 E14.81470
G1 X23.883 Y48.596 E14.86140
G1 X21.797 Y49.570 E14.91294
G1 X19.637 Y50.463 E14.96527
G1 X17.198 Y51.351 E15.02338
G1 X15.204 Y51.969 E15.07012
G1 X12.983 Y52.570 E15.12163
G1 X10.705 Y53.081 E15.17390
G1 X8.147 Y53.539 E15.23208
G1 X6.287 Y53.778 E15.27406
G1 X6.287 Y53.779 E15.27408
G1 X5.824 Y53.840 E15.28454
G1 F2400 E13.28454
G0 F9000 X2.962 Y42.249
;TYPE:WALL-INNER
G1 F2400 E15.28454
G1 F1200 X1.142 Y42.337 E15.32533
G1 X-0.906 Y42.348 E15.37118
G1 X-2.503 Y42.279 E15.40697
G1 X-4.321 Y42.132 E15.44781
G1 X-6.145 Y41.905 E15.48896
G1 X-8.145 Y41.567 E15.53437
G1 X-9.691 Y41.230 E15.56979
G1 X-11.482 Y40.766 E15.61121
G1 X-13.215 Y40.238 E15.65177
G1 X-15.155 Y39.553 E15.69783
G1 X-16.855 Y38.860 E15.73894
G1 X-18.484 Y38.111 E15.77908
G1 X-19.910 Y37.382 E15.81493
G1 X-21.703 Y36.374 E15.86098
G1 X-23.251 Y35.405 E15.90187
G1 X-24.554 Y34.508 E15.93729
G1 X-26.209 Y33.275 E15.98349
G1 X-27.434 Y32.267 E16.01901
G1 X-28.968 Y30.902 E16.06498
G1 X-30.282 Y29.617 E16.10613
G1 X-31.516 Y28.300 E16.14653
G1 X-32.701 Y26.923 E16.18720
G1 X-33.827 Y25.492 E16.22797
G1 X-34.765 Y24.188 E16.26393
G1 X-35.907 Y22.469 E16.31014
G1 X-36.716 Y21.110 E16.34555
G1 X-37.697 Y19.314 E16.39136
G1 X-38.498 Y17.665 E16.43241
G1 X-39.126 Y16.214 E16.46780
G1 X-39.868 Y14.304 E16.51368
G1 X-40.453 Y12.557 E16.55493
G1 X-40.887 Y11.046 E16.59012
G1 X-41.382 Y9.040 E16.63638
G1 X-41.689 Y7.470 E16.67219
G1 X-42.003 Y5.466 E16.71761
G1 X-42.200 Y3.641 E16.75870
G1 X-42.304 Y2.025 E16.79496
G1 X-42.358 Y0.013 E16.84002
G1 X-42.318 Y-1.824 E16.88116
G1 X-42.215 Y-3.427 E16.91712
G1 X-42.006 Y-5.443 E16.96250
G1 X-41.765 Y-7.038 E16.99861
G1 X-41.382 Y-9.039 E17.04422
G1 X-40.952 Y-10.822 E17.08528
G1 X-40.516 Y-12.339 E17.12062
G1 X-39.870 Y-14.300 E17.16685
G1 X-39.217 Y-16.006 E17.20774
G1 X-38.588 Y-17.457 E17.24315
G1 X-37.699 Y-19.312 E17.28920
G1 X-36.950 Y-20.699 E17.32449
G1 X-35.899 Y-22.481 E17.37081
G1 X-34.901 Y-24.000 E17.41150
G1 X-33.966 Y-25.298 E17.44732
G1 X-32.696 Y-26.929 E17.49360
G1 X-31.516 Y-28.300 E17.53409
G1 X-30.282 Y-29.617 E17.57450
G1 X-28.959 Y-30.912 E17.61595
G1 X-27.632 Y-32.104 E17.65588
G1 X-26.197 Y-33.283 E17.69746
G1 X-24.743 Y-34.378 E17.73821
G1 X-23.251 Y-35.405 E17.77877
G1 X-21.904 Y-36.248 E17.81434
G1 X-20.100 Y-37.284 E17.86092
G1 X-18.493 Y-38.107 E17.90134
G1 X-16.855 Y-38.860 E17.94170
G1 X-15.141 Y-39.558 E17.98313
G1 X-13.433 Y-40.171 E18.02376
G1 X-11.695 Y-40.711 E18.06450
G1 X-10.166 Y-41.115 E18.09991
G1 X-8.145 Y-41.567 E18.14628
G1 X-6.365 Y-41.876 E18.18672
G1 X-4.540 Y-42.113 E18.22792
G1 X-2.743 Y-42.268 E18.26831
G1 X-1.132 Y-42.337 E18.30441
G1 X0.925 Y-42.348 E18.35046
G1 X2.720 Y-42.270 E18.39068
G1 X4.540 Y-42.113 E18.43158
G1 X6.144 Y-41.906 E18.46779
G1 X8.140 Y-41.568 E18.51311
G1 X9.944 Y-41.174 E18.55445
G1 X11.694 Y-40.711 E18.59498
G1 X13.433 Y-40.171 E18.63575
G1 X15.141 Y-39.558 E18.67638
G1 X16.846 Y-38.863 E18.71760
G1 X18.280 Y-38.204 E18.75293
G1 X20.130 Y-37.268 E18.79935
G1 X21.689 Y-36.383 E18.83948
G1 X23.251 Y-35.405 E18.88074
G1 X24.743 Y-34.378 E18.92129
G1 X26.024 Y-33.413 E18.95720
G1 X27.622 Y-32.112 E19.00333
G1 X28.959 Y-30.912 E19.04355
G1 X30.282 Y-29.617 E19.08500
G1 X31.516 Y-28.300 E19.12541
G1 X32.701 Y-26.923 E19.16608
G1 X33.827 Y-25.492 E19.20685
G1 X34.901 Y-24.000 E19.24800
G1 X35.906 Y-22.470 E19.28899
G1 X36.834 Y-20.913 E19.32957
G1 X37.697 Y-19.315 E19.37023
G1 X38.391 Y-17.885 E19.40581
G1 X39.222 Y-15.992 E19.45210
G1 X39.869 Y-14.303 E19.49259
G1 X40.453 Y-12.557 E19.53381
G1 X40.952 Y-10.822 E19.57423
G1 X41.329 Y-9.259 E19.61023
G1 X41.730 Y-7.264 E19.65578
G1 X42.005 Y-5.454 E19.69677
G1 X42.200 Y-3.641 E19.73759
G1 X42.304 Y-2.025 E19.77385
G1 X42.358 Y-0.012 E19.81893
G1 X42.323 Y1.620 E19.85548
G1 X42.320 Y1.788 E19.85924
G1 X42.216 Y3.405 E19.89552
G1 X42.029 Y5.235 E19.93670
G1 X41.764 Y7.041 E19.97757
G1 X41.429 Y8.804 E20.01774
G1 X41.009 Y10.585 E20.05871
G1 X40.507 Y12.367 E20.10016
G1 X39.947 Y14.073 E20.14036
G1 X39.303 Y15.779 E20.18118
G1 X38.581 Y17.472 E20.22239
G1 X37.699 Y19.312 E20.26807
G1 X36.834 Y20.914 E20.30883
G1 X36.020 Y22.279 E20.34441
G1 X34.905 Y23.995 E20.39023
G1 X33.966 Y25.298 E20.42619
G1 X32.696 Y26.929 E20.47247
G1 X31.691 Y28.097 E20.50696
G1 X30.264 Y29.635 E20.55394
G1 X29.140 Y30.735 E20.58915
G1 X27.621 Y32.113 E20.63506
G1 X26.382 Y33.131 E20.67096
G1 X24.747 Y34.376 E20.71697
G1 X23.251 Y35.405 E20.75762
G1 X21.904 Y36.248 E20.79320
G1 X20.108 Y37.279 E20.83956
G1 X18.692 Y38.004 E20.87518
G1 X17.046 Y38.772 E20.91584
G1 X15.386 Y39.458 E20.95606
G1 X13.426 Y40.172 E21.00276
G1 X11.911 Y40.642 E21.03827
G1 X10.151 Y41.118 E21.07909
G1 X8.377 Y41.516 E21.11979
G1 X6.355 Y41.878 E21.16578
G1 X4.747 Y42.086 E21.20208
G1 X2.962 Y42.249 E21.24221
G0 F9000 X1.138 Y42.696
G1 F1200 X-0.919 Y42.707 E21.28826
G1 X-2.522 Y42.638 E21.32419
G1 X-4.370 Y42.488 E21.36570
G1 X-6.183 Y42.263 E21.40660
G1 X-8.215 Y41.919 E21.45274
G1 X-9.782 Y41.577 E21.48865
G1 X-11.563 Y41.117 E21.52983
G1 X-13.339 Y40.576 E21.57139
G1 X-15.284 Y39.888 E21.61758
G1 X-16.988 Y39.194 E21.65877
G1 X-18.646 Y38.432 E21.69963
G1 X-20.079 Y37.699 E21.73566
G1 X-21.885 Y36.684 E21.78204
G1 X-23.441 Y35.710 E21.82314
G1 X-24.766 Y34.798 E21.85915
G1 X-26.442 Y33.548 E21.90596
G1 X-27.659 Y32.548 E21.94123
G1 X-29.216 Y31.163 E21.98788
G1 X-30.530 Y29.876 E22.02906
G1 X-31.785 Y28.538 E22.07013
G1 X-32.979 Y27.150 E22.11112
G1 X-34.125 Y25.694 E22.15260
G1 X-35.045 Y24.416 E22.18786
G1 X-36.212 Y22.657 E22.23512
G1 X-37.030 Y21.285 E22.27088
G1 X-38.019 Y19.474 E22.31708
G1 X-38.816 Y17.831 E22.35796
G1 X-39.458 Y16.348 E22.39414
G1 X-40.214 Y14.403 E22.44086
G1 X-40.791 Y12.678 E22.48158
G1 X-41.237 Y11.125 E22.51776
G1 X-41.729 Y9.132 E22.56372
G1 X-42.040 Y7.544 E22.59994
G1 X-42.361 Y5.497 E22.64633
G1 X-42.561 Y3.645 E22.68804
G1 X-42.660 Y2.094 E22.72283
G1 X-42.716 Y-0.007 E22.76989
G1 X-42.676 Y-1.864 E22.81147
G1 X-42.575 Y-3.436 E22.84674
G1 X-42.362 Y-5.492 E22.89301
G1 X-42.122 Y-7.079 E22.92895
G1 X-41.730 Y-9.128 E22.97565
G1 X-41.299 Y-10.913 E23.01676
G1 X-40.859 Y-12.445 E23.05245
G1 X-40.208 Y-14.421 E23.09903
G1 X-39.555 Y-16.127 E23.13992
G1 X-38.905 Y-17.628 E23.17655
G1 X-38.022 Y-19.468 E23.22224
G1 X-37.259 Y-20.882 E23.25821
G1 X-36.200 Y-22.677 E23.30487
G1 X-35.195 Y-24.208 E23.34587
G1 X-34.264 Y-25.501 E23.38154
G1 X-32.977 Y-27.152 E23.42841
G1 X-31.785 Y-28.538 E23.46934
G1 X-30.530 Y-29.876 E23.51041
G1 X-29.208 Y-31.170 E23.55182
G1 X-27.857 Y-32.384 E23.59249
G1 X-26.426 Y-33.561 E23.63397
G1 X-24.963 Y-34.662 E23.67496
G1 X-23.441 Y-35.710 E23.71633
G1 X-22.074 Y-36.565 E23.75243
G1 X-20.298 Y-37.585 E23.79828
G1 X-18.636 Y-38.436 E23.84009
G1 X-16.988 Y-39.194 E23.88070
G1 X-15.277 Y-39.891 E23.92206
G1 X-13.562 Y-40.506 E23.96285
G1 X-11.779 Y-41.060 E24.00465
G1 X-10.256 Y-41.462 E24.03992
G1 X-8.203 Y-41.922 E24.08702
G1 X-6.428 Y-42.230 E24.12735
G1 X-4.570 Y-42.471 E24.16930
G1 X-2.767 Y-42.627 E24.20981
G1 X-1.149 Y-42.696 E24.24607
G1 X0.919 Y-42.707 E24.29237
