;Generated with Cura_SteamEngine 14.09
G28
M104 S210
M190 S50
M109 S210
; BEGINNING OF HEAD MOVEMENT WARNING TONES
M120 S4 P10
G4 P40
M120 S4 P10
G4 P40
M120 S4 P10
G4 P40
M120 S4 P10
G4 P40
M120 S4 P10
G4 P40
M117 KEEP HANDS AWAY
G4 S3
; END OF HEAD WARNING TONES
;Layer count: 50
;LAYER:0
M107
G0 F9000 X-32.692 Y0.223 Z0.300
G0 X-32.702 Y0.046 Z0.322007572356
;TYPE:SKIRT
G1 F1200 X-32.644 Y-1.935 E0.14831 Z0.33273281881
G1 X-32.475 Y-3.831 E0.29076 Z0.343057778657
G1 X-32.186 Y-5.782 E0.43836 Z0.35
G1 X-31.795 Y-7.643 E0.58067 Z0.355289077904
G1 X-31.287 Y-9.512 E0.72561 Z0.36563469525
G1 X-30.668 Y-11.349 E0.87068 Z0.377218916394
G1 X-29.941 Y-13.147 E1.01581 Z0.383825257162
G1 X-29.109 Y-14.897 E1.16082 Z0.392981383963
G1 X-28.176 Y-16.594 E1.30575 Z0.40519387601
G1 X-27.123 Y-18.267 E1.45368 Z0.41097028059
G1 X-26.014 Y-19.813 E1.59607 Z0.415721776875
G1 X-24.796 Y-21.316 E1.74084 Z0.42
G1 X-23.490 Y-22.748 E1.88588 Z0.425739087765
G1 X-22.100 Y-24.100 E2.03099 Z0.43
G1 X-20.635 Y-25.367 E2.17594 Z0.434581624321
G1 X-19.065 Y-26.568 E2.32386 Z0.44
G1 X-17.487 Y-27.631 E2.46625 Z0.437487830301
G1 X-15.822 Y-28.617 E2.61106 Z0.434700395055
G1 X-14.098 Y-29.505 E2.75618 Z0.433230951908
G1 X-12.325 Y-30.287 E2.90120 Z0.438612062093
G1 X-10.475 Y-30.978 E3.04899 Z0.445058471864
G1 X-8.654 Y-31.533 E3.19145 Z0.45
G1 X-6.772 Y-31.990 E3.33638 Z0.45
G1 X-4.866 Y-32.335 E3.48134 Z0.45
G1 X-2.943 Y-32.566 E3.62628 Z0.45
G1 X-0.972 Y-32.687 E3.77406 Z0.45
G1 X0.969 Y-32.687 E3.91931 Z0.45
G1 X2.866 Y-32.575 E4.06152 Z0.451473572385
G1 X4.789 Y-32.348 E4.20643 Z0.45
G1 X6.733 Y-32.000 E4.35422 Z0.453679190313
G1 X8.583 Y-31.554 E4.49663 Z0.46
G1 X10.436 Y-30.991 E4.64156 Z0.46
G1 X12.288 Y-30.304 E4.78939 Z0.46
G1 X14.029 Y-29.538 E4.93173 Z0.46
G1 X15.753 Y-28.655 E5.07668 Z0.46
G1 X17.423 Y-27.672 E5.22170 Z0.467303037995
G1 X19.062 Y-26.571 E5.36946 Z0.473659007769
G1 X20.575 Y-25.416 E5.51191 Z0.474740863458
G1 X22.043 Y-24.153 E5.65683 Z0.473493919206
G1 X23.462 Y-22.779 E5.80464 Z0.48
G1 X24.746 Y-21.375 E5.94702 Z0.48
G1 X25.991 Y-19.844 E6.09470 Z0.48
G1 X27.100 Y-18.299 E6.23702 Z0.48
G1 X28.136 Y-16.662 E6.38200 Z0.475342243208
G1 X29.073 Y-14.966 E6.52700 Z0.47
G1 X29.925 Y-13.184 E6.67482 Z0.476050585226
G1 X30.640 Y-11.421 E6.81719 Z0.477379186264
G1 X31.262 Y-9.588 E6.96204 Z0.47
G1 X31.786 Y-7.682 E7.10997 Z0.465365268569
G1 X32.177 Y-5.820 E7.25235 Z0.46
G1 X32.465 Y-3.907 E7.39713 Z0.46
G1 X32.644 Y-1.938 E7.54509 Z0.456375738798
G1 X32.695 Y-0.176 E7.67700 Z0.45
G1 X32.702 Y-0.047 E7.68667 Z0.45
G1 X32.646 Y1.898 E7.83228 Z0.437496051426
G1 X32.476 Y3.829 E7.97735 Z0.43
G1 X32.192 Y5.746 E8.12237 Z0.427226326309
G1 X31.786 Y7.679 E8.27019 Z0.424640710694
G1 X31.276 Y9.549 E8.41524 Z0.42
G1 X30.667 Y11.351 E8.55759 Z0.407223817722
G1 X29.927 Y13.181 E8.70531 Z0.406060702425
G1 X29.092 Y14.932 E8.85048 Z0.4
G1 X28.157 Y16.628 E8.99541 Z0.389465891932
G1 X27.122 Y18.268 E9.14054 Z0.38
G1 X26.050 Y19.762 E9.27815 Z0.38
G1 X25.949 Y19.897 E9.29076 Z0.38
G1 X24.771 Y21.348 E9.43063 Z0.38
G1 X23.463 Y22.777 E9.57560 Z0.374184438527
G1 X22.072 Y24.128 E9.72072 Z0.37
G1 X20.604 Y25.393 E9.86574 Z0.360666648587
G1 X19.064 Y26.569 E10.01074 Z0.35
G1 X17.456 Y27.652 E10.15583 Z0.34739474296
G1 X15.788 Y28.637 E10.30079 Z0.34
G1 X14.096 Y29.506 E10.44314 Z0.34
G1 X12.291 Y30.303 E10.59079 Z0.338658987537
G1 X10.473 Y30.978 E10.73592 Z0.334936850998
G1 X8.619 Y31.545 E10.88101 Z0.319718196235
G1 X6.734 Y32.000 E11.02612 Z0.327359847068
G1 X4.864 Y32.335 E11.16829 Z0.32
G1 X2.906 Y32.571 E11.31588 Z0.322916287406
G1 X0.970 Y32.687 E11.46102 Z0.32
G1 X-0.970 Y32.687 E11.60620 Z0.316683467722
G1 X-2.903 Y32.571 E11.75112 Z0.311459938071
G1 X-4.790 Y32.348 E11.89332 Z0.30419109784
G1 X-6.733 Y32.000 E12.04104 Z0.303679190313
G1 X-8.619 Y31.545 E12.18622 Z0.294859098118
G1 X-10.473 Y30.978 E12.33131 Z0.3
G1 X-12.289 Y30.304 E12.47627 Z0.298660291767
G1 X-14.029 Y29.538 E12.61854 Z0.293406923182
G1 X-15.753 Y28.655 E12.76350 Z0.29
G1 X-17.422 Y27.672 E12.90845 Z0.287301786715
G1 X-19.032 Y26.592 E13.05353 Z0.282885406883
G1 X-20.574 Y25.417 E13.19861 Z0.275255963064
G1 X-22.042 Y24.154 E13.34354 Z0.276509144824
G1 X-23.436 Y22.805 E13.48871 Z0.274113370158
G1 X-24.744 Y21.376 E13.63368 Z0.277328787997
G1 X-25.967 Y19.874 E13.77863 Z0.274166020621
G1 X-27.121 Y18.270 E13.92650 Z0.279023054119
G1 X-28.137 Y16.660 E14.06897 Z0.28466217676
G1 X-29.073 Y14.967 E14.21374 Z0.283091081668
G1 X-29.910 Y13.218 E14.35885 Z0.291873011061
G1 X-30.640 Y11.423 E14.50386 Z0.294763625801
G1 X-31.262 Y9.588 E14.64886 Z0.295685632949
G1 X-31.786 Y7.682 E14.79679 Z0.294634731431
G1 X-32.177 Y5.821 E14.93909 Z0.302782807431
G1 X-32.471 Y3.869 E15.08682 Z0.306833671167
G1 X-32.640 Y1.972 E15.22935 Z0.313520626417
G1 X-32.692 Y0.223 E15.36029 Z0.322467999401
G1 X-32.702 Y0.046 E15.37356 Z0.322007572356
G1 F2400 E7.37356
G0 F9000 X-27.850 Y-1.648 Z0.345372751675
;TYPE:WALL-INNER
G1 F2400 E15.37356
G1 F1200 X-27.707 Y-3.260 E15.49467 Z0.347539053691
G1 X-27.459 Y-4.936 E15.62146 Z0.362639028665
G1 X-27.127 Y-6.515 E15.74220 Z0.371757157633
G1 X-26.692 Y-8.113 E15.86614 Z0.376945781556
G1 X-26.163 Y-9.686 E15.99034 Z0.38
G1 X-25.542 Y-11.221 E16.11425 Z0.39
G1 X-24.837 Y-12.702 E16.23700 Z0.39
G1 X-24.040 Y-14.154 E16.36096 Z0.397178087991
G1 X-23.139 Y-15.585 E16.48750 Z0.403194533073
G1 X-22.185 Y-16.914 E16.60993 Z0.42
G1 X-21.160 Y-18.179 E16.73177 Z0.420783154688
G1 X-20.039 Y-19.409 E16.85631 Z0.424785102675
G1 X-18.858 Y-20.558 E16.97962 Z0.43
G1 X-17.602 Y-21.643 E17.10383 Z0.43
G1 X-16.262 Y-22.670 E17.23017 Z0.43
G1 X-14.932 Y-23.565 E17.35014 Z0.43
G1 X-13.483 Y-24.423 E17.47616 Z0.43
G1 X-12.026 Y-25.173 E17.59879 Z0.433910343711
G1 X-10.522 Y-25.837 E17.72183 Z0.44
G1 X-8.941 Y-26.427 E17.84811 Z0.438082296545
G1 X-7.387 Y-26.901 E17.96970 Z0.44
G1 X-5.772 Y-27.293 E18.09406 Z0.441202323476
G1 X-4.148 Y-27.587 E18.21757 Z0.446010824259
G1 X-2.511 Y-27.784 E18.34096 Z0.45
G1 X-2.113 Y-27.808 E18.37080 Z0.45
G1 X-2.250 Y-27.721 E18.38295 Z0.45
G1 X-2.857 Y-27.076 E18.44923 Z0.45
G1 X-3.284 Y-26.300 E18.51551 Z0.45
G1 X-3.504 Y-25.443 E18.58172 Z0.45
G1 X-3.504 Y-24.556 E18.64810 Z0.45
G1 X-3.284 Y-23.699 E18.71432 Z0.448676894353
G1 X-2.857 Y-22.923 E18.78060 Z0.446396225801
G1 X-2.250 Y-22.278 E18.84688 Z0.444410096687
G1 X-1.504 Y-21.804 E18.91302 Z0.44
G1 X-0.662 Y-21.530 E18.97929 Z0.44
G1 X0.221 Y-21.474 E19.04550 Z0.44
G1 X1.092 Y-21.640 E19.11186 Z0.44
G1 X1.893 Y-22.018 E19.17814 Z0.44
G1 X2.574 Y-22.582 E19.24431 Z0.445252880458
G1 X3.095 Y-23.297 E19.31052 Z0.447641933154
G1 X3.421 Y-24.122 E19.37690 Z0.45
G1 X3.531 Y-25.000 E19.44312 Z0.45
G1 X3.421 Y-25.877 E19.50926 Z0.45
G1 X3.095 Y-26.702 E19.57565 Z0.45
G1 X2.574 Y-27.417 E19.64185 Z0.45
G1 X2.097 Y-27.812 E19.68820 Z0.45
G1 X4.084 Y-27.597 E19.83777 Z0.45
G1 X5.759 Y-27.298 E19.96510 Z0.451237913382
G1 X7.314 Y-26.923 E20.08480 Z0.454381654784
G1 X8.897 Y-26.441 E20.20864 Z0.458112586578
G1 X10.492 Y-25.850 E20.33593 Z0.45501679485
G1 X11.966 Y-25.202 E20.45642 Z0.45
G1 X13.434 Y-24.449 E20.57989 Z0.45479812067
G1 X14.866 Y-23.607 E20.70421 Z0.46
G1 X16.272 Y-22.662 E20.83098 Z0.46
G1 X17.550 Y-21.687 E20.95128 Z0.467415491932
G1 X18.803 Y-20.609 E21.07497 Z0.47
G1 X20.019 Y-19.431 E21.20167 Z0.47
G1 X21.102 Y-18.247 E21.32175 Z0.47
G1 X22.176 Y-16.927 E21.44910 Z0.474293110515
G1 X23.120 Y-15.611 E21.57030 Z0.47
G1 X24.003 Y-14.215 E21.69392 Z0.47
G1 X24.809 Y-12.759 E21.81846 Z0.47
G1 X25.530 Y-11.250 E21.94361 Z0.47
G1 X26.143 Y-9.739 E22.06564 Z0.466670193708
G1 X26.672 Y-8.179 E22.18891 Z0.467136665938
G1 X27.116 Y-6.562 E22.31440 Z0.46190355525
G1 X27.453 Y-4.961 E22.43684 Z0.456397258063
G1 X27.696 Y-3.341 E22.55943 Z0.45
G1 X27.851 Y-1.643 E22.68703 Z0.445359995222
G1 X27.898 Y0.025 E22.81190 Z0.442993997497
G1 X27.852 Y1.615 E22.93094 Z0.434710486997
G1 X27.708 Y3.253 E23.05399 Z0.432458808096
G1 X27.464 Y4.905 E23.17896 Z0.423775468451
G1 X27.118 Y6.553 E23.30498 Z0.41812472815
G1 X26.682 Y8.149 E23.42879 Z0.412948753428
G1 X26.164 Y9.684 E23.55003 Z0.41
G1 X25.536 Y11.236 E23.67532 Z0.395095272943
G1 X25.140 Y12.068 E23.74428 Z0.393802610824
G1 X25.133 Y11.910 E23.75611 Z0.393781332086
G1 X24.876 Y11.063 E23.82235 Z0.397279869047
G1 X24.418 Y10.306 E23.88856 Z0.401198776204
G1 X23.786 Y9.687 E23.95477 Z0.405269852584
G1 X23.020 Y9.243 E24.02102 Z0.41
G1 X22.165 Y9.005 E24.08744 Z0.41
G1 X21.281 Y8.988 E24.15361 Z0.41
G1 X20.419 Y9.189 E24.21984 Z0.407988476663
G1 X19.633 Y9.600 E24.28622 Z0.405381824877
G1 X18.976 Y10.192 E24.35240 Z0.4
G1 X18.487 Y10.928 E24.41853 Z0.4
G1 X18.195 Y11.766 E24.48494 Z0.4
G1 X18.122 Y12.647 E24.55110 Z0.397815929002
G1 X18.268 Y13.519 E24.61726 Z0.394938626134
G1 X18.629 Y14.329 E24.68363 Z0.392760125549
G1 X19.179 Y15.023 E24.74989 Z0.39
G1 X19.884 Y15.559 E24.81617 Z0.39
G1 X20.701 Y15.901 E24.88245 Z0.386907265609
G1 X21.577 Y16.031 E24.94872 Z0.386345883877
G1 X22.456 Y15.938 E25.01487 Z0.394894581774
G1 X23.042 Y15.721 E25.06164 Z0.396436369732
G1 X22.170 Y16.935 E25.17349 Z0.384276635576
G1 X21.133 Y18.213 E25.29666 Z0.38
G1 X20.018 Y19.432 E25.42029 Z0.38
G1 X18.838 Y20.578 E25.54338 Z0.38
G1 X17.576 Y21.665 E25.66803 Z0.375011342279
G1 X16.259 Y22.671 E25.79205 Z0.37
G1 X14.902 Y23.585 E25.91449 Z0.37
G1 X13.456 Y24.439 E26.04016 Z0.364864913205
G1 X12.033 Y25.170 E26.15988 Z0.35609944082
G1 X10.483 Y25.854 E26.28667 Z0.344964219792
G1 X8.944 Y26.426 E26.40954 Z0.341920259419
G1 X7.346 Y26.914 E26.53458 Z0.34
G1 X5.742 Y27.302 E26.65808 Z0.34
G1 X4.157 Y27.586 E26.77858 Z0.34
G1 X2.473 Y27.789 E26.90551 Z0.34
G1 X0.831 Y27.887 E27.02861 Z0.336513315563
G1 X-0.831 Y27.887 E27.15299 Z0.336513315563
G1 X-2.464 Y27.789 E27.27542 Z0.327045905512
G1 X-4.086 Y27.597 E27.39765 Z0.322360101566
G1 X-5.755 Y27.298 E27.52453 Z0.31
G1 X-7.346 Y26.914 E27.64702 Z0.31
G1 X-8.944 Y26.426 E27.77205 Z0.311920259419
G1 X-10.482 Y25.855 E27.89483 Z0.31
G1 X-11.966 Y25.202 E28.01616 Z0.31
G1 X-13.434 Y24.449 E28.13963 Z0.31
G1 X-14.875 Y23.602 E28.26471 Z0.31
G1 X-16.234 Y22.689 E28.38723 Z0.31
G1 X-17.553 Y21.684 E28.51133 Z0.297427121193
G1 X-18.803 Y20.609 E28.63471 Z0.297141654343
G1 X-19.995 Y19.455 E28.75887 Z0.29
G1 X-21.111 Y18.237 E28.88249 Z0.29
G1 X-22.149 Y16.961 E29.00559 Z0.29
G1 X-23.036 Y15.729 E29.11919 Z0.303585116722
G1 X-22.881 Y15.810 E29.13228 Z0.304028119078
G1 X-22.019 Y16.011 E29.19852 Z0.306077509819
G1 X-21.135 Y15.994 E29.26469 Z0.303342815171
G1 X-20.280 Y15.756 E29.33110 Z0.303860049748
G1 X-19.514 Y15.312 E29.39736 Z0.31
G1 X-18.882 Y14.693 E29.46356 Z0.31
G1 X-18.424 Y13.936 E29.52978 Z0.313662539587
G1 X-18.167 Y13.089 E29.59601 Z0.316351902264
G1 X-18.130 Y12.203 E29.66238 Z0.319207326744
G1 X-18.314 Y11.337 E29.72863 Z0.322372874535
G1 X-18.709 Y10.546 E29.79480 Z0.324874685245
G1 X-19.285 Y9.875 E29.86097 Z0.33
G1 X-20.014 Y9.369 E29.92738 Z0.33
G1 X-20.844 Y9.061 E29.99363 Z0.33
G1 X-21.723 Y8.968 E30.05978 Z0.325176780715
G1 X-22.599 Y9.098 E30.12606 Z0.319342817368
G1 X-23.416 Y9.440 E30.19234 Z0.314588737074
G1 X-24.121 Y9.976 E30.25861 Z0.306733829377
G1 X-24.671 Y10.670 E30.32488 Z0.304528668611
G1 X-25.032 Y11.480 E30.39124 Z0.3
G1 X-25.133 Y12.081 E30.43685 Z0.3
G1 X-25.519 Y11.273 E30.50386 Z0.3
G1 X-26.140 Y9.747 E30.62716 Z0.31
G1 X-26.672 Y8.179 E30.75107 Z0.312863334062
G1 X-27.116 Y6.562 E30.87656 Z0.31809644475
G1 X-27.452 Y4.963 E30.99883 Z0.323596226004
G1 X-27.703 Y3.300 E31.12469 Z0.33
G1 X-27.846 Y1.684 E31.24610 Z0.334535971872
G1 X-27.898 Y-0.031 E31.37450 Z0.34
G1 X-27.850 Y-1.648 E31.49556 Z0.345372751675
G0 F9000 X-6.401 Y-0.809 Z0.39
G1 F1200 X-6.401 Y0.809 E31.61664 Z0.384231077032
G1 X-5.999 Y2.375 E31.73764 Z0.374166670596
G1 X-5.325 Y3.599 E31.84220 Z0.375463835447
G1 X-5.221 Y3.790 E31.85848 Z0.366786686904
G1 X-4.131 Y4.949 E31.97754 Z0.365813809431
G1 X-2.751 Y5.836 E32.10031 Z0.371952534956
G1 X-1.209 Y6.337 E32.22164 Z0.38184349795
G1 X0.405 Y6.439 E32.34267 Z0.39
G1 X1.994 Y6.136 E32.46372 Z0.39
G1 X3.456 Y5.446 E32.58471 Z0.394476636396
G1 X4.703 Y4.416 E32.70574 Z0.405160092267
G1 X5.653 Y3.107 E32.82678 Z0.41
G1 X6.159 Y1.829 E32.92965 Z0.413916119758
G1 X6.247 Y1.617 E32.94682 Z0.414620355434
G1 X6.421 Y0.238 E33.05084 Z0.42
G1 X6.455 Y0.025 E33.06698 Z0.42
G1 X6.273 Y-1.416 E33.17568 Z0.42
G1 X6.239 Y-1.627 E33.19167 Z0.42
G1 X5.728 Y-2.919 E33.29564 Z0.42
G1 X5.645 Y-3.118 E33.31178 Z0.42
G1 X4.837 Y-4.232 E33.41477 Z0.424446261531
G1 X4.708 Y-4.412 E33.43134 Z0.424831742793
G1 X3.456 Y-5.446 E33.55285 Z0.42
G1 X2.188 Y-6.044 E33.65777 Z0.417290837759
G1 X1.998 Y-6.135 E33.67353 Z0.416645041206
G1 X0.629 Y-6.396 E33.77783 Z0.412361763467
G1 X0.412 Y-6.439 E33.79438 Z0.41
G1 X-1.209 Y-6.337 E33.91593 Z0.405921748975
G1 X-2.719 Y-5.846 E34.03476 Z0.401052741813
G1 X-4.109 Y-4.974 E34.15755 Z0.4
G1 X-5.199 Y-3.814 E34.27667 Z0.393290969355
G1 X-5.998 Y-2.378 E34.39965 Z0.39
G1 X-6.401 Y-0.809 E34.52088 Z0.39
G0 F9000 X-5.436 Y-2.154 Z0.39
G1 F1200 X-5.801 Y-0.733 E34.63067 Z0.39
G1 X-5.801 Y0.733 E34.74038 Z0.384995254454
G1 X-5.436 Y2.152 E34.85003 Z0.376280577536
G1 X-4.798 Y3.312 E34.94910 Z0.378098814863
G1 X-4.731 Y3.435 E34.95958 Z0.378581922885
G1 X-3.745 Y4.484 E35.06732 Z0.38008555919
G1 X-2.492 Y5.289 E35.17877 Z0.375430022224
G1 X-1.095 Y5.743 E35.28870 Z0.382617325703
G1 X0.367 Y5.835 E35.39833 Z0.39
G1 X1.807 Y5.561 E35.50802 Z0.39
G1 X3.132 Y4.936 E35.61766 Z0.397117694891
G1 X4.262 Y4.002 E35.72737 Z0.41
G1 X5.123 Y2.816 E35.83704 Z0.41
G1 X5.605 Y1.598 E35.93507 Z0.414694596239
G1 X5.662 Y1.462 E35.94611 Z0.415120542374
G1 X5.825 Y0.167 E36.04378 Z0.419212531968
G1 X5.849 Y0.015 E36.05530 Z0.41949432125
G1 X5.679 Y-1.331 E36.15683 Z0.42
G1 X5.657 Y-1.468 E36.16721 Z0.42
G1 X5.172 Y-2.694 E36.26588 Z0.42
G1 X5.118 Y-2.822 E36.27627 Z0.42
G1 X4.344 Y-3.889 E36.37492 Z0.42
G1 X4.265 Y-4.000 E36.38511 Z0.42
G1 X3.132 Y-4.936 E36.49509 Z0.42
G1 X1.933 Y-5.501 E36.59429 Z0.416289189646
G1 X1.809 Y-5.560 E36.60456 Z0.415945360376
G1 X0.512 Y-5.807 E36.70337 Z0.411798331989
G1 X0.371 Y-5.836 E36.71414 Z0.411334427792
G1 X-1.095 Y-5.743 E36.82407 Z0.406308662851
G1 X-2.463 Y-5.299 E36.93170 Z0.4
G1 X-3.724 Y-4.507 E37.04314 Z0.4
G1 X-4.711 Y-3.457 E37.15098 Z0.394357411062
G1 X-5.436 Y-2.154 E37.26257 Z0.39
G0 F9000 X-19.213 Y10.880 Z0.315609026001
G1 F1200 X-19.690 Y10.324 E37.31739 Z0.320663389503
G1 X-20.294 Y9.905 E37.37240 Z0.323164900795
G1 X-20.982 Y9.650 E37.42731 Z0.325665465078
G1 X-21.711 Y9.573 E37.48217 Z0.324419710369
G1 X-22.437 Y9.680 E37.53709 Z0.320348312947
G1 X-23.113 Y9.964 E37.59196 Z0.306289843061
G1 X-23.698 Y10.408 E37.64692 Z0.305294678507
G1 X-24.154 Y10.983 E37.70184 Z0.30340868832
G1 X-24.453 Y11.654 E37.75681 Z0.3
G1 X-24.574 Y12.377 E37.81167 Z0.3
G1 X-24.513 Y13.107 E37.86649 Z0.3
G1 X-24.271 Y13.802 E37.92156 Z0.3
G1 X-23.866 Y14.412 E37.97636 Z0.3
G1 X-23.321 Y14.903 E38.03126 Z0.302279534398
G1 X-22.670 Y15.243 E38.08622 Z0.304448003482
G1 X-21.956 Y15.410 E38.14109 Z0.306671248815
G1 X-21.223 Y15.396 E38.19596 Z0.307037342086
G1 X-20.515 Y15.198 E38.25097 Z0.31
G1 X-19.880 Y14.830 E38.30590 Z0.31
G1 X-19.356 Y14.318 E38.36072 Z0.31
G1 X-18.976 Y13.690 E38.41565 Z0.314556544336
G1 X-18.764 Y12.988 E38.47053 Z0.316327855271
G1 X-18.733 Y12.254 E38.52551 Z0.317462300812
G1 X-18.885 Y11.536 E38.58043 Z0.31684234023
G1 X-19.213 Y10.880 E38.63532 Z0.315609026001
G0 F9000 X-21.006 Y9.750 Z0.324999893336
G0 X-23.061 Y10.053 Z0.306050734059
G0 X-24.354 Y11.684 Z0.3
G0 X-25.339 Y13.040 Z0.3
G1 F1200 X-26.069 Y11.513 E38.76198 Z0.3
G1 X-26.706 Y9.946 E38.88856 Z0.306768518399
G1 X-27.244 Y8.362 E39.01375 Z0.312233969654
G1 X-27.701 Y6.696 E39.14303 Z0.317085929771
G1 X-28.042 Y5.072 E39.26722 Z0.3160828572
G1 X-28.300 Y3.362 E39.39663 Z0.33
G1 X-28.444 Y1.737 E39.51872 Z0.33
G1 X-28.498 Y-0.004 E39.64907 Z0.34
G1 X-28.448 Y-1.702 E39.77619 Z0.345099086316
G1 X-28.304 Y-3.333 E39.89872 Z0.34562216382
G1 X-28.051 Y-5.033 E40.02735 Z0.362074228284
G1 X-27.710 Y-6.655 E40.15138 Z0.364229169779
